armandomm09/Control-Challenge-4.1/trial_pid_nopert.csv
time,p_x,p_des_x,p_y,p_des_y,p_z,p_des_z,q_1,q_des_1,tau_1,q_2,q_des_2,tau_2,q_3,q_des_3,tau_3,q_4,q_des_4,tau_4,q_5,q_des_5,tau_5,q_6,q_des_6,tau_6
0.0,0.37487232882514687,0.37486525393392506,-0.09725661755041055,-0.09726364241220681,0.07718860214099373,0.07718795261864815,0.01159305963665247,0.01159305963665247,-5.660402871518911e-14,-0.9211976528167725,-0.9211976528167725,-1.5987211342844017e-14,0.49686214327812195,0.49686214327812195,2.986499809186729e-14,-0.0007669904152862728,-0.0007669904152862728,1.806094895628928e-14,1.4337127208709717,1.4338725805282593,0.003998090028763325,-0.02473543956875801,-0.02473543956875801,-1.6141850124617736e-14
0.005,0.37487232882514687,0.37486525393392506,-0.09725661755041055,-0.09726364241220681,0.07718860214099373,0.07718795261864815,0.01159305963665247,0.01159305963665247,-5.660402871518911e-14,-0.9211976528167725,-0.9211976528167725,-1.5987211342844017e-14,0.49686214327812195,0.49686214327812195,2.986499809186729e-14,-0.0007669904152862728,-0.0007669904152862728,1.806094895628928e-14,1.4337127208709717,1.4338725805282593,0.003999688625336201,-0.02473543956875801,-0.02473543956875801,-1.6141850124617736e-14
0.01,0.37487232882514687,0.37486525393392506,-0.09725661755041055,-0.09726364241220681,0.07718860214099373,0.07718795261864815,0.01159305963665247,0.01159305963665247,-5.660402871518911e-14,-0.9211976528167725,-0.9211976528167725,-1.5987211342844017e-14,0.49686214327812195,0.49686214327812195,2.986499809186729e-14,-0.0007669904152862728,-0.0007669904152862728,1.806094895628928e-14,1.4337127208709717,1.4338725805282593,0.004001287221909077,-0.02473543956875801,-0.02473543956875801,-1.6141850124617736e-14
0.015,0.37487232882514687,0.37486525393392506,-0.09725661755041055,-0.09726364241220681,0.07718860214099373,0.07718795261864815,0.01159305963665247,0.01159305963665247,-5.660402871518911e-14,-0.9211976528167725,-0.9211976528167725,-1.5987211342844017e-14,0.49686214327812195,0.49686214327812195,2.986499809186729e-14,-0.0007669904152862728,-0.0007669904152862728,1.806094895628928e-14,1.4337127208709717,1.4338725805282593,0.004002885818481953,-0.02473543956875801,-0.02473543956875801,-1.6141850124617736e-14
0.02,0.37487232882514687,0.37486525393392506,-0.09725661755041055,-0.09726364241220681,0.07718860214099373,0.07718795261864815,0.01159305963665247,0.01159305963665247,-5.660402871518911e-14,-0.9211976528167725,-0.9211976528167725,-1.5987211342844017e-14,0.49686214327812195,0.49686214327812195,2.986499809186729e-14,-0.0007669904152862728,-0.0007669904152862728,1.806094895628928e-14,1.4337127208709717,1.4338725805282593,0.004004484415054829,-0.02473543956875801,-0.02473543956875801,-1.6141850124617736e-14
0.025,0.37487232882514687,0.37486525393392506,-0.09725661755041055,-0.09726364241220681,0.07718860214099373,0.07718795261864815,0.01159305963665247,0.01159305963665247,-5.660402871518911e-14,-0.9211976528167725,-0.9211976528167725,-1.5987211342844017e-14,0.49686214327812195,0.49686214327812195,2.986499809186729e-14,-0.0007669904152862728,-0.0007669904152862728,1.806094895628928e-14,1.4337127208709717,1.4338725805282593,0.004006083011627705,-0.02473543956875801,-0.02473543956875801,-1.6141850124617736e-14
0.030000000000000002,0.37487232882514687,0.37486525393392506,-0.09725661755041055,-0.09726364241220681,0.07718860214099373,0.07718795261864815,0.01159305963665247,0.01159305963665247,-5.660402871518911e-14,-0.9211976528167725,-0.9211976528167725,-1.5987211342844017e-14,0.49686214327812195,0.49686214327812195,2.986499809186729e-14,-0.0007669904152862728,-0.0007669904152862728,1.806094895628928e-14,1.4337127208709717,1.4338725805282593,0.004007681608200581,-0.02473543956875801,-0.02473543956875801,-1.6141850124617736e-14
0.035,0.37487232882514687,0.37486525393392506,-0.09725661755041055,-0.09726364241220681,0.07718860214099373,0.07718795261864815,0.01159305963665247,0.01159305963665247,-5.660402871518911e-14,-0.9211976528167725,-0.9211976528167725,-1.5987211342844017e-14,0.49686214327812195,0.49686214327812195,2.986499809186729e-14,-0.0007669904152862728,-0.0007669904152862728,1.806094895628928e-14,1.4337127208709717,1.4338725805282593,0.0040092802047734565,-0.02473543956875801,-0.02473543956875801,-1.6141850124617736e-14
0.04,0.37487232882514687,0.37486525393392506,-0.09725661755041055,-0.09726364241220681,0.07718860214099373,0.07718795261864815,0.01159305963665247,0.01159305963665247,-5.660402871518911e-14,-0.9211976528167725,-0.9211976528167725,-1.5987211342844017e-14,0.49686214327812195,0.49686214327812195,2.986499809186729e-14,-0.0007669904152862728,-0.0007669904152862728,1.806094895628928e-14,1.4337127208709717,1.4338725805282593,0.004010878801346333,-0.02473543956875801,-0.02473543956875801,-1.6141850124617736e-14
0.045,0.37487232882514687,0.37486525393392506,-0.09725661755041055,-0.09726364241220681,0.07718860214099373,0.07718795261864815,0.01159305963665247,0.01159305963665247,-5.660402871518911e-14,-0.9211976528167725,-0.9211976528167725,-1.5987211342844017e-14,0.49686214327812195,0.49686214327812195,2.986499809186729e-14,-0.0007669904152862728,-0.0007669904152862728,1.806094895628928e-14,1.4337127208709717,1.4338725805282593,0.004012477397919208,-0.02473543956875801,-0.02473543956875801,-1.6141850124617736e-14
0.049999999999999996,0.37487232882514687,0.37486525393392506,-0.09725661755041055,-0.09726364241220681,0.07718860214099373,0.07718795261864815,0.01159305963665247,0.01159305963665247,-5.660402871518911e-14,-0.9211976528167725,-0.9211976528167725,-1.5987211342844017e-14,0.49686214327812195,0.49686214327812195,2.986499809186729e-14,-0.0007669904152862728,-0.0007669904152862728,1.806094895628928e-14,1.4337127208709717,1.4338725805282593,0.004014075994492085,-0.02473543956875801,-0.02473543956875801,-1.6141850124617736e-14
0.05499999999999999,0.37487232882514687,0.37486525393392506,-0.09725661755041055,-0.09726364241220681,0.07718860214099373,0.07718795261864815,0.01159305963665247,0.01159305963665247,-5.660402871518911e-14,-0.9211976528167725,-0.9211976528167725,-1.5987211342844017e-14,0.49686214327812195,0.49686214327812195,2.986499809186729e-14,-0.0007669904152862728,-0.0007669904152862728,1.806094895628928e-14,1.4337127208709717,1.4338725805282593,0.00401567459106496,-0.02473543956875801,-0.02473543956875801,-1.6141850124617736e-14
0.05999999999999999,0.37487232882514687,0.37486525393392506,-0.09725661755041055,-0.09726364241220681,0.07718860214099373,0.07718795261864815,0.01159305963665247,0.01159305963665247,-5.660402871518911e-14,-0.9211976528167725,-0.9211976528167725,-1.5987211342844017e-14,0.49686214327812195,0.49686214327812195,2.986499809186729e-14,-0.0007669904152862728,-0.0007669904152862728,1.806094895628928e-14,1.4337127208709717,1.4338725805282593,0.004017273187637837,-0.02473543956875801,-0.02473543956875801,-1.6141850124617736e-14
0.06499999999999999,0.37487232882514687,0.37486525393392506,-0.09725661755041055,-0.09726364241220681,0.07718860214099373,0.07718795261864815,0.01159305963665247,0.01159305963665247,-5.660402871518911e-14,-0.9211976528167725,-0.9211976528167725,-1.5987211342844017e-14,0.49686214327812195,0.49686214327812195,2.986499809186729e-14,-0.0007669904152862728,-0.0007669904152862728,1.806094895628928e-14,1.4337127208709717,1.4338725805282593,0.004018871784210712,-0.02473543956875801,-0.02473543956875801,-1.6141850124617736e-14
0.06999999999999999,0.37487232882514687,0.37486525393392506,-0.09725661755041055,-0.09726364241220681,0.07718860214099373,0.07718795261864815,0.01159305963665247,0.01159305963665247,-5.660402871518911e-14,-0.9211976528167725,-0.9211976528167725,-1.5987211342844017e-14,0.49686214327812195,0.49686214327812195,2.986499809186729e-14,-0.0007669904152862728,-0.0007669904152862728,1.806094895628928e-14,1.4337127208709717,1.4338725805282593,0.004020470380783589,-0.02473543956875801,-0.02473543956875801,-1.6141850124617736e-14
0.075,0.37487232882514687,0.37486525393392506,-0.09725661755041055,-0.09726364241220681,0.07718860214099373,0.07718795261864815,0.01159305963665247,0.01159305963665247,-5.660402871518911e-14,-0.9211976528167725,-0.9211976528167725,-1.5987211342844017e-14,0.49686214327812195,0.49686214327812195,2.986499809186729e-14,-0.0007669904152862728,-0.0007669904152862728,1.806094895628928e-14,1.4337127208709717,1.4338725805282593,0.004022068977356464,-0.02473543956875801,-0.02473543956875801,-1.6141850124617736e-14
0.08,0.37487232882514687,0.37486525393392506,-0.09725661755041055,-0.09726364241220681,0.07718860214099373,0.07718795261864815,0.01159305963665247,0.01159305963665247,-5.660402871518911e-14,-0.9211976528167725,-0.9211976528167725,-1.5987211342844017e-14,0.49686214327812195,0.49686214327812195,2.986499809186729e-14,-0.0007669904152862728,-0.0007669904152862728,1.806094895628928e-14,1.4337127208709717,1.4338725805282593,0.0040236675739293406,-0.02473543956875801,-0.02473543956875801,-1.6141850124617736e-14
0.085,0.37487232882514687,0.37486525393392506,-0.09725661755041055,-0.09726364241220681,0.07718860214099373,0.07718795261864815,0.01159305963665247,0.01159305963665247,-5.660402871518911e-14,-0.9211976528167725,-0.9211976528167725,-1.5987211342844017e-14,0.49686214327812195,0.49686214327812195,2.986499809186729e-14,-0.0007669904152862728,-0.0007669904152862728,1.806094895628928e-14,1.4337127208709717,1.4338725805282593,0.004025266170502216,-0.02473543956875801,-0.02473543956875801,-1.6141850124617736e-14
0.09000000000000001,0.37487232882514687,0.37486525393392506,-0.09725661755041055,-0.09726364241220681,0.07718860214099373,0.07718795261864815,0.01159305963665247,0.01159305963665247,-5.660402871518911e-14,-0.9211976528167725,-0.9211976528167725,-1.5987211342844017e-14,0.49686214327812195,0.49686214327812195,2.986499809186729e-14,-0.0007669904152862728,-0.0007669904152862728,1.806094895628928e-14,1.4337127208709717,1.4338725805282593,0.0040268647670750925,-0.02473543956875801,-0.02473543956875801,-1.6141850124617736e-14
0.09500000000000001,0.37487232882514687,0.37486525393392506,-0.09725661755041055,-0.09726364241220681,0.07718860214099373,0.07718795261864815,0.01159305963665247,0.01159305963665247,-5.660402871518911e-14,-0.9211976528167725,-0.9211976528167725,-1.5987211342844017e-14,0.49686214327812195,0.49686214327812195,2.986499809186729e-14,-0.0007669904152862728,-0.0007669904152862728,1.806094895628928e-14,1.4337127208709717,1.4338725805282593,0.004028463363647968,-0.02473543956875801,-0.02473543956875801,-1.6141850124617736e-14
0.10000000000000002,0.37487232882514687,0.37486525393392506,-0.09725661755041055,-0.09726364241220681,0.07718860214099373,0.07718795261864815,0.01159305963665247,0.01159305963665247,-5.660402871518911e-14,-0.9211976528167725,-0.9211976528167725,-1.5987211342844017e-14,0.49686214327812195,0.49686214327812195,2.986499809186729e-14,-0.0007669904152862728,-0.0007669904152862728,1.806094895628928e-14,1.4337127208709717,1.4338725805282593,0.004030061960220844,-0.02473543956875801,-0.02473543956875801,-1.6141850124617736e-14
0.10500000000000002,0.37488067330437214,0.37486525393392506,-0.09726734287819709,-0.09726364241220681,0.07721371505400004,0.07718795261864815,0.01159305963665247,0.01159305963665247,-5.660402871518911e-14,-0.9211976528167725,-0.9211976528167725,-1.5987211342844017e-14,0.49686214327812195,0.49686214327812195,2.986499809186729e-14,-0.0009587379754520953,-0.0007669904152862728,0.03999594558088575,1.4337127208709717,1.4338725805282593,0.00403166055679372,-0.02473543956875801,-0.02473543956875801,-1.6141850124617736e-14
0.11000000000000003,0.37488067330437214,0.37486525393392506,-0.09726734287819709,-0.09726364241220681,0.07721371505400004,0.07718795261864815,0.01159305963665247,0.01159305963665247,-5.660402871518911e-14,-0.9211976528167725,-0.9211976528167725,-1.5987211342844017e-14,0.49686214327812195,0.49686214327812195,2.986499809186729e-14,-0.0009587379754520953,-0.0007669904152862728,0.039998821794288236,1.4337127208709717,1.4338725805282593,0.004033259153366596,-0.02473543956875801,-0.02473543956875801,-1.6141850124617736e-14
0.11500000000000003,0.37488067330437214,0.37486525393392506,-0.09726734287819709,-0.09726364241220681,0.07721371505400004,0.07718795261864815,0.01159305963665247,0.01159305963665247,-5.660402871518911e-14,-0.9211976528167725,-0.9211976528167725,-1.5987211342844017e-14,0.49686214327812195,0.49686214327812195,2.986499809186729e-14,-0.0009587379754520953,-0.0007669904152862728,0.04000169800769072,1.4337127208709717,1.4338725805282593,0.004034857749939472,-0.02473543956875801,-0.02473543956875801,-1.6141850124617736e-14
0.12000000000000004,0.37488067330437214,0.37486525393392506,-0.09726734287819709,-0.09726364241220681,0.07721371505400004,0.07718795261864815,0.01159305963665247,0.01159305963665247,-5.660402871518911e-14,-0.9211976528167725,-0.9211976528167725,-1.5987211342844017e-14,0.49686214327812195,0.49686214327812195,2.986499809186729e-14,-0.0009587379754520953,-0.0007669904152862728,0.04000457422109321,1.4337127208709717,1.4338725805282593,0.004036456346512348,-0.02473543956875801,-0.02473543956875801,-1.6141850124617736e-14
0.12500000000000003,0.37488067330437214,0.37486525393392506,-0.09726734287819709,-0.09726364241220681,0.07721371505400004,0.07718795261864815,0.01159305963665247,0.01159305963665247,-5.660402871518911e-14,-0.9211976528167725,-0.9211976528167725,-1.5987211342844017e-14,0.49686214327812195,0.49686214327812195,2.986499809186729e-14,-0.0009587379754520953,-0.0007669904152862728,0.040007450434495696,1.4337127208709717,1.4338725805282593,0.004038054943085225,-0.02473543956875801,-0.02473543956875801,-1.6141850124617736e-14
0.13000000000000003,0.37488067330437214,0.37486525393392506,-0.09726734287819709,-0.09726364241220681,0.07721371505400004,0.07718795261864815,0.01159305963665247,0.01159305963665247,-5.660402871518911e-14,-0.9211976528167725,-0.9211976528167725,-1.5987211342844017e-14,0.49686214327812195,0.49686214327812195,2.986499809186729e-14,-0.0009587379754520953,-0.0007669904152862728,0.040010326647898185,1.4337127208709717,1.4338725805282593,0.0040396535396581,-0.02473543956875801,-0.02473543956875801,-1.6141850124617736e-14
0.13500000000000004,0.37488067330437214,0.37486525393392506,-0.09726734287819709,-0.09726364241220681,0.07721371505400004,0.07718795261864815,0.01159305963665247,0.01159305963665247,-5.660402871518911e-14,-0.9211976528167725,-0.9211976528167725,-1.5987211342844017e-14,0.49686214327812195,0.49686214327812195,2.986499809186729e-14,-0.0009587379754520953,-0.0007669904152862728,0.04001320286130067,1.4337127208709717,1.4338725805282593,0.0040412521362309765,-0.02473543956875801,-0.02473543956875801,-1.6141850124617736e-14
0.14000000000000004,0.37488067330437214,0.37486525393392506,-0.09726734287819709,-0.09726364241220681,0.07721371505400004,0.07718795261864815,0.01159305963665247,0.01159305963665247,-5.660402871518911e-14,-0.9211976528167725,-0.9211976528167725,-1.5987211342844017e-14,0.49686214327812195,0.49686214327812195,2.986499809186729e-14,-0.0009587379754520953,-0.0007669904152862728,0.040016079074703156,1.4337127208709717,1.4338725805282593,0.004042850732803852,-0.02473543956875801,-0.02473543956875801,-1.6141850124617736e-14
0.14500000000000005,0.37488067330437214,0.37486525393392506,-0.09726734287819709,-0.09726364241220681,0.07721371505400004,0.07718795261864815,0.01159305963665247,0.01159305963665247,-5.660402871518911e-14,-0.9211976528167725,-0.9211976528167725,-1.5987211342844017e-14,0.49686214327812195,0.49686214327812195,2.986499809186729e-14,-0.0009587379754520953,-0.0007669904152862728,0.040018955288105645,1.4337127208709717,1.4338725805282593,0.0040444493293767285,-0.02473543956875801,-0.02473543956875801,-1.6141850124617736e-14
0.15000000000000005,0.37488067330437214,0.37486525393392506,-0.09726734287819709,-0.09726364241220681,0.07721371505400004,0.07718795261864815,0.01159305963665247,0.01159305963665247,-5.660402871518911e-14,-0.9211976528167725,-0.9211976528167725,-1.5987211342844017e-14,0.49686214327812195,0.49686214327812195,2.986499809186729e-14,-0.0009587379754520953,-0.0007669904152862728,0.040021831501508134,1.4337127208709717,1.4338725805282593,0.004046047925949604,-0.02473543956875801,-0.02473543956875801,-1.6141850124617736e-14
0.15500000000000005,0.37488067330437214,0.37486525393392506,-0.09726734287819709,-0.09726364241220681,0.07721371505400004,0.07718795261864815,0.01159305963665247,0.01159305963665247,-5.660402871518911e-14,-0.9211976528167725,-0.9211976528167725,-1.5987211342844017e-14,0.49686214327812195,0.49686214327812195,2.986499809186729e-14,-0.0009587379754520953,-0.0007669904152862728,0.040024707714910616,1.4337127208709717,1.4338725805282593,0.00404764652252248,-0.02473543956875801,-0.02473543956875801,-1.6141850124617736e-14
0.16000000000000006,0.37488067330437214,0.37486525393392506,-0.09726734287819709,-0.09726364241220681,0.07721371505400004,0.07718795261864815,0.01159305963665247,0.01159305963665247,-5.660402871518911e-14,-0.9211976528167725,-0.9211976528167725,-1.5987211342844017e-14,0.49686214327812195,0.49686214327812195,2.986499809186729e-14,-0.0009587379754520953,-0.0007669904152862728,0.040027583928313105,1.4337127208709717,1.4338725805282593,0.004049245119095356,-0.02473543956875801,-0.02473543956875801,-1.6141850124617736e-14
0.16500000000000006,0.37488067330437214,0.37486525393392506,-0.09726734287819709,-0.09726364241220681,0.07721371505400004,0.07718795261864815,0.01159305963665247,0.01159305963665247,-5.660402871518911e-14,-0.9211976528167725,-0.9211976528167725,-1.5987211342844017e-14,0.49686214327812195,0.49686214327812195,2.986499809186729e-14,-0.0009587379754520953,-0.0007669904152862728,0.040030460141715594,1.4337127208709717,1.4338725805282593,0.004050843715668232,-0.02473543956875801,-0.02473543956875801,-1.6141850124617736e-14
0.17000000000000007,0.37488067330437214,0.37486525393392506,-0.09726734287819709,-0.09726364241220681,0.07721371505400004,0.07718795261864815,0.01159305963665247,0.01159305963665247,-5.660402871518911e-14,-0.9211976528167725,-0.9211976528167725,-1.5987211342844017e-14,0.49686214327812195,0.49686214327812195,2.986499809186729e-14,-0.0009587379754520953,-0.0007669904152862728,0.040033336355118083,1.4337127208709717,1.4338725805282593,0.004052442312241108,-0.02473543956875801,-0.02473543956875801,-1.6141850124617736e-14
0.17500000000000007,0.37488067330437214,0.37486525393392506,-0.09726734287819709,-0.09726364241220681,0.07721371505400004,0.07718795261864815,0.01159305963665247,0.01159305963665247,-5.660402871518911e-14,-0.9211976528167725,-0.9211976528167725,-1.5987211342844017e-14,0.49686214327812195,0.49686214327812195,2.986499809186729e-14,-0.0009587379754520953,-0.0007669904152862728,0.040036212568520566,1.4337127208709717,1.4338725805282593,0.004054040908813984,-0.02473543956875801,-0.02473543956875801,-1.6141850124617736e-14
0.18000000000000008,0.37488067330437214,0.37486525393392506,-0.09726734287819709,-0.09726364241220681,0.07721371505400004,0.07718795261864815,0.01159305963665247,0.01159305963665247,-5.660402871518911e-14,-0.9211976528167725,-0.9211976528167725,-1.5987211342844017e-14,0.49686214327812195,0.49686214327812195,2.986499809186729e-14,-0.0009587379754520953,-0.0007669904152862728,0.040039088781923055,1.4337127208709717,1.4338725805282593,0.00405563950538686,-0.02473543956875801,-0.02473543956875801,-1.6141850124617736e-14
0.18500000000000008,0.37488067330437214,0.37486525393392506,-0.09726734287819709,-0.09726364241220681,0.07721371505400004,0.07718795261864815,0.01159305963665247,0.01159305963665247,-5.660402871518911e-14,-0.9211976528167725,-0.9211976528167725,-1.5987211342844017e-14,0.49686214327812195,0.49686214327812195,2.986499809186729e-14,-0.0009587379754520953,-0.0007669904152862728,0.040041964995325544,1.4337127208709717,1.4338725805282593,0.004057238101959736,-0.02473543956875801,-0.02473543956875801,-1.6141850124617736e-14
0.19000000000000009,0.37488067330437214,0.37486525393392506,-0.09726734287819709,-0.09726364241220681,0.07721371505400004,0.07718795261864815,0.01159305963665247,0.01159305963665247,-5.660402871518911e-14,-0.9211976528167725,-0.9211976528167725,-1.5987211342844017e-14,0.49686214327812195,0.49686214327812195,2.986499809186729e-14,-0.0009587379754520953,-0.0007669904152862728,0.04004484120872803,1.4337127208709717,1.4338725805282593,0.004058836698532612,-0.02473543956875801,-0.02473543956875801,-1.6141850124617736e-14
0.1950000000000001,0.37488067330437214,0.37486525393392506,-0.09726734287819709,-0.09726364241220681,0.07721371505400004,0.07718795261864815,0.01159305963665247,0.01159305963665247,-5.660402871518911e-14,-0.9211976528167725,-0.9211976528167725,-1.5987211342844017e-14,0.49686214327812195,0.49686214327812195,2.986499809186729e-14,-0.0009587379754520953,-0.0007669904152862728,0.040047717422130515,1.4337127208709717,1.4338725805282593,0.004060435295105488,-0.02473543956875801,-0.02473543956875801,-1.6141850124617736e-14
0.2000000000000001,0.37488067330437214,0.37486525393392506,-0.09726734287819709,-0.09726364241220681,0.07721371505400004,0.07718795261864815,0.01159305963665247,0.01159305963665247,-5.660402871518911e-14,-0.9211976528167725,-0.9211976528167725,-1.5987211342844017e-14,0.49686214327812195,0.49686214327812195,2.986499809186729e-14,-0.0009587379754520953,-0.0007669904152862728,0.040050593635533004,1.4337127208709717,1.4338725805282593,0.004062033891678364,-0.02473543956875801,-0.02473543956875801,-1.6141850124617736e-14
0.2050000000000001,0.37498107605621994,0.37486525393392506,-0.096850262551369,-0.09726364241220681,0.0771966536346407,0.07718795261864815,0.01159305963665247,0.01159305963665247,-5.660402871518911e-14,-0.9201046824455261,-0.9211976528167725,-0.31698647066950797,0.496917724609375,0.49686214327812195,-0.016126344446092844,-0.0009587379754520953,-0.0007669904152862728,0.005812827286444971,1.4337127208709717,1.4338725805282593,0.00406363248825124,-0.02473543956875801,-0.02473543956875801,-1.6141850124617736e-14
0.2100000000000001,0.37498107605621994,0.37486525393392506,-0.096850262551369,-0.09726364241220681,0.0771966536346407,0.07718795261864815,0.01159305963665247,0.01159305963665247,-5.660402871518911e-14,-0.9201046824455261,-0.9211976528167725,-0.3170137949287891,0.496917724609375,0.49686214327812195,-0.01612773397937417,-0.0009587379754520953,-0.0007669904152862728,0.005815703499847458,1.4337127208709717,1.4338725805282593,0.0040652310848241155,-0.02473543956875801,-0.02473543956875801,-1.6141850124617736e-14
0.2150000000000001,0.37498107605621994,0.37486525393392506,-0.096850262551369,-0.09726364241220681,0.0771966536346407,0.07718795261864815,0.01159305963665247,0.01159305963665247,-5.660402871518911e-14,-0.9201046824455261,-0.9211976528167725,-0.3170411191880703,0.496917724609375,0.49686214327812195,-0.016129123512655497,-0.0009587379754520953,-0.0007669904152862728,0.005818579713249945,1.4337127208709717,1.4338725805282593,0.004066829681396992,-0.02473543956875801,-0.02473543956875801,-1.6141850124617736e-14
0.2200000000000001,0.37498107605621994,0.37486525393392506,-0.096850262551369,-0.09726364241220681,0.0771966536346407,0.07718795261864815,0.01159305963665247,0.01159305963665247,-5.660402871518911e-14,-0.9201046824455261,-0.9211976528167725,-0.31706844344735147,0.496917724609375,0.49686214327812195,-0.016130513045936823,-0.0009587379754520953,-0.0007669904152862728,0.005821455926652432,1.4337127208709717,1.4338725805282593,0.004068428277969867,-0.02473543956875801,-0.02473543956875801,-1.6141850124617736e-14
0.22500000000000012,0.37498107605621994,0.37486525393392506,-0.096850262551369,-0.09726364241220681,0.0771966536346407,0.07718795261864815,0.01159305963665247,0.01159305963665247,-5.660402871518911e-14,-0.9201046824455261,-0.9211976528167725,-0.3170957677066326,0.496917724609375,0.49686214327812195,-0.01613190257921815,-0.0009587379754520953,-0.0007669904152862728,0.00582433214005492,1.4337127208709717,1.4338725805282593,0.004070026874542744,-0.02473543956875801,-0.02473543956875801,-1.6141850124617736e-14
0.23000000000000012,0.37498107605621994,0.37486525393392506,-0.096850262551369,-0.09726364241220681,0.0771966536346407,0.07718795261864815,0.01159305963665247,0.01159305963665247,-5.660402871518911e-14,-0.9201046824455261,-0.9211976528167725,-0.31712309196591376,0.496917724609375,0.49686214327812195,-0.016133292112499475,-0.0009587379754520953,-0.0007669904152862728,0.005827208353457407,1.4337127208709717,1.4338725805282593,0.004071625471115619,-0.02473543956875801,-0.02473543956875801,-1.6141850124617736e-14
0.23500000000000013,0.37498107605621994,0.37486525393392506,-0.096850262551369,-0.09726364241220681,0.0771966536346407,0.07718795261864815,0.01159305963665247,0.01159305963665247,-5.660402871518911e-14,-0.9201046824455261,-0.9211976528167725,-0.3171504162251949,0.496917724609375,0.49686214327812195,-0.016134681645780802,-0.0009587379754520953,-0.0007669904152862728,0.005830084566859894,1.4337127208709717,1.4338725805282593,0.004073224067688496,-0.02473543956875801,-0.02473543956875801,-1.6141850124617736e-14
0.24000000000000013,0.37498107605621994,0.37486525393392506,-0.096850262551369,-0.09726364241220681,0.0771966536346407,0.07718795261864815,0.01159305963665247,0.01159305963665247,-5.660402871518911e-14,-0.9201046824455261,-0.9211976528167725,-0.3171777404844761,0.496917724609375,0.49686214327812195,-0.016136071179062128,-0.0009587379754520953,-0.0007669904152862728,0.0058329607802623815,1.4337127208709717,1.4338725805282593,0.004074822664261372,-0.02473543956875801,-0.02473543956875801,-1.6141850124617736e-14
0.24500000000000013,0.37498107605621994,0.37486525393392506,-0.096850262551369,-0.09726364241220681,0.0771966536346407,0.07718795261864815,0.01159305963665247,0.01159305963665247,-5.660402871518911e-14,-0.9201046824455261,-0.9211976528167725,-0.31720506474375726,0.496917724609375,0.49686214327812195,-0.016137460712343454,-0.0009587379754520953,-0.0007669904152862728,0.005835836993664869,1.4337127208709717,1.4338725805282593,0.004076421260834248,-0.02473543956875801,-0.02473543956875801,-1.6141850124617736e-14
0.2500000000000001,0.37498107605621994,0.37486525393392506,-0.096850262551369,-0.09726364241220681,0.0771966536346407,0.07718795261864815,0.01159305963665247,0.01159305963665247,-5.660402871518911e-14,-0.9201046824455261,-0.9211976528167725,-0.3172323890030384,0.496917724609375,0.49686214327812195,-0.01613885024562478,-0.0009587379754520953,-0.0007669904152862728,0.005838713207067356,1.4337127208709717,1.4338725805282593,0.004078019857407124,-0.02473543956875801,-0.02473543956875801,-1.6141850124617736e-14
0.2550000000000001,0.37498107605621994,0.37486525393392506,-0.096850262551369,-0.09726364241220681,0.0771966536346407,0.07718795261864815,0.01159305963665247,0.01159305963665247,-5.660402871518911e-14,-0.9201046824455261,-0.9211976528167725,-0.31725971326231955,0.496917724609375,0.49686214327812195,-0.016140239778906107,-0.0009587379754520953,-0.0007669904152862728,0.005841589420469843,1.4337127208709717,1.4338725805282593,0.0040796184539799996,-0.02473543956875801,-0.02473543956875801,-1.6141850124617736e-14
0.2600000000000001,0.37498107605621994,0.37486525393392506,-0.096850262551369,-0.09726364241220681,0.0771966536346407,0.07718795261864815,0.01159305963665247,0.01159305963665247,-5.660402871518911e-14,-0.9201046824455261,-0.9211976528167725,-0.3172870375216007,0.496917724609375,0.49686214327812195,-0.016141629312187433,-0.0009587379754520953,-0.0007669904152862728,0.0058444656338723314,1.4337127208709717,1.4338725805282593,0.004081217050552876,-0.02473543956875801,-0.02473543956875801,-1.6141850124617736e-14
0.2650000000000001,0.37498107605621994,0.37486525393392506,-0.096850262551369,-0.09726364241220681,0.0771966536346407,0.07718795261864815,0.01159305963665247,0.01159305963665247,-5.660402871518911e-14,-0.9201046824455261,-0.9211976528167725,-0.3173143617808819,0.496917724609375,0.49686214327812195,-0.01614301884546876,-0.0009587379754520953,-0.0007669904152862728,0.005847341847274819,1.4337127208709717,1.4338725805282593,0.0040828156471257515,-0.02473543956875801,-0.02473543956875801,-1.6141850124617736e-14
0.27000000000000013,0.37498107605621994,0.37486525393392506,-0.096850262551369,-0.09726364241220681,0.0771966536346407,0.07718795261864815,0.01159305963665247,0.01159305963665247,-5.660402871518911e-14,-0.9201046824455261,-0.9211976528167725,-0.31734168604016305,0.496917724609375,0.49686214327812195,-0.016144408378750086,-0.0009587379754520953,-0.0007669904152862728,0.005850218060677306,1.4337127208709717,1.4338725805282593,0.004084414243698628,-0.02473543956875801,-0.02473543956875801,-1.6141850124617736e-14
0.27500000000000013,0.37498107605621994,0.37486525393392506,-0.096850262551369,-0.09726364241220681,0.0771966536346407,0.07718795261864815,0.01159305963665247,0.01159305963665247,-5.660402871518911e-14,-0.9201046824455261,-0.9211976528167725,-0.3173690102994442,0.496917724609375,0.49686214327812195,-0.016145797912031412,-0.0009587379754520953,-0.0007669904152862728,0.005853094274079793,1.4337127208709717,1.4338725805282593,0.004086012840271503,-0.02473543956875801,-0.02473543956875801,-1.6141850124617736e-14
0.28000000000000014,0.37498107605621994,0.37486525393392506,-0.096850262551369,-0.09726364241220681,0.0771966536346407,0.07718795261864815,0.01159305963665247,0.01159305963665247,-5.660402871518911e-14,-0.9201046824455261,-0.9211976528167725,-0.31739633455872535,0.496917724609375,0.49686214327812195,-0.01614718744531274,-0.0009587379754520953,-0.0007669904152862728,0.0058559704874822805,1.4337127208709717,1.4338725805282593,0.00408761143684438,-0.02473543956875801,-0.02473543956875801,-1.6141850124617736e-14
0.28500000000000014,0.37498107605621994,0.37486525393392506,-0.096850262551369,-0.09726364241220681,0.0771966536346407,0.07718795261864815,0.01159305963665247,0.01159305963665247,-5.660402871518911e-14,-0.9201046824455261,-0.9211976528167725,-0.3174236588180065,0.496917724609375,0.49686214327812195,-0.016148576978594065,-0.0009587379754520953,-0.0007669904152862728,0.005858846700884768,1.4337127208709717,1.4338725805282593,0.004089210033417255,-0.02473543956875801,-0.02473543956875801,-1.6141850124617736e-14
0.29000000000000015,0.37498107605621994,0.37486525393392506,-0.096850262551369,-0.09726364241220681,0.0771966536346407,0.07718795261864815,0.01159305963665247,0.01159305963665247,-5.660402871518911e-14,-0.9201046824455261,-0.9211976528167725,-0.3174509830772877,0.496917724609375,0.49686214327812195,-0.01614996651187539,-0.0009587379754520953,-0.0007669904152862728,0.005861722914287255,1.4337127208709717,1.4338725805282593,0.004090808629990132,-0.02473543956875801,-0.02473543956875801,-1.6141850124617736e-14
0.29500000000000015,0.37498107605621994,0.37486525393392506,-0.096850262551369,-0.09726364241220681,0.0771966536346407,0.07718795261864815,0.01159305963665247,0.01159305963665247,-5.660402871518911e-14,-0.9201046824455261,-0.9211976528167725,-0.31747830733656884,0.496917724609375,0.49686214327812195,-0.016151356045156717,-0.0009587379754520953,-0.0007669904152862728,0.005864599127689742,1.4337127208709717,1.4338725805282593,0.004092407226563007,-0.02473543956875801,-0.02473543956875801,-1.6141850124617736e-14
0.30000000000000016,0.37498107605621994,0.37486525393392506,-0.096850262551369,-0.09726364241220681,0.0771966536346407,0.07718795261864815,0.01159305963665247,0.01159305963665247,-5.660402871518911e-14,-0.9201046824455261,-0.9211976528167725,-0.31750563159585,0.496917724609375,0.49686214327812195,-0.016152745578438044,-0.0009587379754520953,-0.0007669904152862728,0.00586747534109223,1.4337127208709717,1.4338725805282593,0.004094005823135884,-0.02473543956875801,-0.02473543956875801,-1.6141850124617736e-14
0.30500000000000016,0.3756399170167134,0.37486525393392506,-0.09177607955903028,-0.09726364241220681,0.07581163506874525,0.07718795261864815,0.01159305963665247,0.01159305963665247,-5.660402871518911e-14,-0.9081626534461975,-0.9211976528167725,-2.316071109473705,0.5014353394508362,0.49686214327812195,-0.9073965109884738,-0.0009587379754520953,-0.0007669904152862728,0.005870351554494717,1.4337127208709717,1.4338725805282593,0.004095604419708759,-0.02473543956875801,-0.02473543956875801,-1.6141850124617736e-14
0.31000000000000016,0.3756399170167134,0.37486525393392506,-0.09177607955903028,-0.09726364241220681,0.07581163506874525,0.07718795261864815,0.01159305963665247,0.01159305963665247,-5.660402871518911e-14,-0.9081626534461975,-0.9211976528167725,-2.3163969844579695,0.5014353394508362,0.49686214327812195,-0.9075108408927918,-0.0009587379754520953,-0.0007669904152862728,0.005873227767897204,1.4337127208709717,1.4338725805282593,0.0040972030162816355,-0.02473543956875801,-0.02473543956875801,-1.6141850124617736e-14
0.31500000000000017,0.3756399170167134,0.37486525393392506,-0.09177607955903028,-0.09726364241220681,0.07581163506874525,0.07718795261864815,0.01159305963665247,0.01159305963665247,-5.660402871518911e-14,-0.9081626534461975,-0.9211976528167725,-2.316722859442234,0.5014353394508362,0.49686214327812195,-0.9076251707971096,-0.0009587379754520953,-0.0007669904152862728,0.005876103981299691,1.4337127208709717,1.4338725805282593,0.004098801612854511,-0.02473543956875801,-0.02473543956875801,-1.6141850124617736e-14
0.3200000000000002,0.3756399170167134,0.37486525393392506,-0.09177607955903028,-0.09726364241220681,0.07581163506874525,0.07718795261864815,0.01159305963665247,0.01159305963665247,-5.660402871518911e-14,-0.9081626534461975,-0.9211976528167725,-2.3170487344264985,0.5014353394508362,0.49686214327812195,-0.9077395007014275,-0.0009587379754520953,-0.0007669904152862728,0.005878980194702179,1.4337127208709717,1.4338725805282593,0.0041004002094273875,-0.02473543956875801,-0.02473543956875801,-1.6141850124617736e-14
0.3250000000000002,0.3756399170167134,0.37486525393392506,-0.09177607955903028,-0.09726364241220681,0.07581163506874525,0.07718795261864815,0.01159305963665247,0.01159305963665247,-5.660402871518911e-14,-0.9081626534461975,-0.9211976528167725,-2.317374609410763,0.5014353394508362,0.49686214327812195,-0.9078538306057453,-0.0009587379754520953,-0.0007669904152862728,0.005881856408104667,1.4337127208709717,1.4338725805282593,0.004101998806000263,-0.02473543956875801,-0.02473543956875801,-1.6141850124617736e-14
0.3300000000000002,0.3756399170167134,0.37486525393392506,-0.09177607955903028,-0.09726364241220681,0.07581163506874525,0.07718795261864815,0.01159305963665247,0.01159305963665247,-5.660402871518911e-14,-0.9081626534461975,-0.9211976528167725,-2.317700484395027,0.5014353394508362,0.49686214327812195,-0.9079681605100631,-0.0009587379754520953,-0.0007669904152862728,0.005884732621507154,1.4337127208709717,1.4338725805282593,0.004103597402573139,-0.02473543956875801,-0.02473543956875801,-1.6141850124617736e-14
0.3350000000000002,0.3756399170167134,0.37486525393392506,-0.09177607955903028,-0.09726364241220681,0.07581163506874525,0.07718795261864815,0.01159305963665247,0.01159305963665247,-5.660402871518911e-14,-0.9081626534461975,-0.9211976528167725,-2.3180263593792914,0.5014353394508362,0.49686214327812195,-0.908082490414381,-0.0009587379754520953,-0.0007669904152862728,0.005887608834909641,1.4337127208709717,1.4338725805282593,0.004105195999146015,-0.02473543956875801,-0.02473543956875801,-1.6141850124617736e-14
0.3400000000000002,0.3756399170167134,0.37486525393392506,-0.09177607955903028,-0.09726364241220681,0.07581163506874525,0.07718795261864815,0.01159305963665247,0.01159305963665247,-5.660402871518911e-14,-0.9081626534461975,-0.9211976528167725,-2.318352234363556,0.5014353394508362,0.49686214327812195,-0.9081968203186989,-0.0009587379754520953,-0.0007669904152862728,0.005890485048312129,1.4337127208709717,1.4338725805282593,0.004106794595718891,-0.02473543956875801,-0.02473543956875801,-1.6141850124617736e-14
0.3450000000000002,0.3756399170167134,0.37486525393392506,-0.09177607955903028,-0.09726364241220681,0.07581163506874525,0.07718795261864815,0.01159305963665247,0.01159305963665247,-5.660402871518911e-14,-0.9081626534461975,-0.9211976528167725,-2.3186781093478204,0.5014353394508362,0.49686214327812195,-0.9083111502230168,-0.0009587379754520953,-0.0007669904152862728,0.005893361261714616,1.4337127208709717,1.4338725805282593,0.004108393192291767,-0.02473543956875801,-0.02473543956875801,-1.6141850124617736e-14
0.3500000000000002,0.3756399170167134,0.37486525393392506,-0.09177607955903028,-0.09726364241220681,0.07581163506874525,0.07718795261864815,0.01159305963665247,0.01159305963665247,-5.660402871518911e-14,-0.9081626534461975,-0.9211976528167725,-2.3190039843320847,0.5014353394508362,0.49686214327812195,-0.9084254801273346,-0.0009587379754520953,-0.0007669904152862728,0.005896237475117103,1.4337127208709717,1.4338725805282593,0.004109991788864643,-0.02473543956875801,-0.02473543956875801,-1.6141850124617736e-14
0.3550000000000002,0.3756399170167134,0.37486525393392506,-0.09177607955903028,-0.09726364241220681,0.07581163506874525,0.07718795261864815,0.01159305963665247,0.01159305963665247,-5.660402871518911e-14,-0.9081626534461975,-0.9211976528167725,-2.319329859316349,0.5014353394508362,0.49686214327812195,-0.9085398100316524,-0.0009587379754520953,-0.0007669904152862728,0.00589911368851959,1.4337127208709717,1.4338725805282593,0.004111590385437519,-0.02473543956875801,-0.02473543956875801,-1.6141850124617736e-14
0.3600000000000002,0.3756399170167134,0.37486525393392506,-0.09177607955903028,-0.09726364241220681,0.07581163506874525,0.07718795261864815,0.01159305963665247,0.01159305963665247,-5.660402871518911e-14,-0.9081626534461975,-0.9211976528167725,-2.3196557343006132,0.5014353394508362,0.49686214327812195,-0.9086541399359703,-0.0009587379754520953,-0.0007669904152862728,0.005901989901922078,1.4337127208709717,1.4338725805282593,0.004113188982010395,-0.02473543956875801,-0.02473543956875801,-1.6141850124617736e-14
0.3650000000000002,0.3756399170167134,0.37486525393392506,-0.09177607955903028,-0.09726364241220681,0.07581163506874525,0.07718795261864815,0.01159305963665247,0.01159305963665247,-5.660402871518911e-14,-0.9081626534461975,-0.9211976528167725,-2.319981609284878,0.5014353394508362,0.49686214327812195,-0.9087684698402881,-0.0009587379754520953,-0.0007669904152862728,0.005904866115324565,1.4337127208709717,1.4338725805282593,0.004114787578583271,-0.02473543956875801,-0.02473543956875801,-1.6141850124617736e-14
0.3700000000000002,0.3756399170167134,0.37486525393392506,-0.09177607955903028,-0.09726364241220681,0.07581163506874525,0.07718795261864815,0.01159305963665247,0.01159305963665247,-5.660402871518911e-14,-0.9081626534461975,-0.9211976528167725,-2.3203074842691422,0.5014353394508362,0.49686214327812195,-0.9088827997446061,-0.0009587379754520953,-0.0007669904152862728,0.005907742328727052,1.4337127208709717,1.4338725805282593,0.004116386175156147,-0.02473543956875801,-0.02473543956875801,-1.6141850124617736e-14
0.3750000000000002,0.3756399170167134,0.37486525393392506,-0.09177607955903028,-0.09726364241220681,0.07581163506874525,0.07718795261864815,0.01159305963665247,0.01159305963665247,-5.660402871518911e-14,-0.9081626534461975,-0.9211976528167725,-2.3206333592534065,0.5014353394508362,0.49686214327812195,-0.9089971296489239,-0.0009587379754520953,-0.0007669904152862728,0.0059106185421295395,1.4337127208709717,1.4338725805282593,0.004117984771729023,-0.02473543956875801,-0.02473543956875801,-1.6141850124617736e-14
0.3800000000000002,0.3756399170167134,0.37486525393392506,-0.09177607955903028,-0.09726364241220681,0.07581163506874525,0.07718795261864815,0.01159305963665247,0.01159305963665247,-5.660402871518911e-14,-0.9081626534461975,-0.9211976528167725,-2.320959234237671,0.5014353394508362,0.49686214327812195,-0.9091114595532417,-0.0009587379754520953,-0.0007669904152862728,0.005913494755532027,1.4337127208709717,1.4338725805282593,0.004119583368301899,-0.02473543956875801,-0.02473543956875801,-1.6141850124617736e-14
0.38500000000000023,0.3756399170167134,0.37486525393392506,-0.09177607955903028,-0.09726364241220681,0.07581163506874525,0.07718795261864815,0.01159305963665247,0.01159305963665247,-5.660402871518911e-14,-0.9081626534461975,-0.9211976528167725,-2.321285109221935,0.5014353394508362,0.49686214327812195,-0.9092257894575596,-0.0009587379754520953,-0.0007669904152862728,0.005916370968934514,1.4337127208709717,1.4338725805282593,0.0041211819648747745,-0.02473543956875801,-0.02473543956875801,-1.6141850124617736e-14
0.39000000000000024,0.3756399170167134,0.37486525393392506,-0.09177607955903028,-0.09726364241220681,0.07581163506874525,0.07718795261864815,0.01159305963665247,0.01159305963665247,-5.660402871518911e-14,-0.9081626534461975,-0.9211976528167725,-2.3216109842062,0.5014353394508362,0.49686214327812195,-0.9093401193618774,-0.0009587379754520953,-0.0007669904152862728,0.005919247182337002,1.4337127208709717,1.4338725805282593,0.004122780561447651,-0.02473543956875801,-0.02473543956875801,-1.6141850124617736e-14
0.39500000000000024,0.3756399170167134,0.37486525393392506,-0.09177607955903028,-0.09726364241220681,0.07581163506874525,0.07718795261864815,0.01159305963665247,0.01159305963665247,-5.660402871518911e-14,-0.9081626534461975,-0.9211976528167725,-2.321936859190464,0.5014353394508362,0.49686214327812195,-0.9094544492661953,-0.0009587379754520953,-0.0007669904152862728,0.005922123395739489,1.4337127208709717,1.4338725805282593,0.004124379158020527,-0.02473543956875801,-0.02473543956875801,-1.6141850124617736e-14
0.40000000000000024,0.3756399170167134,0.37486525393392506,-0.09177607955903028,-0.09726364241220681,0.07581163506874525,0.07718795261864815,0.01159305963665247,0.01159305963665247,-5.660402871518911e-14,-0.9081626534461975,-0.9211976528167725,-2.3222627341747284,0.5014353394508362,0.49686214327812195,-0.9095687791705132,-0.0009587379754520953,-0.0007669904152862728,0.005924999609141977,1.4337127208709717,1.4338725805282593,0.004125977754593403,-0.02473543956875801,-0.02473543956875801,-1.6141850124617736e-14
0.40500000000000025,0.3760167967294494,0.37486525393392506,-0.0885532675112557,-0.09726364241220681,0.07492576958719228,0.07718795261864815,0.01159305963665247,0.01159305963665247,-5.660402871518911e-14,-0.9005962610244751,-0.9211976528167725,-1.6662161260843278,0.5043306946754456,0.49686214327812195,-0.6363220945000648,-0.0009587379754520953,-0.0007669904152862728,0.005927875822544464,1.4337127208709717,1.4338725805282593,0.004127576351166279,-0.02473543956875801,-0.02473543956875801,-1.6141850124617736e-14
0.41000000000000025,0.3760167967294494,0.37486525393392506,-0.0885532675112557,-0.09726364241220681,0.07492576958719228,0.07718795261864815,0.01159305963665247,0.01159305963665247,-5.660402871518911e-14,-0.9005962610244751,-0.9211976528167725,-1.666731160879135,0.5043306946754456,0.49686214327812195,-0.6365088082849979,-0.0009587379754520953,-0.0007669904152862728,0.005930752035946951,1.4337127208709717,1.4338725805282593,0.004129174947739155,-0.02473543956875801,-0.02473543956875801,-1.6141850124617736e-14
0.41500000000000026,0.3760167967294494,0.37486525393392506,-0.0885532675112557,-0.09726364241220681,0.07492576958719228,0.07718795261864815,0.01159305963665247,0.01159305963665247,-5.660402871518911e-14,-0.9005962610244751,-0.9211976528167725,-1.6672461956739426,0.5043306946754456,0.49686214327812195,-0.6366955220699311,-0.0009587379754520953,-0.0007669904152862728,0.0059336282493494385,1.4337127208709717,1.4338725805282593,0.004130773544312031,-0.02473543956875801,-0.02473543956875801,-1.6141850124617736e-14
0.42000000000000026,0.3760167967294494,0.37486525393392506,-0.0885532675112557,-0.09726364241220681,0.07492576958719228,0.07718795261864815,0.01159305963665247,0.01159305963665247,-5.660402871518911e-14,-0.9005962610244751,-0.9211976528167725,-1.66776123046875,0.5043306946754456,0.49686214327812195,-0.6368822358548641,-0.0009587379754520953,-0.0007669904152862728,0.005936504462751926,1.4337127208709717,1.4338725805282593,0.004132372140884907,-0.02473543956875801,-0.02473543956875801,-1.6141850124617736e-14
0.42500000000000027,0.3760167967294494,0.37486525393392506,-0.0885532675112557,-0.09726364241220681,0.07492576958719228,0.07718795261864815,0.01159305963665247,0.01159305963665247,-5.660402871518911e-14,-0.9005962610244751,-0.9211976528167725,-1.6682762652635574,0.5043306946754456,0.49686214327812195,-0.6370689496397972,-0.0009587379754520953,-0.0007669904152862728,0.005939380676154413,1.4337127208709717,1.4338725805282593,0.004133970737457783,-0.02473543956875801,-0.02473543956875801,-1.6141850124617736e-14
0.43000000000000027,0.3760167967294494,0.37486525393392506,-0.0885532675112557,-0.09726364241220681,0.07492576958719228,0.07718795261864815,0.01159305963665247,0.01159305963665247,-5.660402871518911e-14,-0.9005962610244751,-0.9211976528167725,-1.668791300058365,0.5043306946754456,0.49686214327812195,-0.6372556634247303,-0.0009587379754520953,-0.0007669904152862728,0.0059422568895569,1.4337127208709717,1.4338725805282593,0.0041355693340306586,-0.02473543956875801,-0.02473543956875801,-1.6141850124617736e-14
0.4350000000000003,0.3760167967294494,0.37486525393392506,-0.0885532675112557,-0.09726364241220681,0.07492576958719228,0.07718795261864815,0.01159305963665247,0.01159305963665247,-5.660402871518911e-14,-0.9005962610244751,-0.9211976528167725,-1.6693063348531723,0.5043306946754456,0.49686214327812195,-0.6374423772096633,-0.0009587379754520953,-0.0007669904152862728,0.0059451331029593876,1.4337127208709717,1.4338725805282593,0.004137167930603535,-0.02473543956875801,-0.02473543956875801,-1.6141850124617736e-14
0.4400000000000003,0.3760167967294494,0.37486525393392506,-0.0885532675112557,-0.09726364241220681,0.07492576958719228,0.07718795261864815,0.01159305963665247,0.01159305963665247,-5.660402871518911e-14,-0.9005962610244751,-0.9211976528167725,-1.6698213696479798,0.5043306946754456,0.49686214327812195,-0.6376290909945965,-0.0009587379754520953,-0.0007669904152862728,0.005948009316361875,1.4337127208709717,1.4338725805282593,0.0041387665271764105,-0.02473543956875801,-0.02473543956875801,-1.6141850124617736e-14
0.4450000000000003,0.3760167967294494,0.37486525393392506,-0.0885532675112557,-0.09726364241220681,0.07492576958719228,0.07718795261864815,0.01159305963665247,0.01159305963665247,-5.660402871518911e-14,-0.9005962610244751,-0.9211976528167725,-1.670336404442787,0.5043306946754456,0.49686214327812195,-0.6378158047795296,-0.0009587379754520953,-0.0007669904152862728,0.005950885529764362,1.4337127208709717,1.4338725805282593,0.004140365123749287,-0.02473543956875801,-0.02473543956875801,-1.6141850124617736e-14
0.4500000000000003,0.3760167967294494,0.37486525393392506,-0.0885532675112557,-0.09726364241220681,0.07492576958719228,0.07718795261864815,0.01159305963665247,0.01159305963665247,-5.660402871518911e-14,-0.9005962610244751,-0.9211976528167725,-1.6708514392375946,0.5043306946754456,0.49686214327812195,-0.6380025185644627,-0.0009587379754520953,-0.0007669904152862728,0.005953761743166849,1.4337127208709717,1.4338725805282593,0.004141963720322162,-0.02473543956875801,-0.02473543956875801,-1.6141850124617736e-14
0.4550000000000003,0.3760167967294494,0.37486525393392506,-0.0885532675112557,-0.09726364241220681,0.07492576958719228,0.07718795261864815,0.01159305963665247,0.01159305963665247,-5.660402871518911e-14,-0.9005962610244751,-0.9211976528167725,-1.6713664740324021,0.5043306946754456,0.49686214327812195,-0.6381892323493957,-0.0009587379754520953,-0.0007669904152862728,0.0059566379565693375,1.4337127208709717,1.4338725805282593,0.004143562316895039,-0.02473543956875801,-0.02473543956875801,-1.6141850124617736e-14
0.4600000000000003,0.3760167967294494,0.37486525393392506,-0.0885532675112557,-0.09726364241220681,0.07492576958719228,0.07718795261864815,0.01159305963665247,0.01159305963665247,-5.660402871518911e-14,-0.9005962610244751,-0.9211976528167725,-1.6718815088272094,0.5043306946754456,0.49686214327812195,-0.6383759461343288,-0.0009587379754520953,-0.0007669904152862728,0.005959514169971825,1.4337127208709717,1.4338725805282593,0.004145160913467914,-0.02473543956875801,-0.02473543956875801,-1.6141850124617736e-14
0.4650000000000003,0.3760167967294494,0.37486525393392506,-0.0885532675112557,-0.09726364241220681,0.07492576958719228,0.07718795261864815,0.01159305963665247,0.01159305963665247,-5.660402871518911e-14,-0.9005962610244751,-0.9211976528167725,-1.672396543622017,0.5043306946754456,0.49686214327812195,-0.638562659919262,-0.0009587379754520953,-0.0007669904152862728,0.005962390383374312,1.4337127208709717,1.4338725805282593,0.004146759510040791,-0.02473543956875801,-0.02473543956875801,-1.6141850124617736e-14
0.4700000000000003,0.3760167967294494,0.37486525393392506,-0.0885532675112557,-0.09726364241220681,0.07492576958719228,0.07718795261864815,0.01159305963665247,0.01159305963665247,-5.660402871518911e-14,-0.9005962610244751,-0.9211976528167725,-1.6729115784168243,0.5043306946754456,0.49686214327812195,-0.638749373704195,-0.0009587379754520953,-0.0007669904152862728,0.005965266596776799,1.4337127208709717,1.4338725805282593,0.004148358106613667,-0.02473543956875801,-0.02473543956875801,-1.6141850124617736e-14
0.4750000000000003,0.3760167967294494,0.37486525393392506,-0.0885532675112557,-0.09726364241220681,0.07492576958719228,0.07718795261864815,0.01159305963665247,0.01159305963665247,-5.660402871518911e-14,-0.9005962610244751,-0.9211976528167725,-1.6734266132116318,0.5043306946754456,0.49686214327812195,-0.6389360874891281,-0.0009587379754520953,-0.0007669904152862728,0.005968142810179287,1.4337127208709717,1.4338725805282593,0.004149956703186543,-0.02473543956875801,-0.02473543956875801,-1.6141850124617736e-14
0.4800000000000003,0.3760167967294494,0.37486525393392506,-0.0885532675112557,-0.09726364241220681,0.07492576958719228,0.07718795261864815,0.01159305963665247,0.01159305963665247,-5.660402871518911e-14,-0.9005962610244751,-0.9211976528167725,-1.6739416480064393,0.5043306946754456,0.49686214327812195,-0.6391228012740612,-0.0009587379754520953,-0.0007669904152862728,0.005971019023581774,1.4337127208709717,1.4338725805282593,0.004151555299759419,-0.02473543956875801,-0.02473543956875801,-1.6141850124617736e-14
0.4850000000000003,0.3760167967294494,0.37486525393392506,-0.0885532675112557,-0.09726364241220681,0.07492576958719228,0.07718795261864815,0.01159305963665247,0.01159305963665247,-5.660402871518911e-14,-0.9005962610244751,-0.9211976528167725,-1.6744566828012466,0.5043306946754456,0.49686214327812195,-0.6393095150589942,-0.0009587379754520953,-0.0007669904152862728,0.005973895236984261,1.4337127208709717,1.4338725805282593,0.0041531538963322946,-0.02473543956875801,-0.02473543956875801,-1.6141850124617736e-14
0.4900000000000003,0.3760167967294494,0.37486525393392506,-0.0885532675112557,-0.09726364241220681,0.07492576958719228,0.07718795261864815,0.01159305963665247,0.01159305963665247,-5.660402871518911e-14,-0.9005962610244751,-0.9211976528167725,-1.6749717175960541,0.5043306946754456,0.49686214327812195,-0.6394962288439274,-0.0009587379754520953,-0.0007669904152862728,0.005976771450386748,1.4337127208709717,1.4338725805282593,0.004154752492905171,-0.02473543956875801,-0.02473543956875801,-1.6141850124617736e-14
0.49500000000000033,0.3760167967294494,0.37486525393392506,-0.0885532675112557,-0.09726364241220681,0.07492576958719228,0.07718795261864815,0.01159305963665247,0.01159305963665247,-5.660402871518911e-14,-0.9005962610244751,-0.9211976528167725,-1.6754867523908614,0.5043306946754456,0.49686214327812195,-0.6396829426288605,-0.0009587379754520953,-0.0007669904152862728,0.005979647663789236,1.4337127208709717,1.4338725805282593,0.0041563510894780465,-0.02473543956875801,-0.02473543956875801,-1.6141850124617736e-14
0.5000000000000003,0.3760167967294494,0.37486525393392506,-0.0885532675112557,-0.09726364241220681,0.07492576958719228,0.07718795261864815,0.01159305963665247,0.01159305963665247,-5.660402871518911e-14,-0.9005962610244751,-0.9211976528167725,-1.676001787185669,0.5043306946754456,0.49686214327812195,-0.6398696564137936,-0.0009587379754520953,-0.0007669904152862728,0.005982523877191723,1.4337127208709717,1.4338725805282593,0.004157949686050923,-0.02473543956875801,-0.02473543956875801,-1.6141850124617736e-14
0.5050000000000003,0.3760167967294494,0.37486525393392506,-0.0885532675112557,-0.09726364241220681,0.07492576958719228,0.07718795261864815,0.01159305963665247,0.01159305963665247,-5.660402871518911e-14,-0.9005962610244751,-0.9211976528167725,-1.6765168219804765,0.5043306946754456,0.49686214327812195,-0.6400563701987266,-0.0009587379754520953,-0.0007669904152862728,0.00598540009059421,1.4337127208709717,1.4338725805282593,0.004159548282623798,-0.02473543956875801,-0.02473543956875801,-1.6141850124617736e-14
0.5100000000000003,0.37623184638435125,0.37486525393392506,-0.0867582582963213,-0.09726364241220681,0.07447282421907088,0.07718795261864815,0.01159305963665247,0.01159305963665247,-5.660402871518911e-14,-0.896339476108551,-0.9211976528167725,-1.6245030984282494,0.5058128833770752,0.49686214327812195,-0.5787666961550713,-0.0009587379754520953,-0.0007669904152862728,0.0059882763039966974,1.4337127208709717,1.4338725805282593,0.004161146879196675,-0.02473543956875801,-0.02473543956875801,-1.6141850124617736e-14
0.5150000000000003,0.37623184638435125,0.37486525393392506,-0.0867582582963213,-0.09726364241220681,0.07447282421907088,0.07718795261864815,0.01159305963665247,0.01159305963665247,-5.660402871518911e-14,-0.896339476108551,-0.9211976528167725,-1.6251245528459548,0.5058128833770752,0.49686214327812195,-0.5789904646575451,-0.0009587379754520953,-0.0007669904152862728,0.005991152517399186,1.4337127208709717,1.4338725805282593,0.00416274547576955,-0.02473543956875801,-0.02473543956875801,-1.6141850124617736e-14
0.5200000000000004,0.37623184638435125,0.37486525393392506,-0.0867582582963213,-0.09726364241220681,0.07447282421907088,0.07718795261864815,0.01159305963665247,0.01159305963665247,-5.660402871518911e-14,-0.896339476108551,-0.9211976528167725,-1.6257460072636605,0.5058128833770752,0.49686214327812195,-0.579214233160019,-0.0009587379754520953,-0.0007669904152862728,0.005994028730801673,1.4337127208709717,1.4338725805282593,0.004164344072342427,-0.02473543956875801,-0.02473543956875801,-1.6141850124617736e-14
0.5250000000000004,0.37623184638435125,0.37486525393392506,-0.0867582582963213,-0.09726364241220681,0.07447282421907088,0.07718795261864815,0.01159305963665247,0.01159305963665247,-5.660402871518911e-14,-0.896339476108551,-0.9211976528167725,-1.626367461681366,0.5058128833770752,0.49686214327812195,-0.5794380016624927,-0.0009587379754520953,-0.0007669904152862728,0.00599690494420416,1.4337127208709717,1.4338725805282593,0.004165942668915302,-0.02473543956875801,-0.02473543956875801,-1.6141850124617736e-14
0.5300000000000004,0.37623184638435125,0.37486525393392506,-0.0867582582963213,-0.09726364241220681,0.07447282421907088,0.07718795261864815,0.01159305963665247,0.01159305963665247,-5.660402871518911e-14,-0.896339476108551,-0.9211976528167725,-1.6269889160990716,0.5058128833770752,0.49686214327812195,-0.5796617701649666,-0.0009587379754520953,-0.0007669904152862728,0.005999781157606647,1.4337127208709717,1.4338725805282593,0.004167541265488179,-0.02473543956875801,-0.02473543956875801,-1.6141850124617736e-14
0.5350000000000004,0.37623184638435125,0.37486525393392506,-0.0867582582963213,-0.09726364241220681,0.07447282421907088,0.07718795261864815,0.01159305963665247,0.01159305963665247,-5.660402871518911e-14,-0.896339476108551,-0.9211976528167725,-1.627610370516777,0.5058128833770752,0.49686214327812195,-0.5798855386674404,-0.0009587379754520953,-0.0007669904152862728,0.006002657371009135,1.4337127208709717,1.4338725805282593,0.004169139862061054,-0.02473543956875801,-0.02473543956875801,-1.6141850124617736e-14
0.5400000000000004,0.37623184638435125,0.37486525393392506,-0.0867582582963213,-0.09726364241220681,0.07447282421907088,0.07718795261864815,0.01159305963665247,0.01159305963665247,-5.660402871518911e-14,-0.896339476108551,-0.9211976528167725,-1.6282318249344825,0.5058128833770752,0.49686214327812195,-0.5801093071699143,-0.0009587379754520953,-0.0007669904152862728,0.006005533584411622,1.4337127208709717,1.4338725805282593,0.0041707384586339305,-0.02473543956875801,-0.02473543956875801,-1.6141850124617736e-14
0.5450000000000004,0.37623184638435125,0.37486525393392506,-0.0867582582963213,-0.09726364241220681,0.07447282421907088,0.07718795261864815,0.01159305963665247,0.01159305963665247,-5.660402871518911e-14,-0.896339476108551,-0.9211976528167725,-1.6288532793521882,0.5058128833770752,0.49686214327812195,-0.5803330756723881,-0.0009587379754520953,-0.0007669904152862728,0.006008409797814109,1.4337127208709717,1.4338725805282593,0.004172337055206806,-0.02473543956875801,-0.02473543956875801,-1.6141850124617736e-14
0.5500000000000004,0.37623184638435125,0.37486525393392506,-0.0867582582963213,-0.09726364241220681,0.07447282421907088,0.07718795261864815,0.01159305963665247,0.01159305963665247,-5.660402871518911e-14,-0.896339476108551,-0.9211976528167725,-1.6294747337698936,0.5058128833770752,0.49686214327812195,-0.5805568441748619,-0.0009587379754520953,-0.0007669904152862728,0.0060112860112165965,1.4337127208709717,1.4338725805282593,0.0041739356517796825,-0.02473543956875801,-0.02473543956875801,-1.6141850124617736e-14
0.5550000000000004,0.37623184638435125,0.37486525393392506,-0.0867582582963213,-0.09726364241220681,0.07447282421907088,0.07718795261864815,0.01159305963665247,0.01159305963665247,-5.660402871518911e-14,-0.896339476108551,-0.9211976528167725,-1.6300961881875993,0.5058128833770752,0.49686214327812195,-0.5807806126773357,-0.0009587379754520953,-0.0007669904152862728,0.006014162224619084,1.4337127208709717,1.4338725805282593,0.004175534248352559,-0.02473543956875801,-0.02473543956875801,-1.6141850124617736e-14
0.5600000000000004,0.37623184638435125,0.37486525393392506,-0.0867582582963213,-0.09726364241220681,0.07447282421907088,0.07718795261864815,0.01159305963665247,0.01159305963665247,-5.660402871518911e-14,-0.896339476108551,-0.9211976528167725,-1.6307176426053047,0.5058128833770752,0.49686214327812195,-0.5810043811798096,-0.0009587379754520953,-0.0007669904152862728,0.006017038438021571,1.4337127208709717,1.4338725805282593,0.004177132844925434,-0.02473543956875801,-0.02473543956875801,-1.6141850124617736e-14
0.5650000000000004,0.37623184638435125,0.37486525393392506,-0.0867582582963213,-0.09726364241220681,0.07447282421907088,0.07718795261864815,0.01159305963665247,0.01159305963665247,-5.660402871518911e-14,-0.896339476108551,-0.9211976528167725,-1.6313390970230102,0.5058128833770752,0.49686214327812195,-0.5812281496822834,-0.0009587379754520953,-0.0007669904152862728,0.006019914651424058,1.4337127208709717,1.4338725805282593,0.004178731441498311,-0.02473543956875801,-0.02473543956875801,-1.6141850124617736e-14
0.5700000000000004,0.37623184638435125,0.37486525393392506,-0.0867582582963213,-0.09726364241220681,0.07447282421907088,0.07718795261864815,0.01159305963665247,0.01159305963665247,-5.660402871518911e-14,-0.896339476108551,-0.9211976528167725,-1.6319605514407158,0.5058128833770752,0.49686214327812195,-0.5814519181847573,-0.0009587379754520953,-0.0007669904152862728,0.0060227908648265455,1.4337127208709717,1.4338725805282593,0.004180330038071186,-0.02473543956875801,-0.02473543956875801,-1.6141850124617736e-14
0.5750000000000004,0.37623184638435125,0.37486525393392506,-0.0867582582963213,-0.09726364241220681,0.07447282421907088,0.07718795261864815,0.01159305963665247,0.01159305963665247,-5.660402871518911e-14,-0.896339476108551,-0.9211976528167725,-1.6325820058584213,0.5058128833770752,0.49686214327812195,-0.581675686687231,-0.0009587379754520953,-0.0007669904152862728,0.006025667078229033,1.4337127208709717,1.4338725805282593,0.004181928634644063,-0.02473543956875801,-0.02473543956875801,-1.6141850124617736e-14
0.5800000000000004,0.37623184638435125,0.37486525393392506,-0.0867582582963213,-0.09726364241220681,0.07447282421907088,0.07718795261864815,0.01159305963665247,0.01159305963665247,-5.660402871518911e-14,-0.896339476108551,-0.9211976528167725,-1.633203460276127,0.5058128833770752,0.49686214327812195,-0.5818994551897049,-0.0009587379754520953,-0.0007669904152862728,0.006028543291631521,1.4337127208709717,1.4338725805282593,0.004183527231216938,-0.02473543956875801,-0.02473543956875801,-1.6141850124617736e-14
0.5850000000000004,0.37623184638435125,0.37486525393392506,-0.0867582582963213,-0.09726364241220681,0.07447282421907088,0.07718795261864815,0.01159305963665247,0.01159305963665247,-5.660402871518911e-14,-0.896339476108551,-0.9211976528167725,-1.6338249146938324,0.5058128833770752,0.49686214327812195,-0.5821232236921787,-0.0009587379754520953,-0.0007669904152862728,0.006031419505034008,1.4337127208709717,1.4338725805282593,0.004185125827789815,-0.02473543956875801,-0.02473543956875801,-1.6141850124617736e-14
0.5900000000000004,0.37623184638435125,0.37486525393392506,-0.0867582582963213,-0.09726364241220681,0.07447282421907088,0.07718795261864815,0.01159305963665247,0.01159305963665247,-5.660402871518911e-14,-0.896339476108551,-0.9211976528167725,-1.6344463691115378,0.5058128833770752,0.49686214327812195,-0.5823469921946526,-0.0009587379754520953,-0.0007669904152862728,0.0060342957184364955,1.4337127208709717,1.4338725805282593,0.00418672442436269,-0.02473543956875801,-0.02473543956875801,-1.6141850124617736e-14
0.5950000000000004,0.37623184638435125,0.37486525393392506,-0.0867582582963213,-0.09726364241220681,0.07447282421907088,0.07718795261864815,0.01159305963665247,0.01159305963665247,-5.660402871518911e-14,-0.896339476108551,-0.9211976528167725,-1.6350678235292435,0.5058128833770752,0.49686214327812195,-0.5825707606971264,-0.0009587379754520953,-0.0007669904152862728,0.006037171931838983,1.4337127208709717,1.4338725805282593,0.0041883230209355665,-0.02473543956875801,-0.02473543956875801,-1.6141850124617736e-14
0.6000000000000004,0.37623184638435125,0.37486525393392506,-0.0867582582963213,-0.09726364241220681,0.07447282421907088,0.07718795261864815,0.01159305963665247,0.01159305963665247,-5.660402871518911e-14,-0.896339476108551,-0.9211976528167725,-1.635689277946949,0.5058128833770752,0.49686214327812195,-0.5827945291996002,-0.0009587379754520953,-0.0007669904152862728,0.00604004814524147,1.4337127208709717,1.4338725805282593,0.004189921617508442,-0.02473543956875801,-0.02473543956875801,-1.6141850124617736e-14
0.6050000000000004,0.3765138326992099,0.37486525393392506,-0.08416842017526231,-0.09726364241220681,0.07379262066657702,0.07718795261864815,0.01159305963665247,0.01159305963665247,-5.660402871518911e-14,-0.8902323246002197,-0.9211976528167725,-2.2048029080033302,0.5080410242080688,0.49686214327812195,-0.8097785353660584,-0.0009587379754520953,-0.0007669904152862728,0.006042924358643957,1.4337127208709717,1.4338725805282593,0.0041915202140813184,-0.02473543956875801,-0.02473543956875801,-1.6141850124617736e-14
0.6100000000000004,0.3765138326992099,0.37486525393392506,-0.08416842017526231,-0.09726364241220681,0.07379262066657702,0.07718795261864815,0.01159305963665247,0.01159305963665247,-5.660402871518911e-14,-0.8902323246002197,-0.9211976528167725,-2.205577041208744,0.5080410242080688,0.49686214327812195,-0.810058007389307,-0.0009587379754520953,-0.0007669904152862728,0.0060458005720464445,1.4337127208709717,1.4338725805282593,0.004193118810654194,-0.02473543956875801,-0.02473543956875801,-1.6141850124617736e-14
0.6150000000000004,0.3765138326992099,0.37486525393392506,-0.08416842017526231,-0.09726364241220681,0.07379262066657702,0.07718795261864815,0.01159305963665247,0.01159305963665247,-5.660402871518911e-14,-0.8902323246002197,-0.9211976528167725,-2.206351174414158,0.5080410242080688,0.49686214327812195,-0.8103374794125557,-0.0009587379754520953,-0.0007669904152862728,0.006048676785448932,1.4337127208709717,1.4338725805282593,0.00419471740722707,-0.02473543956875801,-0.02473543956875801,-1.6141850124617736e-14
0.6200000000000004,0.3765138326992099,0.37486525393392506,-0.08416842017526231,-0.09726364241220681,0.07379262066657702,0.07718795261864815,0.01159305963665247,0.01159305963665247,-5.660402871518911e-14,-0.8902323246002197,-0.9211976528167725,-2.2071253076195716,0.5080410242080688,0.49686214327812195,-0.8106169514358044,-0.0009587379754520953,-0.0007669904152862728,0.006051552998851419,1.4337127208709717,1.4338725805282593,0.004196316003799946,-0.02473543956875801,-0.02473543956875801,-1.6141850124617736e-14
0.6250000000000004,0.3765138326992099,0.37486525393392506,-0.08416842017526231,-0.09726364241220681,0.07379262066657702,0.07718795261864815,0.01159305963665247,0.01159305963665247,-5.660402871518911e-14,-0.8902323246002197,-0.9211976528167725,-2.2078994408249857,0.5080410242080688,0.49686214327812195,-0.810896423459053,-0.0009587379754520953,-0.0007669904152862728,0.006054429212253906,1.4337127208709717,1.4338725805282593,0.004197914600372822,-0.02473543956875801,-0.02473543956875801,-1.6141850124617736e-14
0.6300000000000004,0.3765138326992099,0.37486525393392506,-0.08416842017526231,-0.09726364241220681,0.07379262066657702,0.07718795261864815,0.01159305963665247,0.01159305963665247,-5.660402871518911e-14,-0.8902323246002197,-0.9211976528167725,-2.2086735740303993,0.5080410242080688,0.49686214327812195,-0.8111758954823017,-0.0009587379754520953,-0.0007669904152862728,0.006057305425656394,1.4337127208709717,1.4338725805282593,0.004199513196945698,-0.02473543956875801,-0.02473543956875801,-1.6141850124617736e-14
0.6350000000000005,0.3765138326992099,0.37486525393392506,-0.08416842017526231,-0.09726364241220681,0.07379262066657702,0.07718795261864815,0.01159305963665247,0.01159305963665247,-5.660402871518911e-14,-0.8902323246002197,-0.9211976528167725,-2.209447707235813,0.5080410242080688,0.49686214327812195,-0.8114553675055504,-0.0009587379754520953,-0.0007669904152862728,0.006060181639058881,1.4337127208709717,1.4338725805282593,0.004201111793518574,-0.02473543956875801,-0.02473543956875801,-1.6141850124617736e-14
0.6400000000000005,0.3765138326992099,0.37486525393392506,-0.08416842017526231,-0.09726364241220681,0.07379262066657702,0.07718795261864815,0.01159305963665247,0.01159305963665247,-5.660402871518911e-14,-0.8902323246002197,-0.9211976528167725,-2.210221840441227,0.5080410242080688,0.49686214327812195,-0.8117348395287991,-0.0009587379754520953,-0.0007669904152862728,0.006063057852461369,1.4337127208709717,1.4338725805282593,0.004202710390091451,-0.02473543956875801,-0.02473543956875801,-1.6141850124617736e-14
0.6450000000000005,0.3765138326992099,0.37486525393392506,-0.08416842017526231,-0.09726364241220681,0.07379262066657702,0.07718795261864815,0.01159305963665247,0.01159305963665247,-5.660402871518911e-14,-0.8902323246002197,-0.9211976528167725,-2.2109959736466407,0.5080410242080688,0.49686214327812195,-0.8120143115520477,-0.0009587379754520953,-0.0007669904152862728,0.006065934065863856,1.4337127208709717,1.4338725805282593,0.004204308986664326,-0.02473543956875801,-0.02473543956875801,-1.6141850124617736e-14
0.6500000000000005,0.3765138326992099,0.37486525393392506,-0.08416842017526231,-0.09726364241220681,0.07379262066657702,0.07718795261864815,0.01159305963665247,0.01159305963665247,-5.660402871518911e-14,-0.8902323246002197,-0.9211976528167725,-2.2117701068520548,0.5080410242080688,0.49686214327812195,-0.8122937835752964,-0.0009587379754520953,-0.0007669904152862728,0.0060688102792663436,1.4337127208709717,1.4338725805282593,0.0042059075832372025,-0.02473543956875801,-0.02473543956875801,-1.6141850124617736e-14
0.6550000000000005,0.3765138326992099,0.37486525393392506,-0.08416842017526231,-0.09726364241220681,0.07379262066657702,0.07718795261864815,0.01159305963665247,0.01159305963665247,-5.660402871518911e-14,-0.8902323246002197,-0.9211976528167725,-2.2125442400574684,0.5080410242080688,0.49686214327812195,-0.8125732555985451,-0.0009587379754520953,-0.0007669904152862728,0.006071686492668831,1.4337127208709717,1.4338725805282593,0.004207506179810078,-0.02473543956875801,-0.02473543956875801,-1.6141850124617736e-14
0.6600000000000005,0.3765138326992099,0.37486525393392506,-0.08416842017526231,-0.09726364241220681,0.07379262066657702,0.07718795261864815,0.01159305963665247,0.01159305963665247,-5.660402871518911e-14,-0.8902323246002197,-0.9211976528167725,-2.213318373262882,0.5080410242080688,0.49686214327812195,-0.8128527276217937,-0.0009587379754520953,-0.0007669904152862728,0.006074562706071318,1.4337127208709717,1.4338725805282593,0.004209104776382954,-0.02473543956875801,-0.02473543956875801,-1.6141850124617736e-14
0.6650000000000005,0.3765138326992099,0.37486525393392506,-0.08416842017526231,-0.09726364241220681,0.07379262066657702,0.07718795261864815,0.01159305963665247,0.01159305963665247,-5.660402871518911e-14,-0.8902323246002197,-0.9211976528167725,-2.214092506468296,0.5080410242080688,0.49686214327812195,-0.8131321996450425,-0.0009587379754520953,-0.0007669904152862728,0.006077438919473805,1.4337127208709717,1.4338725805282593,0.00421070337295583,-0.02473543956875801,-0.02473543956875801,-1.6141850124617736e-14
0.6700000000000005,0.3765138326992099,0.37486525393392506,-0.08416842017526231,-0.09726364241220681,0.07379262066657702,0.07718795261864815,0.01159305963665247,0.01159305963665247,-5.660402871518911e-14,-0.8902323246002197,-0.9211976528167725,-2.21486663967371,0.5080410242080688,0.49686214327812195,-0.8134116716682911,-0.0009587379754520953,-0.0007669904152862728,0.006080315132876293,1.4337127208709717,1.4338725805282593,0.004212301969528706,-0.02473543956875801,-0.02473543956875801,-1.6141850124617736e-14
0.6750000000000005,0.3765138326992099,0.37486525393392506,-0.08416842017526231,-0.09726364241220681,0.07379262066657702,0.07718795261864815,0.01159305963665247,0.01159305963665247,-5.660402871518911e-14,-0.8902323246002197,-0.9211976528167725,-2.215640772879124,0.5080410242080688,0.49686214327812195,-0.8136911436915397,-0.0009587379754520953,-0.0007669904152862728,0.00608319134627878,1.4337127208709717,1.4338725805282593,0.004213900566101582,-0.02473543956875801,-0.02473543956875801,-1.6141850124617736e-14
0.6800000000000005,0.3765138326992099,0.37486525393392506,-0.08416842017526231,-0.09726364241220681,0.07379262066657702,0.07718795261864815,0.01159305963665247,0.01159305963665247,-5.660402871518911e-14,-0.8902323246002197,-0.9211976528167725,-2.2164149060845375,0.5080410242080688,0.49686214327812195,-0.8139706157147885,-0.0009587379754520953,-0.0007669904152862728,0.006086067559681267,1.4337127208709717,1.4338725805282593,0.004215499162674458,-0.02473543956875801,-0.02473543956875801,-1.6141850124617736e-14
0.6850000000000005,0.3765138326992099,0.37486525393392506,-0.08416842017526231,-0.09726364241220681,0.07379262066657702,0.07718795261864815,0.01159305963665247,0.01159305963665247,-5.660402871518911e-14,-0.8902323246002197,-0.9211976528167725,-2.217189039289951,0.5080410242080688,0.49686214327812195,-0.8142500877380371,-0.0009587379754520953,-0.0007669904152862728,0.0060889437730837544,1.4337127208709717,1.4338725805282593,0.004217097759247334,-0.02473543956875801,-0.02473543956875801,-1.6141850124617736e-14
0.6900000000000005,0.3765138326992099,0.37486525393392506,-0.08416842017526231,-0.09726364241220681,0.07379262066657702,0.07718795261864815,0.01159305963665247,0.01159305963665247,-5.660402871518911e-14,-0.8902323246002197,-0.9211976528167725,-2.2179631724953652,0.5080410242080688,0.49686214327812195,-0.8145295597612858,-0.0009587379754520953,-0.0007669904152862728,0.006091819986486242,1.4337127208709717,1.4338725805282593,0.00421869635582021,-0.02473543956875801,-0.02473543956875801,-1.6141850124617736e-14
0.6950000000000005,0.3765138326992099,0.37486525393392506,-0.08416842017526231,-0.09726364241220681,0.07379262066657702,0.07718795261864815,0.01159305963665247,0.01159305963665247,-5.660402871518911e-14,-0.8902323246002197,-0.9211976528167725,-2.218737305700779,0.5080410242080688,0.49686214327812195,-0.8148090317845345,-0.0009587379754520953,-0.0007669904152862728,0.006094696199888729,1.4337127208709717,1.4338725805282593,0.004220294952393086,-0.02473543956875801,-0.02473543956875801,-1.6141850124617736e-14
0.7000000000000005,0.3765138326992099,0.37486525393392506,-0.08416842017526231,-0.09726364241220681,0.07379262066657702,0.07718795261864815,0.01159305963665247,0.01159305963665247,-5.660402871518911e-14,-0.8902323246002197,-0.9211976528167725,-2.219511438906193,0.5080410242080688,0.49686214327812195,-0.8150885038077831,-0.0009587379754520953,-0.0007669904152862728,0.006097572413291216,1.4337127208709717,1.4338725805282593,0.004221893548965962,-0.02473543956875801,-0.02473543956875801,-1.6141850124617736e-14
0.7050000000000005,0.3768113596789249,0.37486525393392506,-0.08084621440687995,-0.09726364241220681,0.07284047755292661,0.07718795261864815,0.01159305963665247,0.01159305963665247,-5.660402871518911e-14,-0.8824952840805054,-0.9211976528167725,-2.4834618285298347,0.5111646056175232,0.49686214327812195,-0.9653165131807327,-0.0009587379754520953,-0.0007669904152862728,0.0061004486266937035,1.4337127208709717,1.4338725805282593,0.004223492145538838,-0.02473543956875801,-0.02473543956875801,-1.6141850124617736e-14
0.7100000000000005,0.3768113596789249,0.37486525393392506,-0.08084621440687995,-0.09726364241220681,0.07284047755292661,0.07718795261864815,0.01159305963665247,0.01159305963665247,-5.660402871518911e-14,-0.8824952840805054,-0.9211976528167725,-2.4844293877482415,0.5111646056175232,0.49686214327812195,-0.9656740747392177,-0.0009587379754520953,-0.0007669904152862728,0.006103324840096192,1.4337127208709717,1.4338725805282593,0.004225090742111714,-0.02473543956875801,-0.02473543956875801,-1.6141850124617736e-14
0.7150000000000005,0.3768113596789249,0.37486525393392506,-0.08084621440687995,-0.09726364241220681,0.07284047755292661,0.07718795261864815,0.01159305963665247,0.01159305963665247,-5.660402871518911e-14,-0.8824952840805054,-0.9211976528167725,-2.485396946966648,0.5111646056175232,0.49686214327812195,-0.9660316362977028,-0.0009587379754520953,-0.0007669904152862728,0.006106201053498679,1.4337127208709717,1.4338725805282593,0.00422668933868459,-0.02473543956875801,-0.02473543956875801,-1.6141850124617736e-14
0.7200000000000005,0.3768113596789249,0.37486525393392506,-0.08084621440687995,-0.09726364241220681,0.07284047755292661,0.07718795261864815,0.01159305963665247,0.01159305963665247,-5.660402871518911e-14,-0.8824952840805054,-0.9211976528167725,-2.486364506185055,0.5111646056175232,0.49686214327812195,-0.9663891978561878,-0.0009587379754520953,-0.0007669904152862728,0.006109077266901166,1.4337127208709717,1.4338725805282593,0.004228287935257466,-0.02473543956875801,-0.02473543956875801,-1.6141850124617736e-14
0.7250000000000005,0.3768113596789249,0.37486525393392506,-0.08084621440687995,-0.09726364241220681,0.07284047755292661,0.07718795261864815,0.01159305963665247,0.01159305963665247,-5.660402871518911e-14,-0.8824952840805054,-0.9211976528167725,-2.4873320654034616,0.5111646056175232,0.49686214327812195,-0.9667467594146728,-0.0009587379754520953,-0.0007669904152862728,0.0061119534803036535,1.4337127208709717,1.4338725805282593,0.004229886531830342,-0.02473543956875801,-0.02473543956875801,-1.6141850124617736e-14
0.7300000000000005,0.3768113596789249,0.37486525393392506,-0.08084621440687995,-0.09726364241220681,0.07284047755292661,0.07718795261864815,0.01159305963665247,0.01159305963665247,-5.660402871518911e-14,-0.8824952840805054,-0.9211976528167725,-2.488299624621868,0.5111646056175232,0.49686214327812195,-0.9671043209731579,-0.0009587379754520953,-0.0007669904152862728,0.006114829693706141,1.4337127208709717,1.4338725805282593,0.004231485128403218,-0.02473543956875801,-0.02473543956875801,-1.6141850124617736e-14
0.7350000000000005,0.3768113596789249,0.37486525393392506,-0.08084621440687995,-0.09726364241220681,0.07284047755292661,0.07718795261864815,0.01159305963665247,0.01159305963665247,-5.660402871518911e-14,-0.8824952840805054,-0.9211976528167725,-2.489267183840275,0.5111646056175232,0.49686214327812195,-0.9674618825316429,-0.0009587379754520953,-0.0007669904152862728,0.006117705907108628,1.4337127208709717,1.4338725805282593,0.004233083724976094,-0.02473543956875801,-0.02473543956875801,-1.6141850124617736e-14
0.7400000000000005,0.3768113596789249,0.37486525393392506,-0.08084621440687995,-0.09726364241220681,0.07284047755292661,0.07718795261864815,0.01159305963665247,0.01159305963665247,-5.660402871518911e-14,-0.8824952840805054,-0.9211976528167725,-2.4902347430586813,0.5111646056175232,0.49686214327812195,-0.967819444090128,-0.0009587379754520953,-0.0007669904152862728,0.006120582120511115,1.4337127208709717,1.4338725805282593,0.00423468232154897,-0.02473543956875801,-0.02473543956875801,-1.6141850124617736e-14
0.7450000000000006,0.3768113596789249,0.37486525393392506,-0.08084621440687995,-0.09726364241220681,0.07284047755292661,0.07718795261864815,0.01159305963665247,0.01159305963665247,-5.660402871518911e-14,-0.8824952840805054,-0.9211976528167725,-2.491202302277088,0.5111646056175232,0.49686214327812195,-0.968177005648613,-0.0009587379754520953,-0.0007669904152862728,0.0061234583339136025,1.4337127208709717,1.4338725805282593,0.004236280918121846,-0.02473543956875801,-0.02473543956875801,-1.6141850124617736e-14
0.7500000000000006,0.3768113596789249,0.37486525393392506,-0.08084621440687995,-0.09726364241220681,0.07284047755292661,0.07718795261864815,0.01159305963665247,0.01159305963665247,-5.660402871518911e-14,-0.8824952840805054,-0.9211976528167725,-2.492169861495495,0.5111646056175232,0.49686214327812195,-0.968534567207098,-0.0009587379754520953,-0.0007669904152862728,0.00612633454731609,1.4337127208709717,1.4338725805282593,0.004237879514694722,-0.02473543956875801,-0.02473543956875801,-1.6141850124617736e-14
0.7550000000000006,0.3768113596789249,0.37486525393392506,-0.08084621440687995,-0.09726364241220681,0.07284047755292661,0.07718795261864815,0.01159305963665247,0.01159305963665247,-5.660402871518911e-14,-0.8824952840805054,-0.9211976528167725,-2.4931374207139014,0.5111646056175232,0.49686214327812195,-0.9688921287655831,-0.0009587379754520953,-0.0007669904152862728,0.006129210760718578,1.4337127208709717,1.4338725805282593,0.004239478111267598,-0.02473543956875801,-0.02473543956875801,-1.6141850124617736e-14
0.7600000000000006,0.3768113596789249,0.37486525393392506,-0.08084621440687995,-0.09726364241220681,0.07284047755292661,0.07718795261864815,0.01159305963665247,0.01159305963665247,-5.660402871518911e-14,-0.8824952840805054,-0.9211976528167725,-2.4941049799323083,0.5111646056175232,0.49686214327812195,-0.969249690324068,-0.0009587379754520953,-0.0007669904152862728,0.006132086974121065,1.4337127208709717,1.4338725805282593,0.004241076707840474,-0.02473543956875801,-0.02473543956875801,-1.6141850124617736e-14
0.7650000000000006,0.3768113596789249,0.37486525393392506,-0.08084621440687995,-0.09726364241220681,0.07284047755292661,0.07718795261864815,0.01159305963665247,0.01159305963665247,-5.660402871518911e-14,-0.8824952840805054,-0.9211976528167725,-2.4950725391507147,0.5111646056175232,0.49686214327812195,-0.9696072518825531,-0.0009587379754520953,-0.0007669904152862728,0.0061349631875235525,1.4337127208709717,1.4338725805282593,0.00424267530441335,-0.02473543956875801,-0.02473543956875801,-1.6141850124617736e-14
0.7700000000000006,0.3768113596789249,0.37486525393392506,-0.08084621440687995,-0.09726364241220681,0.07284047755292661,0.07718795261864815,0.01159305963665247,0.01159305963665247,-5.660402871518911e-14,-0.8824952840805054,-0.9211976528167725,-2.4960400983691216,0.5111646056175232,0.49686214327812195,-0.9699648134410381,-0.0009587379754520953,-0.0007669904152862728,0.00613783940092604,1.4337127208709717,1.4338725805282593,0.0042442739009862255,-0.02473543956875801,-0.02473543956875801,-1.6141850124617736e-14
0.7750000000000006,0.3768113596789249,0.37486525393392506,-0.08084621440687995,-0.09726364241220681,0.07284047755292661,0.07718795261864815,0.01159305963665247,0.01159305963665247,-5.660402871518911e-14,-0.8824952840805054,-0.9211976528167725,-2.4970076575875284,0.5111646056175232,0.49686214327812195,-0.9703223749995231,-0.0009587379754520953,-0.0007669904152862728,0.006140715614328527,1.4337127208709717,1.4338725805282593,0.004245872497559102,-0.02473543956875801,-0.02473543956875801,-1.6141850124617736e-14
0.7800000000000006,0.3768113596789249,0.37486525393392506,-0.08084621440687995,-0.09726364241220681,0.07284047755292661,0.07718795261864815,0.01159305963665247,0.01159305963665247,-5.660402871518911e-14,-0.8824952840805054,-0.9211976528167725,-2.497975216805935,0.5111646056175232,0.49686214327812195,-0.9706799365580082,-0.0009587379754520953,-0.0007669904152862728,0.006143591827731014,1.4337127208709717,1.4338725805282593,0.0042474710941319774,-0.02473543956875801,-0.02473543956875801,-1.6141850124617736e-14
0.7850000000000006,0.3768113596789249,0.37486525393392506,-0.08084621440687995,-0.09726364241220681,0.07284047755292661,0.07718795261864815,0.01159305963665247,0.01159305963665247,-5.660402871518911e-14,-0.8824952840805054,-0.9211976528167725,-2.4989427760243417,0.5111646056175232,0.49686214327812195,-0.9710374981164932,-0.0009587379754520953,-0.0007669904152862728,0.0061464680411335015,1.4337127208709717,1.4338725805282593,0.004249069690704854,-0.02473543956875801,-0.02473543956875801,-1.6141850124617736e-14
0.7900000000000006,0.3768113596789249,0.37486525393392506,-0.08084621440687995,-0.09726364241220681,0.07284047755292661,0.07718795261864815,0.01159305963665247,0.01159305963665247,-5.660402871518911e-14,-0.8824952840805054,-0.9211976528167725,-2.499910335242748,0.5111646056175232,0.49686214327812195,-0.9713950596749783,-0.0009587379754520953,-0.0007669904152862728,0.006149344254535989,1.4337127208709717,1.4338725805282593,0.004250668287277729,-0.02473543956875801,-0.02473543956875801,-1.6141850124617736e-14
0.7950000000000006,0.3768113596789249,0.37486525393392506,-0.08084621440687995,-0.09726364241220681,0.07284047755292661,0.07718795261864815,0.01159305963665247,0.01159305963665247,-5.660402871518911e-14,-0.8824952840805054,-0.9211976528167725,-2.500877894461155,0.5111646056175232,0.49686214327812195,-0.9717526212334633,-0.0009587379754520953,-0.0007669904152862728,0.006152220467938476,1.4337127208709717,1.4338725805282593,0.004252266883850606,-0.02473543956875801,-0.02473543956875801,-1.6141850124617736e-14
0.8000000000000006,0.3768113596789249,0.37486525393392506,-0.08084621440687995,-0.09726364241220681,0.07284047755292661,0.07718795261864815,0.01159305963665247,0.01159305963665247,-5.660402871518911e-14,-0.8824952840805054,-0.9211976528167725,-2.501845453679562,0.5111646056175232,0.49686214327812195,-0.9721101827919483,-0.0009587379754520953,-0.0007669904152862728,0.006155096681340964,1.4337127208709717,1.4338725805282593,0.004253865480423481,-0.02473543956875801,-0.02473543956875801,-1.6141850124617736e-14
0.8050000000000006,0.3768113596789249,0.37486525393392506,-0.08084621440687995,-0.09726364241220681,0.07284047755292661,0.07718795261864815,0.01159305963665247,0.01159305963665247,-5.660402871518911e-14,-0.8824952840805054,-0.9211976528167725,-2.502813012897968,0.5111646056175232,0.49686214327812195,-0.9724677443504334,-0.0009587379754520953,-0.0007669904152862728,0.0061579728947434515,1.4337127208709717,1.4338725805282593,0.004255464076996358,-0.02473543956875801,-0.02473543956875801,-1.6141850124617736e-14
0.8100000000000006,0.3770158073233973,0.37486525393392506,-0.07867926160886074,-0.09726364241220681,0.07228014545667352,0.07718795261864815,0.01159305963665247,0.01159305963665247,-5.660402871518911e-14,-0.877383291721344,-0.9211976528167725,-2.513764223456383,0.5130053758621216,0.49686214327812195,-0.9300154589116574,-0.0009587379754520953,-0.0007669904152862728,0.006160849108145939,1.4337127208709717,1.4338725805282593,0.004257062673569233,-0.02473543956875801,-0.02473543956875801,-1.6141850124617736e-14
0.8150000000000006,0.3770158073233973,0.37486525393392506,-0.07867926160886074,-0.09726364241220681,0.07228014545667352,0.07718795261864815,0.01159305963665247,0.01159305963665247,-5.660402871518911e-14,-0.877383291721344,-0.9211976528167725,-2.5148595824837683,0.5130053758621216,0.49686214327812195,-0.9304190397262573,-0.0009587379754520953,-0.0007669904152862728,0.006163725321548426,1.4337127208709717,1.4338725805282593,0.00425866127014211,-0.02473543956875801,-0.02473543956875801,-1.6141850124617736e-14
0.8200000000000006,0.3770158073233973,0.37486525393392506,-0.07867926160886074,-0.09726364241220681,0.07228014545667352,0.07718795261864815,0.01159305963665247,0.01159305963665247,-5.660402871518911e-14,-0.877383291721344,-0.9211976528167725,-2.515954941511154,0.5130053758621216,0.49686214327812195,-0.9308226205408573,-0.0009587379754520953,-0.0007669904152862728,0.006166601534950913,1.4337127208709717,1.4338725805282593,0.004260259866714985,-0.02473543956875801,-0.02473543956875801,-1.6141850124617736e-14
0.8250000000000006,0.3770158073233973,0.37486525393392506,-0.07867926160886074,-0.09726364241220681,0.07228014545667352,0.07718795261864815,0.01159305963665247,0.01159305963665247,-5.660402871518911e-14,-0.877383291721344,-0.9211976528167725,-2.51705030053854,0.5130053758621216,0.49686214327812195,-0.9312262013554573,-0.0009587379754520953,-0.0007669904152862728,0.0061694777483534005,1.4337127208709717,1.4338725805282593,0.0042618584632878615,-0.02473543956875801,-0.02473543956875801,-1.6141850124617736e-14
0.8300000000000006,0.3770158073233973,0.37486525393392506,-0.07867926160886074,-0.09726364241220681,0.07228014545667352,0.07718795261864815,0.01159305963665247,0.01159305963665247,-5.660402871518911e-14,-0.877383291721344,-0.9211976528167725,-2.5181456595659255,0.5130053758621216,0.49686214327812195,-0.9316297821700573,-0.0009587379754520953,-0.0007669904152862728,0.006172353961755888,1.4337127208709717,1.4338725805282593,0.004263457059860737,-0.02473543956875801,-0.02473543956875801,-1.6141850124617736e-14
0.8350000000000006,0.3770158073233973,0.37486525393392506,-0.07867926160886074,-0.09726364241220681,0.07228014545667352,0.07718795261864815,0.01159305963665247,0.01159305963665247,-5.660402871518911e-14,-0.877383291721344,-0.9211976528167725,-2.5192410185933114,0.5130053758621216,0.49686214327812195,-0.9320333629846573,-0.0009587379754520953,-0.0007669904152862728,0.006175230175158376,1.4337127208709717,1.4338725805282593,0.004265055656433613,-0.02473543956875801,-0.02473543956875801,-1.6141850124617736e-14
0.8400000000000006,0.3770158073233973,0.37486525393392506,-0.07867926160886074,-0.09726364241220681,0.07228014545667352,0.07718795261864815,0.01159305963665247,0.01159305963665247,-5.660402871518911e-14,-0.877383291721344,-0.9211976528167725,-2.520336377620697,0.5130053758621216,0.49686214327812195,-0.9324369437992572,-0.0009587379754520953,-0.0007669904152862728,0.006178106388560863,1.4337127208709717,1.4338725805282593,0.004266654253006489,-0.02473543956875801,-0.02473543956875801,-1.6141850124617736e-14
0.8450000000000006,0.3770158073233973,0.37486525393392506,-0.07867926160886074,-0.09726364241220681,0.07228014545667352,0.07718795261864815,0.01159305963665247,0.01159305963665247,-5.660402871518911e-14,-0.877383291721344,-0.9211976528167725,-2.5214317366480827,0.5130053758621216,0.49686214327812195,-0.9328405246138572,-0.0009587379754520953,-0.0007669904152862728,0.0061809826019633505,1.4337127208709717,1.4338725805282593,0.004268252849579365,-0.02473543956875801,-0.02473543956875801,-1.6141850124617736e-14
0.8500000000000006,0.3770158073233973,0.37486525393392506,-0.07867926160886074,-0.09726364241220681,0.07228014545667352,0.07718795261864815,0.01159305963665247,0.01159305963665247,-5.660402871518911e-14,-0.877383291721344,-0.9211976528167725,-2.5225270956754686,0.5130053758621216,0.49686214327812195,-0.9332441054284573,-0.0009587379754520953,-0.0007669904152862728,0.006183858815365838,1.4337127208709717,1.4338725805282593,0.004269851446152241,-0.02473543956875801,-0.02473543956875801,-1.6141850124617736e-14
0.8550000000000006,0.3770158073233973,0.37486525393392506,-0.07867926160886074,-0.09726364241220681,0.07228014545667352,0.07718795261864815,0.01159305963665247,0.01159305963665247,-5.660402871518911e-14,-0.877383291721344,-0.9211976528167725,-2.523622454702854,0.5130053758621216,0.49686214327812195,-0.9336476862430573,-0.0009587379754520953,-0.0007669904152862728,0.006186735028768325,1.4337127208709717,1.4338725805282593,0.004271450042725117,-0.02473543956875801,-0.02473543956875801,-1.6141850124617736e-14
0.8600000000000007,0.3770158073233973,0.37486525393392506,-0.07867926160886074,-0.09726364241220681,0.07228014545667352,0.07718795261864815,0.01159305963665247,0.01159305963665247,-5.660402871518911e-14,-0.877383291721344,-0.9211976528167725,-2.52471781373024,0.5130053758621216,0.49686214327812195,-0.9340512670576573,-0.0009587379754520953,-0.0007669904152862728,0.006189611242170812,1.4337127208709717,1.4338725805282593,0.004273048639297993,-0.02473543956875801,-0.02473543956875801,-1.6141850124617736e-14
0.8650000000000007,0.3770158073233973,0.37486525393392506,-0.07867926160886074,-0.09726364241220681,0.07228014545667352,0.07718795261864815,0.01159305963665247,0.01159305963665247,-5.660402871518911e-14,-0.877383291721344,-0.9211976528167725,-2.5258131727576254,0.5130053758621216,0.49686214327812195,-0.9344548478722572,-0.0009587379754520953,-0.0007669904152862728,0.0061924874555732996,1.4337127208709717,1.4338725805282593,0.004274647235870869,-0.02473543956875801,-0.02473543956875801,-1.6141850124617736e-14
0.8700000000000007,0.3770158073233973,0.37486525393392506,-0.07867926160886074,-0.09726364241220681,0.07228014545667352,0.07718795261864815,0.01159305963665247,0.01159305963665247,-5.660402871518911e-14,-0.877383291721344,-0.9211976528167725,-2.5269085317850113,0.5130053758621216,0.49686214327812195,-0.9348584286868572,-0.0009587379754520953,-0.0007669904152862728,0.006195363668975787,1.4337127208709717,1.4338725805282593,0.004276245832443745,-0.02473543956875801,-0.02473543956875801,-1.6141850124617736e-14
0.8750000000000007,0.3770158073233973,0.37486525393392506,-0.07867926160886074,-0.09726364241220681,0.07228014545667352,0.07718795261864815,0.01159305963665247,0.01159305963665247,-5.660402871518911e-14,-0.877383291721344,-0.9211976528167725,-2.528003890812397,0.5130053758621216,0.49686214327812195,-0.9352620095014572,-0.0009587379754520953,-0.0007669904152862728,0.006198239882378274,1.4337127208709717,1.4338725805282593,0.004277844429016621,-0.02473543956875801,-0.02473543956875801,-1.6141850124617736e-14
0.8800000000000007,0.3770158073233973,0.37486525393392506,-0.07867926160886074,-0.09726364241220681,0.07228014545667352,0.07718795261864815,0.01159305963665247,0.01159305963665247,-5.660402871518911e-14,-0.877383291721344,-0.9211976528167725,-2.5290992498397826,0.5130053758621216,0.49686214327812195,-0.9356655903160572,-0.0009587379754520953,-0.0007669904152862728,0.006201116095780762,1.4337127208709717,1.4338725805282593,0.004279443025589497,-0.02473543956875801,-0.02473543956875801,-1.6141850124617736e-14
0.8850000000000007,0.3770158073233973,0.37486525393392506,-0.07867926160886074,-0.09726364241220681,0.07228014545667352,0.07718795261864815,0.01159305963665247,0.01159305963665247,-5.660402871518911e-14,-0.877383291721344,-0.9211976528167725,-2.5301946088671685,0.5130053758621216,0.49686214327812195,-0.9360691711306572,-0.0009587379754520953,-0.0007669904152862728,0.0062039923091832495,1.4337127208709717,1.4338725805282593,0.004281041622162373,-0.02473543956875801,-0.02473543956875801,-1.6141850124617736e-14
0.8900000000000007,0.3770158073233973,0.37486525393392506,-0.07867926160886074,-0.09726364241220681,0.07228014545667352,0.07718795261864815,0.01159305963665247,0.01159305963665247,-5.660402871518911e-14,-0.877383291721344,-0.9211976528167725,-2.531289967894554,0.5130053758621216,0.49686214327812195,-0.9364727519452571,-0.0009587379754520953,-0.0007669904152862728,0.006206868522585737,1.4337127208709717,1.4338725805282593,0.0042826402187352485,-0.02473543956875801,-0.02473543956875801,-1.6141850124617736e-14
0.8950000000000007,0.3770158073233973,0.37486525393392506,-0.07867926160886074,-0.09726364241220681,0.07228014545667352,0.07718795261864815,0.01159305963665247,0.01159305963665247,-5.660402871518911e-14,-0.877383291721344,-0.9211976528167725,-2.53238532692194,0.5130053758621216,0.49686214327812195,-0.9368763327598572,-0.0009587379754520953,-0.0007669904152862728,0.006209744735988224,1.4337127208709717,1.4338725805282593,0.004284238815308125,-0.02473543956875801,-0.02473543956875801,-1.6141850124617736e-14
0.9000000000000007,0.3770158073233973,0.37486525393392506,-0.07867926160886074,-0.09726364241220681,0.07228014545667352,0.07718795261864815,0.01159305963665247,0.01159305963665247,-5.660402871518911e-14,-0.877383291721344,-0.9211976528167725,-2.5334806859493257,0.5130053758621216,0.49686214327812195,-0.9372799135744572,-0.0009587379754520953,-0.0007669904152862728,0.006212620949390711,1.4337127208709717,1.4338725805282593,0.0042858374118810005,-0.02473543956875801,-0.02473543956875801,-1.6141850124617736e-14
0.9050000000000007,0.3770158073233973,0.37486525393392506,-0.07867926160886074,-0.09726364241220681,0.07228014545667352,0.07718795261864815,0.01159305963665247,0.01159305963665247,-5.660402871518911e-14,-0.877383291721344,-0.9211976528167725,-2.534576044976711,0.5130053758621216,0.49686214327812195,-0.9376834943890572,-0.0009587379754520953,-0.0007669904152862728,0.006215497162793199,1.4337127208709717,1.4338725805282593,0.004287436008453877,-0.02473543956875801,-0.02473543956875801,-1.6141850124617736e-14
0.9100000000000007,0.3772382875426889,0.37486525393392506,-0.076133969942996,-0.09726364241220681,0.07162074935744864,0.07718795261864815,0.01159305963665247,0.01159305963665247,-5.660402871518911e-14,-0.871383547782898,-0.9211976528167725,-2.8678500398993494,0.5151740312576294,0.49686214327812195,-1.06036082431674,-0.0009587379754520953,-0.0007669904152862728,0.006218373376195686,1.4337127208709717,1.4338725805282593,0.004289034605026752,-0.02473543956875801,-0.02473543956875801,-1.6141850124617736e-14
0.9150000000000007,0.3772382875426889,0.37486525393392506,-0.076133969942996,-0.09726364241220681,0.07162074935744864,0.07718795261864815,0.01159305963665247,0.01159305963665247,-5.660402871518911e-14,-0.871383547782898,-0.9211976528167725,-2.869095392525196,0.5151740312576294,0.49686214327812195,-1.0608186215162276,-0.0009587379754520953,-0.0007669904152862728,0.006221249589598174,1.4337127208709717,1.4338725805282593,0.004290633201599629,-0.02473543956875801,-0.02473543956875801,-1.6141850124617736e-14
0.9200000000000007,0.3772382875426889,0.37486525393392506,-0.076133969942996,-0.09726364241220681,0.07162074935744864,0.07718795261864815,0.01159305963665247,0.01159305963665247,-5.660402871518911e-14,-0.871383547782898,-0.9211976528167725,-2.8703407451510428,0.5151740312576294,0.49686214327812195,-1.0612764187157153,-0.0009587379754520953,-0.0007669904152862728,0.006224125803000661,1.4337127208709717,1.4338725805282593,0.004292231798172504,-0.02473543956875801,-0.02473543956875801,-1.6141850124617736e-14
0.9250000000000007,0.3772382875426889,0.37486525393392506,-0.076133969942996,-0.09726364241220681,0.07162074935744864,0.07718795261864815,0.01159305963665247,0.01159305963665247,-5.660402871518911e-14,-0.871383547782898,-0.9211976528167725,-2.87158609777689,0.5151740312576294,0.49686214327812195,-1.061734215915203,-0.0009587379754520953,-0.0007669904152862728,0.0062270020164031485,1.4337127208709717,1.4338725805282593,0.004293830394745381,-0.02473543956875801,-0.02473543956875801,-1.6141850124617736e-14
0.9300000000000007,0.3772382875426889,0.37486525393392506,-0.076133969942996,-0.09726364241220681,0.07162074935744864,0.07718795261864815,0.01159305963665247,0.01159305963665247,-5.660402871518911e-14,-0.871383547782898,-0.9211976528167725,-2.8728314504027366,0.5151740312576294,0.49686214327812195,-1.0621920131146907,-0.0009587379754520953,-0.0007669904152862728,0.006229878229805636,1.4337127208709717,1.4338725805282593,0.004295428991318256,-0.02473543956875801,-0.02473543956875801,-1.6141850124617736e-14
0.9350000000000007,0.3772382875426889,0.37486525393392506,-0.076133969942996,-0.09726364241220681,0.07162074935744864,0.07718795261864815,0.01159305963665247,0.01159305963665247,-5.660402871518911e-14,-0.871383547782898,-0.9211976528167725,-2.8740768030285837,0.5151740312576294,0.49686214327812195,-1.0626498103141784,-0.0009587379754520953,-0.0007669904152862728,0.006232754443208123,1.4337127208709717,1.4338725805282593,0.004297027587891133,-0.02473543956875801,-0.02473543956875801,-1.6141850124617736e-14
0.9400000000000007,0.3772382875426889,0.37486525393392506,-0.076133969942996,-0.09726364241220681,0.07162074935744864,0.07718795261864815,0.01159305963665247,0.01159305963665247,-5.660402871518911e-14,-0.871383547782898,-0.9211976528167725,-2.8753221556544304,0.5151740312576294,0.49686214327812195,-1.063107607513666,-0.0009587379754520953,-0.0007669904152862728,0.00623563065661061,1.4337127208709717,1.4338725805282593,0.004298626184464008,-0.02473543956875801,-0.02473543956875801,-1.6141850124617736e-14
0.9450000000000007,0.3772382875426889,0.37486525393392506,-0.076133969942996,-0.09726364241220681,0.07162074935744864,0.07718795261864815,0.01159305963665247,0.01159305963665247,-5.660402871518911e-14,-0.871383547782898,-0.9211976528167725,-2.876567508280277,0.5151740312576294,0.49686214327812195,-1.0635654047131538,-0.0009587379754520953,-0.0007669904152862728,0.006238506870013098,1.4337127208709717,1.4338725805282593,0.0043002247810368845,-0.02473543956875801,-0.02473543956875801,-1.6141850124617736e-14
0.9500000000000007,0.3772382875426889,0.37486525393392506,-0.076133969942996,-0.09726364241220681,0.07162074935744864,0.07718795261864815,0.01159305963665247,0.01159305963665247,-5.660402871518911e-14,-0.871383547782898,-0.9211976528167725,-2.877812860906124,0.5151740312576294,0.49686214327812195,-1.0640232019126414,-0.0009587379754520953,-0.0007669904152862728,0.006241383083415585,1.4337127208709717,1.4338725805282593,0.00430182337760976,-0.02473543956875801,-0.02473543956875801,-1.6141850124617736e-14
0.9550000000000007,0.3772382875426889,0.37486525393392506,-0.076133969942996,-0.09726364241220681,0.07162074935744864,0.07718795261864815,0.01159305963665247,0.01159305963665247,-5.660402871518911e-14,-0.871383547782898,-0.9211976528167725,-2.879058213531971,0.5151740312576294,0.49686214327812195,-1.0644809991121291,-0.0009587379754520953,-0.0007669904152862728,0.006244259296818072,1.4337127208709717,1.4338725805282593,0.0043034219741826365,-0.02473543956875801,-0.02473543956875801,-1.6141850124617736e-14
0.9600000000000007,0.3772382875426889,0.37486525393392506,-0.076133969942996,-0.09726364241220681,0.07162074935744864,0.07718795261864815,0.01159305963665247,0.01159305963665247,-5.660402871518911e-14,-0.871383547782898,-0.9211976528167725,-2.880303566157818,0.5151740312576294,0.49686214327812195,-1.0649387963116168,-0.0009587379754520953,-0.0007669904152862728,0.00624713551022056,1.4337127208709717,1.4338725805282593,0.004305020570755512,-0.02473543956875801,-0.02473543956875801,-1.6141850124617736e-14
0.9650000000000007,0.3772382875426889,0.37486525393392506,-0.076133969942996,-0.09726364241220681,0.07162074935744864,0.07718795261864815,0.01159305963665247,0.01159305963665247,-5.660402871518911e-14,-0.871383547782898,-0.9211976528167725,-2.8815489187836647,0.5151740312576294,0.49686214327812195,-1.0653965935111045,-0.0009587379754520953,-0.0007669904152862728,0.0062500117236230475,1.4337127208709717,1.4338725805282593,0.004306619167328388,-0.02473543956875801,-0.02473543956875801,-1.6141850124617736e-14
