armandomm09/Control-Challenge-4.1/trial_ctc_nopert.csv
time,p_x,p_des_x,p_y,p_des_y,p_z,p_des_z,q_1,q_des_1,tau_1,q_2,q_des_2,tau_2,q_3,q_des_3,tau_3,q_4,q_des_4,tau_4,q_5,q_des_5,tau_5,q_6,q_des_6,tau_6
0.0,0.3818382035192473,0.38182321876505326,-0.07838853453133265,-0.07838598069070643,0.07852817376380575,0.07850217594211735,0.004084223881363869,0.004084223881363869,1.1401559069976637e-11,-0.8711572885513306,-0.8711572885513306,-6.968878172222957,0.4937193989753723,0.4937193989753723,-2.6651831347503907,-0.0009587379754520953,-0.0007669904152862728,-1.2877197506120055,1.3646037578582764,1.3647634983062744,-1.0813732701953536,0.0028762139845639467,0.0028762139845639467,7.1020221736136236e-12
0.005,0.3818382035192473,0.38182321876505326,-0.07838853453133265,-0.07838598069070643,0.07852817376380575,0.07850217594211735,0.004084223881363869,0.004084223881363869,1.1401559069976637e-11,-0.8711572885513306,-0.8711572885513306,-6.968878172222957,0.4937193989753723,0.4937193989753723,-2.6651831347503907,-0.0009587379754520953,-0.0007669904152862728,-1.2877197506120055,1.3646037578582764,1.3647634983062744,-1.0813732701953536,0.0028762139845639467,0.0028762139845639467,7.1020221736136236e-12
0.01,0.3818382035192473,0.38182321876505326,-0.07838853453133265,-0.07838598069070643,0.07852817376380575,0.07850217594211735,0.004084223881363869,0.004084223881363869,1.1401559069976637e-11,-0.8711572885513306,-0.8711572885513306,-6.968878172222957,0.4937193989753723,0.4937193989753723,-2.6651831347503907,-0.0009587379754520953,-0.0007669904152862728,-1.2877197506120055,1.3646037578582764,1.3647634983062744,-1.0813732701953536,0.0028762139845639467,0.0028762139845639467,7.1020221736136236e-12
0.015,0.3818382035192473,0.38182321876505326,-0.07838853453133265,-0.07838598069070643,0.07852817376380575,0.07850217594211735,0.004084223881363869,0.004084223881363869,1.1401559069976637e-11,-0.8711572885513306,-0.8711572885513306,-6.968878172222957,0.4937193989753723,0.4937193989753723,-2.6651831347503907,-0.0009587379754520953,-0.0007669904152862728,-1.2877197506120055,1.3646037578582764,1.3647634983062744,-1.0813732701953536,0.0028762139845639467,0.0028762139845639467,7.1020221736136236e-12
0.02,0.3818382035192473,0.38182321876505326,-0.07838853453133265,-0.07838598069070643,0.07852817376380575,0.07850217594211735,0.004084223881363869,0.004084223881363869,1.1401559069976637e-11,-0.8711572885513306,-0.8711572885513306,-6.968878172222957,0.4937193989753723,0.4937193989753723,-2.6651831347503907,-0.0009587379754520953,-0.0007669904152862728,-1.2877197506120055,1.3646037578582764,1.3647634983062744,-1.0813732701953536,0.0028762139845639467,0.0028762139845639467,7.1020221736136236e-12
0.025,0.3818382035192473,0.38182321876505326,-0.07838853453133265,-0.07838598069070643,0.07852817376380575,0.07850217594211735,0.004084223881363869,0.004084223881363869,1.1401559069976637e-11,-0.8711572885513306,-0.8711572885513306,-6.968878172222957,0.4937193989753723,0.4937193989753723,-2.6651831347503907,-0.0009587379754520953,-0.0007669904152862728,-1.2877197506120055,1.3646037578582764,1.3647634983062744,-1.0813732701953536,0.0028762139845639467,0.0028762139845639467,7.1020221736136236e-12
0.030000000000000002,0.3818382035192473,0.38182321876505326,-0.07838853453133265,-0.07838598069070643,0.07852817376380575,0.07850217594211735,0.004084223881363869,0.004084223881363869,1.1401559069976637e-11,-0.8711572885513306,-0.8711572885513306,-6.968878172222957,0.4937193989753723,0.4937193989753723,-2.6651831347503907,-0.0009587379754520953,-0.0007669904152862728,-1.2877197506120055,1.3646037578582764,1.3647634983062744,-1.0813732701953536,0.0028762139845639467,0.0028762139845639467,7.1020221736136236e-12
0.035,0.3818382035192473,0.38182321876505326,-0.07838853453133265,-0.07838598069070643,0.07852817376380575,0.07850217594211735,0.004084223881363869,0.004084223881363869,1.1401559069976637e-11,-0.8711572885513306,-0.8711572885513306,-6.968878172222957,0.4937193989753723,0.4937193989753723,-2.6651831347503907,-0.0009587379754520953,-0.0007669904152862728,-1.2877197506120055,1.3646037578582764,1.3647634983062744,-1.0813732701953536,0.0028762139845639467,0.0028762139845639467,7.1020221736136236e-12
0.04,0.3818382035192473,0.38182321876505326,-0.07838853453133265,-0.07838598069070643,0.07852817376380575,0.07850217594211735,0.004084223881363869,0.004084223881363869,1.1401559069976637e-11,-0.8711572885513306,-0.8711572885513306,-6.968878172222957,0.4937193989753723,0.4937193989753723,-2.6651831347503907,-0.0009587379754520953,-0.0007669904152862728,-1.2877197506120055,1.3646037578582764,1.3647634983062744,-1.0813732701953536,0.0028762139845639467,0.0028762139845639467,7.1020221736136236e-12
0.045,0.3818382035192473,0.38182321876505326,-0.07838853453133265,-0.07838598069070643,0.07852817376380575,0.07850217594211735,0.004084223881363869,0.004084223881363869,1.1401559069976637e-11,-0.8711572885513306,-0.8711572885513306,-6.968878172222957,0.4937193989753723,0.4937193989753723,-2.6651831347503907,-0.0009587379754520953,-0.0007669904152862728,-1.2877197506120055,1.3646037578582764,1.3647634983062744,-1.0813732701953536,0.0028762139845639467,0.0028762139845639467,7.1020221736136236e-12
0.049999999999999996,0.3818382035192473,0.38182321876505326,-0.07838853453133265,-0.07838598069070643,0.07852817376380575,0.07850217594211735,0.004084223881363869,0.004084223881363869,1.1401559069976637e-11,-0.8711572885513306,-0.8711572885513306,-6.968878172222957,0.4937193989753723,0.4937193989753723,-2.6651831347503907,-0.0009587379754520953,-0.0007669904152862728,-1.2877197506120055,1.3646037578582764,1.3647634983062744,-1.0813732701953536,0.0028762139845639467,0.0028762139845639467,7.1020221736136236e-12
0.05499999999999999,0.3818382035192473,0.38182321876505326,-0.07838853453133265,-0.07838598069070643,0.07852817376380575,0.07850217594211735,0.004084223881363869,0.004084223881363869,1.1401559069976637e-11,-0.8711572885513306,-0.8711572885513306,-6.968878172222957,0.4937193989753723,0.4937193989753723,-2.6651831347503907,-0.0009587379754520953,-0.0007669904152862728,-1.2877197506120055,1.3646037578582764,1.3647634983062744,-1.0813732701953536,0.0028762139845639467,0.0028762139845639467,7.1020221736136236e-12
0.05999999999999999,0.3818382035192473,0.38182321876505326,-0.07838853453133265,-0.07838598069070643,0.07852817376380575,0.07850217594211735,0.004084223881363869,0.004084223881363869,1.1401559069976637e-11,-0.8711572885513306,-0.8711572885513306,-6.968878172222957,0.4937193989753723,0.4937193989753723,-2.6651831347503907,-0.0009587379754520953,-0.0007669904152862728,-1.2877197506120055,1.3646037578582764,1.3647634983062744,-1.0813732701953536,0.0028762139845639467,0.0028762139845639467,7.1020221736136236e-12
0.06499999999999999,0.3818382035192473,0.38182321876505326,-0.07838853453133265,-0.07838598069070643,0.07852817376380575,0.07850217594211735,0.004084223881363869,0.004084223881363869,1.1401559069976637e-11,-0.8711572885513306,-0.8711572885513306,-6.968878172222957,0.4937193989753723,0.4937193989753723,-2.6651831347503907,-0.0009587379754520953,-0.0007669904152862728,-1.2877197506120055,1.3646037578582764,1.3647634983062744,-1.0813732701953536,0.0028762139845639467,0.0028762139845639467,7.1020221736136236e-12
0.06999999999999999,0.3818382035192473,0.38182321876505326,-0.07838853453133265,-0.07838598069070643,0.07852817376380575,0.07850217594211735,0.004084223881363869,0.004084223881363869,1.1401559069976637e-11,-0.8711572885513306,-0.8711572885513306,-6.968878172222957,0.4937193989753723,0.4937193989753723,-2.6651831347503907,-0.0009587379754520953,-0.0007669904152862728,-1.2877197506120055,1.3646037578582764,1.3647634983062744,-1.0813732701953536,0.0028762139845639467,0.0028762139845639467,7.1020221736136236e-12
0.075,0.3818382035192473,0.38182321876505326,-0.07838853453133265,-0.07838598069070643,0.07852817376380575,0.07850217594211735,0.004084223881363869,0.004084223881363869,1.1401559069976637e-11,-0.8711572885513306,-0.8711572885513306,-6.968878172222957,0.4937193989753723,0.4937193989753723,-2.6651831347503907,-0.0009587379754520953,-0.0007669904152862728,-1.2877197506120055,1.3646037578582764,1.3647634983062744,-1.0813732701953536,0.0028762139845639467,0.0028762139845639467,7.1020221736136236e-12
0.08,0.3818382035192473,0.38182321876505326,-0.07838853453133265,-0.07838598069070643,0.07852817376380575,0.07850217594211735,0.004084223881363869,0.004084223881363869,1.1401559069976637e-11,-0.8711572885513306,-0.8711572885513306,-6.968878172222957,0.4937193989753723,0.4937193989753723,-2.6651831347503907,-0.0009587379754520953,-0.0007669904152862728,-1.2877197506120055,1.3646037578582764,1.3647634983062744,-1.0813732701953536,0.0028762139845639467,0.0028762139845639467,7.1020221736136236e-12
0.085,0.3818382035192473,0.38182321876505326,-0.07838853453133265,-0.07838598069070643,0.07852817376380575,0.07850217594211735,0.004084223881363869,0.004084223881363869,1.1401559069976637e-11,-0.8711572885513306,-0.8711572885513306,-6.968878172222957,0.4937193989753723,0.4937193989753723,-2.6651831347503907,-0.0009587379754520953,-0.0007669904152862728,-1.2877197506120055,1.3646037578582764,1.3647634983062744,-1.0813732701953536,0.0028762139845639467,0.0028762139845639467,7.1020221736136236e-12
0.09000000000000001,0.3818382035192473,0.38182321876505326,-0.07838853453133265,-0.07838598069070643,0.07852817376380575,0.07850217594211735,0.004084223881363869,0.004084223881363869,1.1401559069976637e-11,-0.8711572885513306,-0.8711572885513306,-6.968878172222957,0.4937193989753723,0.4937193989753723,-2.6651831347503907,-0.0009587379754520953,-0.0007669904152862728,-1.2877197506120055,1.3646037578582764,1.3647634983062744,-1.0813732701953536,0.0028762139845639467,0.0028762139845639467,7.1020221736136236e-12
0.09500000000000001,0.3818382035192473,0.38182321876505326,-0.07838853453133265,-0.07838598069070643,0.07852817376380575,0.07850217594211735,0.004084223881363869,0.004084223881363869,1.1401559069976637e-11,-0.8711572885513306,-0.8711572885513306,-6.968878172222957,0.4937193989753723,0.4937193989753723,-2.6651831347503907,-0.0009587379754520953,-0.0007669904152862728,-1.2877197506120055,1.3646037578582764,1.3647634983062744,-1.0813732701953536,0.0028762139845639467,0.0028762139845639467,7.1020221736136236e-12
0.10000000000000002,0.3818382035192473,0.38182321876505326,-0.07838853453133265,-0.07838598069070643,0.07852817376380575,0.07850217594211735,0.004084223881363869,0.004084223881363869,1.1401559069976637e-11,-0.8711572885513306,-0.8711572885513306,-6.968878172222957,0.4937193989753723,0.4937193989753723,-2.6651831347503907,-0.0009587379754520953,-0.0007669904152862728,-1.2877197506120055,1.3646037578582764,1.3647634983062744,-1.0813732701953536,0.0028762139845639467,0.0028762139845639467,7.1020221736136236e-12
0.10500000000000002,0.3818382035192473,0.38182321876505326,-0.07838853453133265,-0.07838598069070643,0.07852817376380575,0.07850217594211735,0.004084223881363869,0.004084223881363869,1.1401559069976637e-11,-0.8711572885513306,-0.8711572885513306,-6.968878172222957,0.4937193989753723,0.4937193989753723,-2.6651831347503907,-0.0009587379754520953,-0.0007669904152862728,-1.2877197506120055,1.3646037578582764,1.3647634983062744,-1.0813732701953536,0.0028762139845639467,0.0028762139845639467,7.1020221736136236e-12
0.11000000000000003,0.3818382035192473,0.38182321876505326,-0.07838853453133265,-0.07838598069070643,0.07852817376380575,0.07850217594211735,0.004084223881363869,0.004084223881363869,1.1401559069976637e-11,-0.8711572885513306,-0.8711572885513306,-6.968878172222957,0.4937193989753723,0.4937193989753723,-2.6651831347503907,-0.0009587379754520953,-0.0007669904152862728,-1.2877197506120055,1.3646037578582764,1.3647634983062744,-1.0813732701953536,0.0028762139845639467,0.0028762139845639467,7.1020221736136236e-12
0.11500000000000003,0.3818382035192473,0.38182321876505326,-0.07838853453133265,-0.07838598069070643,0.07852817376380575,0.07850217594211735,0.004084223881363869,0.004084223881363869,1.1401559069976637e-11,-0.8711572885513306,-0.8711572885513306,-6.968878172222957,0.4937193989753723,0.4937193989753723,-2.6651831347503907,-0.0009587379754520953,-0.0007669904152862728,-1.2877197506120055,1.3646037578582764,1.3647634983062744,-1.0813732701953536,0.0028762139845639467,0.0028762139845639467,7.1020221736136236e-12
0.12000000000000004,0.3818382035192473,0.38182321876505326,-0.07838853453133265,-0.07838598069070643,0.07852817376380575,0.07850217594211735,0.004084223881363869,0.004084223881363869,1.1401559069976637e-11,-0.8711572885513306,-0.8711572885513306,-6.968878172222957,0.4937193989753723,0.4937193989753723,-2.6651831347503907,-0.0009587379754520953,-0.0007669904152862728,-1.2877197506120055,1.3646037578582764,1.3647634983062744,-1.0813732701953536,0.0028762139845639467,0.0028762139845639467,7.1020221736136236e-12
0.12500000000000003,0.3818382035192473,0.38182321876505326,-0.07838853453133265,-0.07838598069070643,0.07852817376380575,0.07850217594211735,0.004084223881363869,0.004084223881363869,1.1401559069976637e-11,-0.8711572885513306,-0.8711572885513306,-6.968878172222957,0.4937193989753723,0.4937193989753723,-2.6651831347503907,-0.0009587379754520953,-0.0007669904152862728,-1.2877197506120055,1.3646037578582764,1.3647634983062744,-1.0813732701953536,0.0028762139845639467,0.0028762139845639467,7.1020221736136236e-12
0.13000000000000003,0.3818382035192473,0.38182321876505326,-0.07838853453133265,-0.07838598069070643,0.07852817376380575,0.07850217594211735,0.004084223881363869,0.004084223881363869,1.1401559069976637e-11,-0.8711572885513306,-0.8711572885513306,-6.968878172222957,0.4937193989753723,0.4937193989753723,-2.6651831347503907,-0.0009587379754520953,-0.0007669904152862728,-1.2877197506120055,1.3646037578582764,1.3647634983062744,-1.0813732701953536,0.0028762139845639467,0.0028762139845639467,7.1020221736136236e-12
0.13500000000000004,0.3818382035192473,0.38182321876505326,-0.07838853453133265,-0.07838598069070643,0.07852817376380575,0.07850217594211735,0.004084223881363869,0.004084223881363869,1.1401559069976637e-11,-0.8711572885513306,-0.8711572885513306,-6.968878172222957,0.4937193989753723,0.4937193989753723,-2.6651831347503907,-0.0009587379754520953,-0.0007669904152862728,-1.2877197506120055,1.3646037578582764,1.3647634983062744,-1.0813732701953536,0.0028762139845639467,0.0028762139845639467,7.1020221736136236e-12
0.14000000000000004,0.3818382035192473,0.38182321876505326,-0.07838853453133265,-0.07838598069070643,0.07852817376380575,0.07850217594211735,0.004084223881363869,0.004084223881363869,1.1401559069976637e-11,-0.8711572885513306,-0.8711572885513306,-6.968878172222957,0.4937193989753723,0.4937193989753723,-2.6651831347503907,-0.0009587379754520953,-0.0007669904152862728,-1.2877197506120055,1.3646037578582764,1.3647634983062744,-1.0813732701953536,0.0028762139845639467,0.0028762139845639467,7.1020221736136236e-12
0.14500000000000005,0.38182950496953977,0.38182321876505326,-0.07837828494398522,-0.07838598069070643,0.07850314286429369,0.07850217594211735,0.004084223881363869,0.004084223881363869,1.1401559069976637e-11,-0.8711572885513306,-0.8711572885513306,-6.968878172222957,0.4937193989753723,0.4937193989753723,-2.6651831347503907,-0.0007669904152862728,-0.0007669904152862728,5.11868952357758,1.3646037578582764,1.3647634983062744,-1.0813732701953536,0.0028762139845639467,0.0028762139845639467,7.1020221736136236e-12
0.15000000000000005,0.38182950496953977,0.38182321876505326,-0.07837828494398522,-0.07838598069070643,0.07850314286429369,0.07850217594211735,0.004084223881363869,0.004084223881363869,1.1401559069976637e-11,-0.8711572885513306,-0.8711572885513306,-6.968878172222957,0.4937193989753723,0.4937193989753723,-2.6651831347503907,-0.0007669904152862728,-0.0007669904152862728,5.11868952357758,1.3646037578582764,1.3647634983062744,-1.0813732701953536,0.0028762139845639467,0.0028762139845639467,7.1020221736136236e-12
0.15500000000000005,0.38182950496953977,0.38182321876505326,-0.07837828494398522,-0.07838598069070643,0.07850314286429369,0.07850217594211735,0.004084223881363869,0.004084223881363869,1.1401559069976637e-11,-0.8711572885513306,-0.8711572885513306,-6.968878172222957,0.4937193989753723,0.4937193989753723,-2.6651831347503907,-0.0007669904152862728,-0.0007669904152862728,5.11868952357758,1.3646037578582764,1.3647634983062744,-1.0813732701953536,0.0028762139845639467,0.0028762139845639467,7.1020221736136236e-12
0.16000000000000006,0.38182950496953977,0.38182321876505326,-0.07837828494398522,-0.07838598069070643,0.07850314286429369,0.07850217594211735,0.004084223881363869,0.004084223881363869,1.1401559069976637e-11,-0.8711572885513306,-0.8711572885513306,-6.968878172222957,0.4937193989753723,0.4937193989753723,-2.6651831347503907,-0.0007669904152862728,-0.0007669904152862728,5.11868952357758,1.3646037578582764,1.3647634983062744,-1.0813732701953536,0.0028762139845639467,0.0028762139845639467,7.1020221736136236e-12
0.16500000000000006,0.38182950496953977,0.38182321876505326,-0.07837828494398522,-0.07838598069070643,0.07850314286429369,0.07850217594211735,0.004084223881363869,0.004084223881363869,1.1401559069976637e-11,-0.8711572885513306,-0.8711572885513306,-6.968878172222957,0.4937193989753723,0.4937193989753723,-2.6651831347503907,-0.0007669904152862728,-0.0007669904152862728,5.11868952357758,1.3646037578582764,1.3647634983062744,-1.0813732701953536,0.0028762139845639467,0.0028762139845639467,7.1020221736136236e-12
0.17000000000000007,0.38182950496953977,0.38182321876505326,-0.07837828494398522,-0.07838598069070643,0.07850314286429369,0.07850217594211735,0.004084223881363869,0.004084223881363869,1.1401559069976637e-11,-0.8711572885513306,-0.8711572885513306,-6.968878172222957,0.4937193989753723,0.4937193989753723,-2.6651831347503907,-0.0007669904152862728,-0.0007669904152862728,5.11868952357758,1.3646037578582764,1.3647634983062744,-1.0813732701953536,0.0028762139845639467,0.0028762139845639467,7.1020221736136236e-12
0.17500000000000007,0.38182950496953977,0.38182321876505326,-0.07837828494398522,-0.07838598069070643,0.07850314286429369,0.07850217594211735,0.004084223881363869,0.004084223881363869,1.1401559069976637e-11,-0.8711572885513306,-0.8711572885513306,-6.968878172222957,0.4937193989753723,0.4937193989753723,-2.6651831347503907,-0.0007669904152862728,-0.0007669904152862728,5.11868952357758,1.3646037578582764,1.3647634983062744,-1.0813732701953536,0.0028762139845639467,0.0028762139845639467,7.1020221736136236e-12
0.18000000000000008,0.38182950496953977,0.38182321876505326,-0.07837828494398522,-0.07838598069070643,0.07850314286429369,0.07850217594211735,0.004084223881363869,0.004084223881363869,1.1401559069976637e-11,-0.8711572885513306,-0.8711572885513306,-6.968878172222957,0.4937193989753723,0.4937193989753723,-2.6651831347503907,-0.0007669904152862728,-0.0007669904152862728,5.11868952357758,1.3646037578582764,1.3647634983062744,-1.0813732701953536,0.0028762139845639467,0.0028762139845639467,7.1020221736136236e-12
0.18500000000000008,0.38182950496953977,0.38182321876505326,-0.07837828494398522,-0.07838598069070643,0.07850314286429369,0.07850217594211735,0.004084223881363869,0.004084223881363869,1.1401559069976637e-11,-0.8711572885513306,-0.8711572885513306,-6.968878172222957,0.4937193989753723,0.4937193989753723,-2.6651831347503907,-0.0007669904152862728,-0.0007669904152862728,5.11868952357758,1.3646037578582764,1.3647634983062744,-1.0813732701953536,0.0028762139845639467,0.0028762139845639467,7.1020221736136236e-12
0.19000000000000009,0.38182950496953977,0.38182321876505326,-0.07837828494398522,-0.07838598069070643,0.07850314286429369,0.07850217594211735,0.004084223881363869,0.004084223881363869,1.1401559069976637e-11,-0.8711572885513306,-0.8711572885513306,-6.968878172222957,0.4937193989753723,0.4937193989753723,-2.6651831347503907,-0.0007669904152862728,-0.0007669904152862728,5.11868952357758,1.3646037578582764,1.3647634983062744,-1.0813732701953536,0.0028762139845639467,0.0028762139845639467,7.1020221736136236e-12
0.1950000000000001,0.38182950496953977,0.38182321876505326,-0.07837828494398522,-0.07838598069070643,0.07850314286429369,0.07850217594211735,0.004084223881363869,0.004084223881363869,1.1401559069976637e-11,-0.8711572885513306,-0.8711572885513306,-6.968878172222957,0.4937193989753723,0.4937193989753723,-2.6651831347503907,-0.0007669904152862728,-0.0007669904152862728,5.11868952357758,1.3646037578582764,1.3647634983062744,-1.0813732701953536,0.0028762139845639467,0.0028762139845639467,7.1020221736136236e-12
0.2000000000000001,0.38182950496953977,0.38182321876505326,-0.07837828494398522,-0.07838598069070643,0.07850314286429369,0.07850217594211735,0.004084223881363869,0.004084223881363869,1.1401559069976637e-11,-0.8711572885513306,-0.8711572885513306,-6.968878172222957,0.4937193989753723,0.4937193989753723,-2.6651831347503907,-0.0007669904152862728,-0.0007669904152862728,5.11868952357758,1.3646037578582764,1.3647634983062744,-1.0813732701953536,0.0028762139845639467,0.0028762139845639467,7.1020221736136236e-12
0.2050000000000001,0.38182950496953977,0.38182321876505326,-0.07837828494398522,-0.07838598069070643,0.07850314286429369,0.07850217594211735,0.004084223881363869,0.004084223881363869,1.1401559069976637e-11,-0.8711572885513306,-0.8711572885513306,-6.968878172222957,0.4937193989753723,0.4937193989753723,-2.6651831347503907,-0.0007669904152862728,-0.0007669904152862728,5.11868952357758,1.3646037578582764,1.3647634983062744,-1.0813732701953536,0.0028762139845639467,0.0028762139845639467,7.1020221736136236e-12
0.2100000000000001,0.38182950496953977,0.38182321876505326,-0.07837828494398522,-0.07838598069070643,0.07850314286429369,0.07850217594211735,0.004084223881363869,0.004084223881363869,1.1401559069976637e-11,-0.8711572885513306,-0.8711572885513306,-6.968878172222957,0.4937193989753723,0.4937193989753723,-2.6651831347503907,-0.0007669904152862728,-0.0007669904152862728,5.11868952357758,1.3646037578582764,1.3647634983062744,-1.0813732701953536,0.0028762139845639467,0.0028762139845639467,7.1020221736136236e-12
0.2150000000000001,0.38182950496953977,0.38182321876505326,-0.07837828494398522,-0.07838598069070643,0.07850314286429369,0.07850217594211735,0.004084223881363869,0.004084223881363869,1.1401559069976637e-11,-0.8711572885513306,-0.8711572885513306,-6.968878172222957,0.4937193989753723,0.4937193989753723,-2.6651831347503907,-0.0007669904152862728,-0.0007669904152862728,5.11868952357758,1.3646037578582764,1.3647634983062744,-1.0813732701953536,0.0028762139845639467,0.0028762139845639467,7.1020221736136236e-12
0.2200000000000001,0.38182950496953977,0.38182321876505326,-0.07837828494398522,-0.07838598069070643,0.07850314286429369,0.07850217594211735,0.004084223881363869,0.004084223881363869,1.1401559069976637e-11,-0.8711572885513306,-0.8711572885513306,-6.968878172222957,0.4937193989753723,0.4937193989753723,-2.6651831347503907,-0.0007669904152862728,-0.0007669904152862728,5.11868952357758,1.3646037578582764,1.3647634983062744,-1.0813732701953536,0.0028762139845639467,0.0028762139845639467,7.1020221736136236e-12
0.22500000000000012,0.38182950496953977,0.38182321876505326,-0.07837828494398522,-0.07838598069070643,0.07850314286429369,0.07850217594211735,0.004084223881363869,0.004084223881363869,1.1401559069976637e-11,-0.8711572885513306,-0.8711572885513306,-6.968878172222957,0.4937193989753723,0.4937193989753723,-2.6651831347503907,-0.0007669904152862728,-0.0007669904152862728,5.11868952357758,1.3646037578582764,1.3647634983062744,-1.0813732701953536,0.0028762139845639467,0.0028762139845639467,7.1020221736136236e-12
0.23000000000000012,0.38182950496953977,0.38182321876505326,-0.07837828494398522,-0.07838598069070643,0.07850314286429369,0.07850217594211735,0.004084223881363869,0.004084223881363869,1.1401559069976637e-11,-0.8711572885513306,-0.8711572885513306,-6.968878172222957,0.4937193989753723,0.4937193989753723,-2.6651831347503907,-0.0007669904152862728,-0.0007669904152862728,5.11868952357758,1.3646037578582764,1.3647634983062744,-1.0813732701953536,0.0028762139845639467,0.0028762139845639467,7.1020221736136236e-12
0.23500000000000013,0.38182950496953977,0.38182321876505326,-0.07837828494398522,-0.07838598069070643,0.07850314286429369,0.07850217594211735,0.004084223881363869,0.004084223881363869,1.1401559069976637e-11,-0.8711572885513306,-0.8711572885513306,-6.968878172222957,0.4937193989753723,0.4937193989753723,-2.6651831347503907,-0.0007669904152862728,-0.0007669904152862728,5.11868952357758,1.3646037578582764,1.3647634983062744,-1.0813732701953536,0.0028762139845639467,0.0028762139845639467,7.1020221736136236e-12
0.24000000000000013,0.38182950496953977,0.38182321876505326,-0.07837828494398522,-0.07838598069070643,0.07850314286429369,0.07850217594211735,0.004084223881363869,0.004084223881363869,1.1401559069976637e-11,-0.8711572885513306,-0.8711572885513306,-6.968878172222957,0.4937193989753723,0.4937193989753723,-2.6651831347503907,-0.0007669904152862728,-0.0007669904152862728,5.11868952357758,1.3646037578582764,1.3647634983062744,-1.0813732701953536,0.0028762139845639467,0.0028762139845639467,7.1020221736136236e-12
0.24500000000000013,0.38182950496953977,0.38182321876505326,-0.07837828494398522,-0.07838598069070643,0.07850314286429369,0.07850217594211735,0.004084223881363869,0.004084223881363869,1.1401559069976637e-11,-0.8711572885513306,-0.8711572885513306,-6.968878172222957,0.4937193989753723,0.4937193989753723,-2.6651831347503907,-0.0007669904152862728,-0.0007669904152862728,-9.286281812112063e-12,1.3646037578582764,1.3647634983062744,-1.0813732701953536,0.0028762139845639467,0.0028762139845639467,7.1020221736136236e-12
0.2500000000000001,0.38182950496953977,0.38182321876505326,-0.07837828494398522,-0.07838598069070643,0.07850314286429369,0.07850217594211735,0.004084223881363869,0.004084223881363869,1.1401559069976637e-11,-0.8711572885513306,-0.8711572885513306,-6.968878172222957,0.4937193989753723,0.4937193989753723,-2.6651831347503907,-0.0007669904152862728,-0.0007669904152862728,-9.286281812112063e-12,1.3646037578582764,1.3647634983062744,-1.0813732701953536,0.0028762139845639467,0.0028762139845639467,7.1020221736136236e-12
0.2550000000000001,0.38182950496953977,0.38182321876505326,-0.07837828494398522,-0.07838598069070643,0.07850314286429369,0.07850217594211735,0.004084223881363869,0.004084223881363869,1.1401559069976637e-11,-0.8711572885513306,-0.8711572885513306,-6.968878172222957,0.4937193989753723,0.4937193989753723,-2.6651831347503907,-0.0007669904152862728,-0.0007669904152862728,-9.286281812112063e-12,1.3646037578582764,1.3647634983062744,-1.0813732701953536,0.0028762139845639467,0.0028762139845639467,7.1020221736136236e-12
0.2600000000000001,0.38182950496953977,0.38182321876505326,-0.07837828494398522,-0.07838598069070643,0.07850314286429369,0.07850217594211735,0.004084223881363869,0.004084223881363869,1.1401559069976637e-11,-0.8711572885513306,-0.8711572885513306,-6.968878172222957,0.4937193989753723,0.4937193989753723,-2.6651831347503907,-0.0007669904152862728,-0.0007669904152862728,-9.286281812112063e-12,1.3646037578582764,1.3647634983062744,-1.0813732701953536,0.0028762139845639467,0.0028762139845639467,7.1020221736136236e-12
0.2650000000000001,0.38182950496953977,0.38182321876505326,-0.07837828494398522,-0.07838598069070643,0.07850314286429369,0.07850217594211735,0.004084223881363869,0.004084223881363869,1.1401559069976637e-11,-0.8711572885513306,-0.8711572885513306,-6.968878172222957,0.4937193989753723,0.4937193989753723,-2.6651831347503907,-0.0007669904152862728,-0.0007669904152862728,-9.286281812112063e-12,1.3646037578582764,1.3647634983062744,-1.0813732701953536,0.0028762139845639467,0.0028762139845639467,7.1020221736136236e-12
0.27000000000000013,0.38182950496953977,0.38182321876505326,-0.07837828494398522,-0.07838598069070643,0.07850314286429369,0.07850217594211735,0.004084223881363869,0.004084223881363869,1.1401559069976637e-11,-0.8711572885513306,-0.8711572885513306,-6.968878172222957,0.4937193989753723,0.4937193989753723,-2.6651831347503907,-0.0007669904152862728,-0.0007669904152862728,-9.286281812112063e-12,1.3646037578582764,1.3647634983062744,-1.0813732701953536,0.0028762139845639467,0.0028762139845639467,7.1020221736136236e-12
0.27500000000000013,0.38182950496953977,0.38182321876505326,-0.07837828494398522,-0.07838598069070643,0.07850314286429369,0.07850217594211735,0.004084223881363869,0.004084223881363869,1.1401559069976637e-11,-0.8711572885513306,-0.8711572885513306,-6.968878172222957,0.4937193989753723,0.4937193989753723,-2.6651831347503907,-0.0007669904152862728,-0.0007669904152862728,-9.286281812112063e-12,1.3646037578582764,1.3647634983062744,-1.0813732701953536,0.0028762139845639467,0.0028762139845639467,7.1020221736136236e-12
0.28000000000000014,0.38182950496953977,0.38182321876505326,-0.07837828494398522,-0.07838598069070643,0.07850314286429369,0.07850217594211735,0.004084223881363869,0.004084223881363869,1.1401559069976637e-11,-0.8711572885513306,-0.8711572885513306,-6.968878172222957,0.4937193989753723,0.4937193989753723,-2.6651831347503907,-0.0007669904152862728,-0.0007669904152862728,-9.286281812112063e-12,1.3646037578582764,1.3647634983062744,-1.0813732701953536,0.0028762139845639467,0.0028762139845639467,7.1020221736136236e-12
0.28500000000000014,0.38182950496953977,0.38182321876505326,-0.07837828494398522,-0.07838598069070643,0.07850314286429369,0.07850217594211735,0.004084223881363869,0.004084223881363869,1.1401559069976637e-11,-0.8711572885513306,-0.8711572885513306,-6.968878172222957,0.4937193989753723,0.4937193989753723,-2.6651831347503907,-0.0007669904152862728,-0.0007669904152862728,-9.286281812112063e-12,1.3646037578582764,1.3647634983062744,-1.0813732701953536,0.0028762139845639467,0.0028762139845639467,7.1020221736136236e-12
0.29000000000000015,0.38182950496953977,0.38182321876505326,-0.07837828494398522,-0.07838598069070643,0.07850314286429369,0.07850217594211735,0.004084223881363869,0.004084223881363869,1.1401559069976637e-11,-0.8711572885513306,-0.8711572885513306,-6.968878172222957,0.4937193989753723,0.4937193989753723,-2.6651831347503907,-0.0007669904152862728,-0.0007669904152862728,-9.286281812112063e-12,1.3646037578582764,1.3647634983062744,-1.0813732701953536,0.0028762139845639467,0.0028762139845639467,7.1020221736136236e-12
0.29500000000000015,0.38182950496953977,0.38182321876505326,-0.07837828494398522,-0.07838598069070643,0.07850314286429369,0.07850217594211735,0.004084223881363869,0.004084223881363869,1.1401559069976637e-11,-0.8711572885513306,-0.8711572885513306,-6.968878172222957,0.4937193989753723,0.4937193989753723,-2.6651831347503907,-0.0007669904152862728,-0.0007669904152862728,-9.286281812112063e-12,1.3646037578582764,1.3647634983062744,-1.0813732701953536,0.0028762139845639467,0.0028762139845639467,7.1020221736136236e-12
0.30000000000000016,0.38182950496953977,0.38182321876505326,-0.07837828494398522,-0.07838598069070643,0.07850314286429369,0.07850217594211735,0.004084223881363869,0.004084223881363869,1.1401559069976637e-11,-0.8711572885513306,-0.8711572885513306,-6.968878172222957,0.4937193989753723,0.4937193989753723,-2.6651831347503907,-0.0007669904152862728,-0.0007669904152862728,-9.286281812112063e-12,1.3646037578582764,1.3647634983062744,-1.0813732701953536,0.0028762139845639467,0.0028762139845639467,7.1020221736136236e-12
0.30500000000000016,0.38182950496953977,0.38182321876505326,-0.07837828494398522,-0.07838598069070643,0.07850314286429369,0.07850217594211735,0.004084223881363869,0.004084223881363869,1.1401559069976637e-11,-0.8711572885513306,-0.8711572885513306,-6.968878172222957,0.4937193989753723,0.4937193989753723,-2.6651831347503907,-0.0007669904152862728,-0.0007669904152862728,-9.286281812112063e-12,1.3646037578582764,1.3647634983062744,-1.0813732701953536,0.0028762139845639467,0.0028762139845639467,7.1020221736136236e-12
0.31000000000000016,0.38182950496953977,0.38182321876505326,-0.07837828494398522,-0.07838598069070643,0.07850314286429369,0.07850217594211735,0.004084223881363869,0.004084223881363869,1.1401559069976637e-11,-0.8711572885513306,-0.8711572885513306,-6.968878172222957,0.4937193989753723,0.4937193989753723,-2.6651831347503907,-0.0007669904152862728,-0.0007669904152862728,-9.286281812112063e-12,1.3646037578582764,1.3647634983062744,-1.0813732701953536,0.0028762139845639467,0.0028762139845639467,7.1020221736136236e-12
0.31500000000000017,0.38182950496953977,0.38182321876505326,-0.07837828494398522,-0.07838598069070643,0.07850314286429369,0.07850217594211735,0.004084223881363869,0.004084223881363869,1.1401559069976637e-11,-0.8711572885513306,-0.8711572885513306,-6.968878172222957,0.4937193989753723,0.4937193989753723,-2.6651831347503907,-0.0007669904152862728,-0.0007669904152862728,-9.286281812112063e-12,1.3646037578582764,1.3647634983062744,-1.0813732701953536,0.0028762139845639467,0.0028762139845639467,7.1020221736136236e-12
0.3200000000000002,0.38182950496953977,0.38182321876505326,-0.07837828494398522,-0.07838598069070643,0.07850314286429369,0.07850217594211735,0.004084223881363869,0.004084223881363869,1.1401559069976637e-11,-0.8711572885513306,-0.8711572885513306,-6.968878172222957,0.4937193989753723,0.4937193989753723,-2.6651831347503907,-0.0007669904152862728,-0.0007669904152862728,-9.286281812112063e-12,1.3646037578582764,1.3647634983062744,-1.0813732701953536,0.0028762139845639467,0.0028762139845639467,7.1020221736136236e-12
0.3250000000000002,0.38182950496953977,0.38182321876505326,-0.07837828494398522,-0.07838598069070643,0.07850314286429369,0.07850217594211735,0.004084223881363869,0.004084223881363869,1.1401559069976637e-11,-0.8711572885513306,-0.8711572885513306,-6.968878172222957,0.4937193989753723,0.4937193989753723,-2.6651831347503907,-0.0007669904152862728,-0.0007669904152862728,-9.286281812112063e-12,1.3646037578582764,1.3647634983062744,-1.0813732701953536,0.0028762139845639467,0.0028762139845639467,7.1020221736136236e-12
0.3300000000000002,0.38182950496953977,0.38182321876505326,-0.07837828494398522,-0.07838598069070643,0.07850314286429369,0.07850217594211735,0.004084223881363869,0.004084223881363869,1.1401559069976637e-11,-0.8711572885513306,-0.8711572885513306,-6.968878172222957,0.4937193989753723,0.4937193989753723,-2.6651831347503907,-0.0007669904152862728,-0.0007669904152862728,-9.286281812112063e-12,1.3646037578582764,1.3647634983062744,-1.0813732701953536,0.0028762139845639467,0.0028762139845639467,7.1020221736136236e-12
0.3350000000000002,0.38182950496953977,0.38182321876505326,-0.07837828494398522,-0.07838598069070643,0.07850314286429369,0.07850217594211735,0.004084223881363869,0.004084223881363869,1.1401559069976637e-11,-0.8711572885513306,-0.8711572885513306,-6.968878172222957,0.4937193989753723,0.4937193989753723,-2.6651831347503907,-0.0007669904152862728,-0.0007669904152862728,-9.286281812112063e-12,1.3646037578582764,1.3647634983062744,-1.0813732701953536,0.0028762139845639467,0.0028762139845639467,7.1020221736136236e-12
0.3400000000000002,0.38182950496953977,0.38182321876505326,-0.07837828494398522,-0.07838598069070643,0.07850314286429369,0.07850217594211735,0.004084223881363869,0.004084223881363869,1.1401559069976637e-11,-0.8711572885513306,-0.8711572885513306,-6.968878172222957,0.4937193989753723,0.4937193989753723,-2.6651831347503907,-0.0007669904152862728,-0.0007669904152862728,-9.286281812112063e-12,1.3646037578582764,1.3647634983062744,-1.0813732701953536,0.0028762139845639467,0.0028762139845639467,7.1020221736136236e-12
0.3450000000000002,0.38182950496953977,0.38182321876505326,-0.07837828494398522,-0.07838598069070643,0.07850314286429369,0.07850217594211735,0.004084223881363869,0.004084223881363869,1.1401559069976637e-11,-0.8711572885513306,-0.8711572885513306,-6.968878172222957,0.4937193989753723,0.4937193989753723,-2.6651831347503907,-0.0007669904152862728,-0.0007669904152862728,-9.286281812112063e-12,1.3646037578582764,1.3647634983062744,-1.0813732701953536,0.0028762139845639467,0.0028762139845639467,7.1020221736136236e-12
0.3500000000000002,0.38182950496953977,0.38182321876505326,-0.07837828494398522,-0.07838598069070643,0.07850314286429369,0.07850217594211735,0.004084223881363869,0.004084223881363869,1.1401559069976637e-11,-0.8711572885513306,-0.8711572885513306,-6.968878172222957,0.4937193989753723,0.4937193989753723,-2.6651831347503907,-0.0007669904152862728,-0.0007669904152862728,-9.286281812112063e-12,1.3646037578582764,1.3647634983062744,-1.0813732701953536,0.0028762139845639467,0.0028762139845639467,7.1020221736136236e-12
0.3550000000000002,0.38182950496953977,0.38182321876505326,-0.07837828494398522,-0.07838598069070643,0.07850314286429369,0.07850217594211735,0.004084223881363869,0.004084223881363869,1.1401559069976637e-11,-0.8711572885513306,-0.8711572885513306,-6.968878172222957,0.4937193989753723,0.4937193989753723,-2.6651831347503907,-0.0007669904152862728,-0.0007669904152862728,-9.286281812112063e-12,1.3646037578582764,1.3647634983062744,-1.0813732701953536,0.0028762139845639467,0.0028762139845639467,7.1020221736136236e-12
0.3600000000000002,0.38182950496953977,0.38182321876505326,-0.07837828494398522,-0.07838598069070643,0.07850314286429369,0.07850217594211735,0.004084223881363869,0.004084223881363869,1.1401559069976637e-11,-0.8711572885513306,-0.8711572885513306,-6.968878172222957,0.4937193989753723,0.4937193989753723,-2.6651831347503907,-0.0007669904152862728,-0.0007669904152862728,-9.286281812112063e-12,1.3646037578582764,1.3647634983062744,-1.0813732701953536,0.0028762139845639467,0.0028762139845639467,7.1020221736136236e-12
0.3650000000000002,0.38182950496953977,0.38182321876505326,-0.07837828494398522,-0.07838598069070643,0.07850314286429369,0.07850217594211735,0.004084223881363869,0.004084223881363869,1.1401559069976637e-11,-0.8711572885513306,-0.8711572885513306,-6.968878172222957,0.4937193989753723,0.4937193989753723,-2.6651831347503907,-0.0007669904152862728,-0.0007669904152862728,-9.286281812112063e-12,1.3646037578582764,1.3647634983062744,-1.0813732701953536,0.0028762139845639467,0.0028762139845639467,7.1020221736136236e-12
0.3700000000000002,0.38182950496953977,0.38182321876505326,-0.07837828494398522,-0.07838598069070643,0.07850314286429369,0.07850217594211735,0.004084223881363869,0.004084223881363869,1.1401559069976637e-11,-0.8711572885513306,-0.8711572885513306,-6.968878172222957,0.4937193989753723,0.4937193989753723,-2.6651831347503907,-0.0007669904152862728,-0.0007669904152862728,-9.286281812112063e-12,1.3646037578582764,1.3647634983062744,-1.0813732701953536,0.0028762139845639467,0.0028762139845639467,7.1020221736136236e-12
0.3750000000000002,0.38182950496953977,0.38182321876505326,-0.07837828494398522,-0.07838598069070643,0.07850314286429369,0.07850217594211735,0.004084223881363869,0.004084223881363869,1.1401559069976637e-11,-0.8711572885513306,-0.8711572885513306,-6.968878172222957,0.4937193989753723,0.4937193989753723,-2.6651831347503907,-0.0007669904152862728,-0.0007669904152862728,-9.286281812112063e-12,1.3646037578582764,1.3647634983062744,-1.0813732701953536,0.0028762139845639467,0.0028762139845639467,7.1020221736136236e-12
0.3800000000000002,0.38182950496953977,0.38182321876505326,-0.07837828494398522,-0.07838598069070643,0.07850314286429369,0.07850217594211735,0.004084223881363869,0.004084223881363869,1.1401559069976637e-11,-0.8711572885513306,-0.8711572885513306,-6.968878172222957,0.4937193989753723,0.4937193989753723,-2.6651831347503907,-0.0007669904152862728,-0.0007669904152862728,-9.286281812112063e-12,1.3646037578582764,1.3647634983062744,-1.0813732701953536,0.0028762139845639467,0.0028762139845639467,7.1020221736136236e-12
0.38500000000000023,0.38182950496953977,0.38182321876505326,-0.07837828494398522,-0.07838598069070643,0.07850314286429369,0.07850217594211735,0.004084223881363869,0.004084223881363869,1.1401559069976637e-11,-0.8711572885513306,-0.8711572885513306,-6.968878172222957,0.4937193989753723,0.4937193989753723,-2.6651831347503907,-0.0007669904152862728,-0.0007669904152862728,-9.286281812112063e-12,1.3646037578582764,1.3647634983062744,-1.0813732701953536,0.0028762139845639467,0.0028762139845639467,7.1020221736136236e-12
0.39000000000000024,0.38182950496953977,0.38182321876505326,-0.07837828494398522,-0.07838598069070643,0.07850314286429369,0.07850217594211735,0.004084223881363869,0.004084223881363869,1.1401559069976637e-11,-0.8711572885513306,-0.8711572885513306,-6.968878172222957,0.4937193989753723,0.4937193989753723,-2.6651831347503907,-0.0007669904152862728,-0.0007669904152862728,-9.286281812112063e-12,1.3646037578582764,1.3647634983062744,-1.0813732701953536,0.0028762139845639467,0.0028762139845639467,7.1020221736136236e-12
0.39500000000000024,0.38182950496953977,0.38182321876505326,-0.07837828494398522,-0.07838598069070643,0.07850314286429369,0.07850217594211735,0.004084223881363869,0.004084223881363869,1.1401559069976637e-11,-0.8711572885513306,-0.8711572885513306,-6.968878172222957,0.4937193989753723,0.4937193989753723,-2.6651831347503907,-0.0007669904152862728,-0.0007669904152862728,-9.286281812112063e-12,1.3646037578582764,1.3647634983062744,-1.0813732701953536,0.0028762139845639467,0.0028762139845639467,7.1020221736136236e-12
0.40000000000000024,0.38182950496953977,0.38182321876505326,-0.07837828494398522,-0.07838598069070643,0.07850314286429369,0.07850217594211735,0.004084223881363869,0.004084223881363869,1.1401559069976637e-11,-0.8711572885513306,-0.8711572885513306,-6.968878172222957,0.4937193989753723,0.4937193989753723,-2.6651831347503907,-0.0007669904152862728,-0.0007669904152862728,-9.286281812112063e-12,1.3646037578582764,1.3647634983062744,-1.0813732701953536,0.0028762139845639467,0.0028762139845639467,7.1020221736136236e-12
0.40500000000000025,0.38182950496953977,0.38182321876505326,-0.07837828494398522,-0.07838598069070643,0.07850314286429369,0.07850217594211735,0.004084223881363869,0.004084223881363869,1.1401559069976637e-11,-0.8711572885513306,-0.8711572885513306,-6.968878172222957,0.4937193989753723,0.4937193989753723,-2.6651831347503907,-0.0007669904152862728,-0.0007669904152862728,-9.286281812112063e-12,1.3646037578582764,1.3647634983062744,-1.0813732701953536,0.0028762139845639467,0.0028762139845639467,7.1020221736136236e-12
0.41000000000000025,0.38182950496953977,0.38182321876505326,-0.07837828494398522,-0.07838598069070643,0.07850314286429369,0.07850217594211735,0.004084223881363869,0.004084223881363869,1.1401559069976637e-11,-0.8711572885513306,-0.8711572885513306,-6.968878172222957,0.4937193989753723,0.4937193989753723,-2.6651831347503907,-0.0007669904152862728,-0.0007669904152862728,-9.286281812112063e-12,1.3646037578582764,1.3647634983062744,-1.0813732701953536,0.0028762139845639467,0.0028762139845639467,7.1020221736136236e-12
0.41500000000000026,0.38182950496953977,0.38182321876505326,-0.07837828494398522,-0.07838598069070643,0.07850314286429369,0.07850217594211735,0.004084223881363869,0.004084223881363869,1.1401559069976637e-11,-0.8711572885513306,-0.8711572885513306,-6.968878172222957,0.4937193989753723,0.4937193989753723,-2.6651831347503907,-0.0007669904152862728,-0.0007669904152862728,-9.286281812112063e-12,1.3646037578582764,1.3647634983062744,-1.0813732701953536,0.0028762139845639467,0.0028762139845639467,7.1020221736136236e-12
0.42000000000000026,0.38182950496953977,0.38182321876505326,-0.07837828494398522,-0.07838598069070643,0.07850314286429369,0.07850217594211735,0.004084223881363869,0.004084223881363869,1.1401559069976637e-11,-0.8711572885513306,-0.8711572885513306,-6.968878172222957,0.4937193989753723,0.4937193989753723,-2.6651831347503907,-0.0007669904152862728,-0.0007669904152862728,-9.286281812112063e-12,1.3646037578582764,1.3647634983062744,-1.0813732701953536,0.0028762139845639467,0.0028762139845639467,7.1020221736136236e-12
0.42500000000000027,0.38182950496953977,0.38182321876505326,-0.07837828494398522,-0.07838598069070643,0.07850314286429369,0.07850217594211735,0.004084223881363869,0.004084223881363869,1.1401559069976637e-11,-0.8711572885513306,-0.8711572885513306,-6.968878172222957,0.4937193989753723,0.4937193989753723,-2.6651831347503907,-0.0007669904152862728,-0.0007669904152862728,-9.286281812112063e-12,1.3646037578582764,1.3647634983062744,-1.0813732701953536,0.0028762139845639467,0.0028762139845639467,7.1020221736136236e-12
0.43000000000000027,0.38182950496953977,0.38182321876505326,-0.07837828494398522,-0.07838598069070643,0.07850314286429369,0.07850217594211735,0.004084223881363869,0.004084223881363869,1.1401559069976637e-11,-0.8711572885513306,-0.8711572885513306,-6.968878172222957,0.4937193989753723,0.4937193989753723,-2.6651831347503907,-0.0007669904152862728,-0.0007669904152862728,-9.286281812112063e-12,1.3646037578582764,1.3647634983062744,-1.0813732701953536,0.0028762139845639467,0.0028762139845639467,7.1020221736136236e-12
0.4350000000000003,0.38182950496953977,0.38182321876505326,-0.07837828494398522,-0.07838598069070643,0.07850314286429369,0.07850217594211735,0.004084223881363869,0.004084223881363869,1.1401559069976637e-11,-0.8711572885513306,-0.8711572885513306,-6.968878172222957,0.4937193989753723,0.4937193989753723,-2.6651831347503907,-0.0007669904152862728,-0.0007669904152862728,-9.286281812112063e-12,1.3646037578582764,1.3647634983062744,-1.0813732701953536,0.0028762139845639467,0.0028762139845639467,7.1020221736136236e-12
0.4400000000000003,0.38182950496953977,0.38182321876505326,-0.07837828494398522,-0.07838598069070643,0.07850314286429369,0.07850217594211735,0.004084223881363869,0.004084223881363869,1.1401559069976637e-11,-0.8711572885513306,-0.8711572885513306,-6.968878172222957,0.4937193989753723,0.4937193989753723,-2.6651831347503907,-0.0007669904152862728,-0.0007669904152862728,-9.286281812112063e-12,1.3646037578582764,1.3647634983062744,-1.0813732701953536,0.0028762139845639467,0.0028762139845639467,7.1020221736136236e-12
0.4450000000000003,0.38182950496953977,0.38182321876505326,-0.07837828494398522,-0.07838598069070643,0.07850314286429369,0.07850217594211735,0.004084223881363869,0.004084223881363869,1.1401559069976637e-11,-0.8711572885513306,-0.8711572885513306,-6.968878172222957,0.4937193989753723,0.4937193989753723,-2.6651831347503907,-0.0007669904152862728,-0.0007669904152862728,-9.286281812112063e-12,1.3646037578582764,1.3647634983062744,-1.0813732701953536,0.0028762139845639467,0.0028762139845639467,7.1020221736136236e-12
0.4500000000000003,0.38182950496953977,0.38182321876505326,-0.07837828494398522,-0.07838598069070643,0.07850314286429369,0.07850217594211735,0.004084223881363869,0.004084223881363869,1.1401559069976637e-11,-0.8711572885513306,-0.8711572885513306,-6.968878172222957,0.4937193989753723,0.4937193989753723,-2.6651831347503907,-0.0007669904152862728,-0.0007669904152862728,-9.286281812112063e-12,1.3646037578582764,1.3647634983062744,-1.0813732701953536,0.0028762139845639467,0.0028762139845639467,7.1020221736136236e-12
0.4550000000000003,0.38182950496953977,0.38182321876505326,-0.07837828494398522,-0.07838598069070643,0.07850314286429369,0.07850217594211735,0.004084223881363869,0.004084223881363869,1.1401559069976637e-11,-0.8711572885513306,-0.8711572885513306,-6.968878172222957,0.4937193989753723,0.4937193989753723,-2.6651831347503907,-0.0007669904152862728,-0.0007669904152862728,-9.286281812112063e-12,1.3646037578582764,1.3647634983062744,-1.0813732701953536,0.0028762139845639467,0.0028762139845639467,7.1020221736136236e-12
0.4600000000000003,0.38182950496953977,0.38182321876505326,-0.07837828494398522,-0.07838598069070643,0.07850314286429369,0.07850217594211735,0.004084223881363869,0.004084223881363869,1.1401559069976637e-11,-0.8711572885513306,-0.8711572885513306,-6.968878172222957,0.4937193989753723,0.4937193989753723,-2.6651831347503907,-0.0007669904152862728,-0.0007669904152862728,-9.286281812112063e-12,1.3646037578582764,1.3647634983062744,-1.0813732701953536,0.0028762139845639467,0.0028762139845639467,7.1020221736136236e-12
0.4650000000000003,0.38182950496953977,0.38182321876505326,-0.07837828494398522,-0.07838598069070643,0.07850314286429369,0.07850217594211735,0.004084223881363869,0.004084223881363869,1.1401559069976637e-11,-0.8711572885513306,-0.8711572885513306,-6.968878172222957,0.4937193989753723,0.4937193989753723,-2.6651831347503907,-0.0007669904152862728,-0.0007669904152862728,-9.286281812112063e-12,1.3646037578582764,1.3647634983062744,-1.0813732701953536,0.0028762139845639467,0.0028762139845639467,7.1020221736136236e-12
0.4700000000000003,0.38182950496953977,0.38182321876505326,-0.07837828494398522,-0.07838598069070643,0.07850314286429369,0.07850217594211735,0.004084223881363869,0.004084223881363869,1.1401559069976637e-11,-0.8711572885513306,-0.8711572885513306,-6.968878172222957,0.4937193989753723,0.4937193989753723,-2.6651831347503907,-0.0007669904152862728,-0.0007669904152862728,-9.286281812112063e-12,1.3646037578582764,1.3647634983062744,-1.0813732701953536,0.0028762139845639467,0.0028762139845639467,7.1020221736136236e-12
0.4750000000000003,0.38182950496953977,0.38182321876505326,-0.07837828494398522,-0.07838598069070643,0.07850314286429369,0.07850217594211735,0.004084223881363869,0.004084223881363869,1.1401559069976637e-11,-0.8711572885513306,-0.8711572885513306,-6.968878172222957,0.4937193989753723,0.4937193989753723,-2.6651831347503907,-0.0007669904152862728,-0.0007669904152862728,-9.286281812112063e-12,1.3646037578582764,1.3647634983062744,-1.0813732701953536,0.0028762139845639467,0.0028762139845639467,7.1020221736136236e-12
0.4800000000000003,0.38182950496953977,0.38182321876505326,-0.07837828494398522,-0.07838598069070643,0.07850314286429369,0.07850217594211735,0.004084223881363869,0.004084223881363869,1.1401559069976637e-11,-0.8711572885513306,-0.8711572885513306,-6.968878172222957,0.4937193989753723,0.4937193989753723,-2.6651831347503907,-0.0007669904152862728,-0.0007669904152862728,-9.286281812112063e-12,1.3646037578582764,1.3647634983062744,-1.0813732701953536,0.0028762139845639467,0.0028762139845639467,7.1020221736136236e-12
0.4850000000000003,0.38182950496953977,0.38182321876505326,-0.07837828494398522,-0.07838598069070643,0.07850314286429369,0.07850217594211735,0.004084223881363869,0.004084223881363869,1.1401559069976637e-11,-0.8711572885513306,-0.8711572885513306,-6.968878172222957,0.4937193989753723,0.4937193989753723,-2.6651831347503907,-0.0007669904152862728,-0.0007669904152862728,-9.286281812112063e-12,1.3646037578582764,1.3647634983062744,-1.0813732701953536,0.0028762139845639467,0.0028762139845639467,7.1020221736136236e-12
0.4900000000000003,0.38182950496953977,0.38182321876505326,-0.07837828494398522,-0.07838598069070643,0.07850314286429369,0.07850217594211735,0.004084223881363869,0.004084223881363869,1.1401559069976637e-11,-0.8711572885513306,-0.8711572885513306,-6.968878172222957,0.4937193989753723,0.4937193989753723,-2.6651831347503907,-0.0007669904152862728,-0.0007669904152862728,-9.286281812112063e-12,1.3646037578582764,1.3647634983062744,-1.0813732701953536,0.0028762139845639467,0.0028762139845639467,7.1020221736136236e-12
0.49500000000000033,0.38182950496953977,0.38182321876505326,-0.07837828494398522,-0.07838598069070643,0.07850314286429369,0.07850217594211735,0.004084223881363869,0.004084223881363869,1.1401559069976637e-11,-0.8711572885513306,-0.8711572885513306,-6.968878172222957,0.4937193989753723,0.4937193989753723,-2.6651831347503907,-0.0007669904152862728,-0.0007669904152862728,-9.286281812112063e-12,1.3646037578582764,1.3647634983062744,-1.0813732701953536,0.0028762139845639467,0.0028762139845639467,7.1020221736136236e-12
0.5000000000000003,0.38182950496953977,0.38182321876505326,-0.07837828494398522,-0.07838598069070643,0.07850314286429369,0.07850217594211735,0.004084223881363869,0.004084223881363869,1.1401559069976637e-11,-0.8711572885513306,-0.8711572885513306,-6.968878172222957,0.4937193989753723,0.4937193989753723,-2.6651831347503907,-0.0007669904152862728,-0.0007669904152862728,-9.286281812112063e-12,1.3646037578582764,1.3647634983062744,-1.0813732701953536,0.0028762139845639467,0.0028762139845639467,7.1020221736136236e-12
0.5050000000000003,0.38182950496953977,0.38182321876505326,-0.07837828494398522,-0.07838598069070643,0.07850314286429369,0.07850217594211735,0.004084223881363869,0.004084223881363869,1.1401559069976637e-11,-0.8711572885513306,-0.8711572885513306,-6.968878172222957,0.4937193989753723,0.4937193989753723,-2.6651831347503907,-0.0007669904152862728,-0.0007669904152862728,-9.286281812112063e-12,1.3646037578582764,1.3647634983062744,-1.0813732701953536,0.0028762139845639467,0.0028762139845639467,7.1020221736136236e-12
0.5100000000000003,0.38182950496953977,0.38182321876505326,-0.07837828494398522,-0.07838598069070643,0.07850314286429369,0.07850217594211735,0.004084223881363869,0.004084223881363869,1.1401559069976637e-11,-0.8711572885513306,-0.8711572885513306,-6.968878172222957,0.4937193989753723,0.4937193989753723,-2.6651831347503907,-0.0007669904152862728,-0.0007669904152862728,-9.286281812112063e-12,1.3646037578582764,1.3647634983062744,-1.0813732701953536,0.0028762139845639467,0.0028762139845639467,7.1020221736136236e-12
0.5150000000000003,0.38182950496953977,0.38182321876505326,-0.07837828494398522,-0.07838598069070643,0.07850314286429369,0.07850217594211735,0.004084223881363869,0.004084223881363869,1.1401559069976637e-11,-0.8711572885513306,-0.8711572885513306,-6.968878172222957,0.4937193989753723,0.4937193989753723,-2.6651831347503907,-0.0007669904152862728,-0.0007669904152862728,-9.286281812112063e-12,1.3646037578582764,1.3647634983062744,-1.0813732701953536,0.0028762139845639467,0.0028762139845639467,7.1020221736136236e-12
0.5200000000000004,0.38182950496953977,0.38182321876505326,-0.07837828494398522,-0.07838598069070643,0.07850314286429369,0.07850217594211735,0.004084223881363869,0.004084223881363869,1.1401559069976637e-11,-0.8711572885513306,-0.8711572885513306,-6.968878172222957,0.4937193989753723,0.4937193989753723,-2.6651831347503907,-0.0007669904152862728,-0.0007669904152862728,-9.286281812112063e-12,1.3646037578582764,1.3647634983062744,-1.0813732701953536,0.0028762139845639467,0.0028762139845639467,7.1020221736136236e-12
0.5250000000000004,0.38182950496953977,0.38182321876505326,-0.07837828494398522,-0.07838598069070643,0.07850314286429369,0.07850217594211735,0.004084223881363869,0.004084223881363869,1.1401559069976637e-11,-0.8711572885513306,-0.8711572885513306,-6.968878172222957,0.4937193989753723,0.4937193989753723,-2.6651831347503907,-0.0007669904152862728,-0.0007669904152862728,-9.286281812112063e-12,1.3646037578582764,1.3647634983062744,-1.0813732701953536,0.0028762139845639467,0.0028762139845639467,7.1020221736136236e-12
0.5300000000000004,0.38182950496953977,0.38182321876505326,-0.07837828494398522,-0.07838598069070643,0.07850314286429369,0.07850217594211735,0.004084223881363869,0.004084223881363869,1.1401559069976637e-11,-0.8711572885513306,-0.8711572885513306,-6.968878172222957,0.4937193989753723,0.4937193989753723,-2.6651831347503907,-0.0007669904152862728,-0.0007669904152862728,-9.286281812112063e-12,1.3646037578582764,1.3647634983062744,-1.0813732701953536,0.0028762139845639467,0.0028762139845639467,7.1020221736136236e-12
0.5350000000000004,0.38182950496953977,0.38182321876505326,-0.07837828494398522,-0.07838598069070643,0.07850314286429369,0.07850217594211735,0.004084223881363869,0.004084223881363869,1.1401559069976637e-11,-0.8711572885513306,-0.8711572885513306,-6.968878172222957,0.4937193989753723,0.4937193989753723,-2.6651831347503907,-0.0007669904152862728,-0.0007669904152862728,-9.286281812112063e-12,1.3646037578582764,1.3647634983062744,-1.0813732701953536,0.0028762139845639467,0.0028762139845639467,7.1020221736136236e-12
0.5400000000000004,0.38182950496953977,0.38182321876505326,-0.07837828494398522,-0.07838598069070643,0.07850314286429369,0.07850217594211735,0.004084223881363869,0.004084223881363869,1.1401559069976637e-11,-0.8711572885513306,-0.8711572885513306,-6.968878172222957,0.4937193989753723,0.4937193989753723,-2.6651831347503907,-0.0007669904152862728,-0.0007669904152862728,-9.286281812112063e-12,1.3646037578582764,1.3647634983062744,-1.0813732701953536,0.0028762139845639467,0.0028762139845639467,7.1020221736136236e-12
0.5450000000000004,0.3818357947251809,0.38182321876505326,-0.07837058261602084,-0.07838598069070643,0.07850411124760581,0.07850217594211735,0.004084223881363869,0.004084223881363869,1.1401559069976637e-11,-0.8711572885513306,-0.8711572885513306,-6.968878172222957,0.4937193989753723,0.4937193989753723,-2.6651831347503907,-0.0007669904152862728,-0.0007669904152862728,-9.286281812112063e-12,1.3644438982009888,1.3647634983062744,-5.203166597282443,0.0028762139845639467,0.0028762139845639467,7.1020221736136236e-12
0.5500000000000004,0.3818357947251809,0.38182321876505326,-0.07837058261602084,-0.07838598069070643,0.07850411124760581,0.07850217594211735,0.004084223881363869,0.004084223881363869,1.1401559069976637e-11,-0.8711572885513306,-0.8711572885513306,-6.968878172222957,0.4937193989753723,0.4937193989753723,-2.6651831347503907,-0.0007669904152862728,-0.0007669904152862728,-9.286281812112063e-12,1.3644438982009888,1.3647634983062744,-5.203166597282443,0.0028762139845639467,0.0028762139845639467,7.1020221736136236e-12
0.5550000000000004,0.3818357947251809,0.38182321876505326,-0.07837058261602084,-0.07838598069070643,0.07850411124760581,0.07850217594211735,0.004084223881363869,0.004084223881363869,1.1401559069976637e-11,-0.8711572885513306,-0.8711572885513306,-6.968878172222957,0.4937193989753723,0.4937193989753723,-2.6651831347503907,-0.0007669904152862728,-0.0007669904152862728,-9.286281812112063e-12,1.3644438982009888,1.3647634983062744,-5.203166597282443,0.0028762139845639467,0.0028762139845639467,7.1020221736136236e-12
0.5600000000000004,0.3818357947251809,0.38182321876505326,-0.07837058261602084,-0.07838598069070643,0.07850411124760581,0.07850217594211735,0.004084223881363869,0.004084223881363869,1.1401559069976637e-11,-0.8711572885513306,-0.8711572885513306,-6.968878172222957,0.4937193989753723,0.4937193989753723,-2.6651831347503907,-0.0007669904152862728,-0.0007669904152862728,-9.286281812112063e-12,1.3644438982009888,1.3647634983062744,-5.203166597282443,0.0028762139845639467,0.0028762139845639467,7.1020221736136236e-12
0.5650000000000004,0.3818357947251809,0.38182321876505326,-0.07837058261602084,-0.07838598069070643,0.07850411124760581,0.07850217594211735,0.004084223881363869,0.004084223881363869,1.1401559069976637e-11,-0.8711572885513306,-0.8711572885513306,-6.968878172222957,0.4937193989753723,0.4937193989753723,-2.6651831347503907,-0.0007669904152862728,-0.0007669904152862728,-9.286281812112063e-12,1.3644438982009888,1.3647634983062744,-5.203166597282443,0.0028762139845639467,0.0028762139845639467,7.1020221736136236e-12
0.5700000000000004,0.3818357947251809,0.38182321876505326,-0.07837058261602084,-0.07838598069070643,0.07850411124760581,0.07850217594211735,0.004084223881363869,0.004084223881363869,1.1401559069976637e-11,-0.8711572885513306,-0.8711572885513306,-6.968878172222957,0.4937193989753723,0.4937193989753723,-2.6651831347503907,-0.0007669904152862728,-0.0007669904152862728,-9.286281812112063e-12,1.3644438982009888,1.3647634983062744,-5.203166597282443,0.0028762139845639467,0.0028762139845639467,7.1020221736136236e-12
0.5750000000000004,0.3818357947251809,0.38182321876505326,-0.07837058261602084,-0.07838598069070643,0.07850411124760581,0.07850217594211735,0.004084223881363869,0.004084223881363869,1.1401559069976637e-11,-0.8711572885513306,-0.8711572885513306,-6.968878172222957,0.4937193989753723,0.4937193989753723,-2.6651831347503907,-0.0007669904152862728,-0.0007669904152862728,-9.286281812112063e-12,1.3644438982009888,1.3647634983062744,-5.203166597282443,0.0028762139845639467,0.0028762139845639467,7.1020221736136236e-12
0.5800000000000004,0.3818357947251809,0.38182321876505326,-0.07837058261602084,-0.07838598069070643,0.07850411124760581,0.07850217594211735,0.004084223881363869,0.004084223881363869,1.1401559069976637e-11,-0.8711572885513306,-0.8711572885513306,-6.968878172222957,0.4937193989753723,0.4937193989753723,-2.6651831347503907,-0.0007669904152862728,-0.0007669904152862728,-9.286281812112063e-12,1.3644438982009888,1.3647634983062744,-5.203166597282443,0.0028762139845639467,0.0028762139845639467,7.1020221736136236e-12
0.5850000000000004,0.3818357947251809,0.38182321876505326,-0.07837058261602084,-0.07838598069070643,0.07850411124760581,0.07850217594211735,0.004084223881363869,0.004084223881363869,1.1401559069976637e-11,-0.8711572885513306,-0.8711572885513306,-6.968878172222957,0.4937193989753723,0.4937193989753723,-2.6651831347503907,-0.0007669904152862728,-0.0007669904152862728,-9.286281812112063e-12,1.3644438982009888,1.3647634983062744,-5.203166597282443,0.0028762139845639467,0.0028762139845639467,7.1020221736136236e-12
0.5900000000000004,0.3818357947251809,0.38182321876505326,-0.07837058261602084,-0.07838598069070643,0.07850411124760581,0.07850217594211735,0.004084223881363869,0.004084223881363869,1.1401559069976637e-11,-0.8711572885513306,-0.8711572885513306,-6.968878172222957,0.4937193989753723,0.4937193989753723,-2.6651831347503907,-0.0007669904152862728,-0.0007669904152862728,-9.286281812112063e-12,1.3644438982009888,1.3647634983062744,-5.203166597282443,0.0028762139845639467,0.0028762139845639467,7.1020221736136236e-12
0.5950000000000004,0.3818357947251809,0.38182321876505326,-0.07837058261602084,-0.07838598069070643,0.07850411124760581,0.07850217594211735,0.004084223881363869,0.004084223881363869,1.1401559069976637e-11,-0.8711572885513306,-0.8711572885513306,-6.968878172222957,0.4937193989753723,0.4937193989753723,-2.6651831347503907,-0.0007669904152862728,-0.0007669904152862728,-9.286281812112063e-12,1.3644438982009888,1.3647634983062744,-5.203166597282443,0.0028762139845639467,0.0028762139845639467,7.1020221736136236e-12
0.6000000000000004,0.3818357947251809,0.38182321876505326,-0.07837058261602084,-0.07838598069070643,0.07850411124760581,0.07850217594211735,0.004084223881363869,0.004084223881363869,1.1401559069976637e-11,-0.8711572885513306,-0.8711572885513306,-6.968878172222957,0.4937193989753723,0.4937193989753723,-2.6651831347503907,-0.0007669904152862728,-0.0007669904152862728,-9.286281812112063e-12,1.3644438982009888,1.3647634983062744,-5.203166597282443,0.0028762139845639467,0.0028762139845639467,7.1020221736136236e-12
0.6050000000000004,0.3818357947251809,0.38182321876505326,-0.07837058261602084,-0.07838598069070643,0.07850411124760581,0.07850217594211735,0.004084223881363869,0.004084223881363869,1.1401559069976637e-11,-0.8711572885513306,-0.8711572885513306,-6.968878172222957,0.4937193989753723,0.4937193989753723,-2.6651831347503907,-0.0007669904152862728,-0.0007669904152862728,-9.286281812112063e-12,1.3644438982009888,1.3647634983062744,-5.203166597282443,0.0028762139845639467,0.0028762139845639467,7.1020221736136236e-12
0.6100000000000004,0.3818357947251809,0.38182321876505326,-0.07837058261602084,-0.07838598069070643,0.07850411124760581,0.07850217594211735,0.004084223881363869,0.004084223881363869,1.1401559069976637e-11,-0.8711572885513306,-0.8711572885513306,-6.968878172222957,0.4937193989753723,0.4937193989753723,-2.6651831347503907,-0.0007669904152862728,-0.0007669904152862728,-9.286281812112063e-12,1.3644438982009888,1.3647634983062744,-5.203166597282443,0.0028762139845639467,0.0028762139845639467,7.1020221736136236e-12
0.6150000000000004,0.3818357947251809,0.38182321876505326,-0.07837058261602084,-0.07838598069070643,0.07850411124760581,0.07850217594211735,0.004084223881363869,0.004084223881363869,1.1401559069976637e-11,-0.8711572885513306,-0.8711572885513306,-6.968878172222957,0.4937193989753723,0.4937193989753723,-2.6651831347503907,-0.0007669904152862728,-0.0007669904152862728,-9.286281812112063e-12,1.3644438982009888,1.3647634983062744,-5.203166597282443,0.0028762139845639467,0.0028762139845639467,7.1020221736136236e-12
0.6200000000000004,0.3818357947251809,0.38182321876505326,-0.07837058261602084,-0.07838598069070643,0.07850411124760581,0.07850217594211735,0.004084223881363869,0.004084223881363869,1.1401559069976637e-11,-0.8711572885513306,-0.8711572885513306,-6.968878172222957,0.4937193989753723,0.4937193989753723,-2.6651831347503907,-0.0007669904152862728,-0.0007669904152862728,-9.286281812112063e-12,1.3644438982009888,1.3647634983062744,-5.203166597282443,0.0028762139845639467,0.0028762139845639467,7.1020221736136236e-12
0.6250000000000004,0.3818357947251809,0.38182321876505326,-0.07837058261602084,-0.07838598069070643,0.07850411124760581,0.07850217594211735,0.004084223881363869,0.004084223881363869,1.1401559069976637e-11,-0.8711572885513306,-0.8711572885513306,-6.968878172222957,0.4937193989753723,0.4937193989753723,-2.6651831347503907,-0.0007669904152862728,-0.0007669904152862728,-9.286281812112063e-12,1.3644438982009888,1.3647634983062744,-5.203166597282443,0.0028762139845639467,0.0028762139845639467,7.1020221736136236e-12
0.6300000000000004,0.3818357947251809,0.38182321876505326,-0.07837058261602084,-0.07838598069070643,0.07850411124760581,0.07850217594211735,0.004084223881363869,0.004084223881363869,1.1401559069976637e-11,-0.8711572885513306,-0.8711572885513306,-6.968878172222957,0.4937193989753723,0.4937193989753723,-2.6651831347503907,-0.0007669904152862728,-0.0007669904152862728,-9.286281812112063e-12,1.3644438982009888,1.3647634983062744,-5.203166597282443,0.0028762139845639467,0.0028762139845639467,7.1020221736136236e-12
0.6350000000000005,0.3818357947251809,0.38182321876505326,-0.07837058261602084,-0.07838598069070643,0.07850411124760581,0.07850217594211735,0.004084223881363869,0.004084223881363869,1.1401559069976637e-11,-0.8711572885513306,-0.8711572885513306,-6.968878172222957,0.4937193989753723,0.4937193989753723,-2.6651831347503907,-0.0007669904152862728,-0.0007669904152862728,-9.286281812112063e-12,1.3644438982009888,1.3647634983062744,-5.203166597282443,0.0028762139845639467,0.0028762139845639467,7.1020221736136236e-12
0.6400000000000005,0.3818357947251809,0.38182321876505326,-0.07837058261602084,-0.07838598069070643,0.07850411124760581,0.07850217594211735,0.004084223881363869,0.004084223881363869,1.1401559069976637e-11,-0.8711572885513306,-0.8711572885513306,-6.968878172222957,0.4937193989753723,0.4937193989753723,-2.6651831347503907,-0.0007669904152862728,-0.0007669904152862728,-9.286281812112063e-12,1.3644438982009888,1.3647634983062744,-5.203166597282443,0.0028762139845639467,0.0028762139845639467,7.1020221736136236e-12
0.6450000000000005,0.3819581630359506,0.38182321876505326,-0.07822028611156441,-0.07838598069070643,0.07852313412834772,0.07850217594211735,0.004084223881363869,0.004084223881363869,1.1401559069976637e-11,-0.8711572885513306,-0.8711572885513306,-6.968878172222957,0.4937193989753723,0.4937193989753723,-2.6651831347503907,-0.0007669904152862728,-0.0007669904152862728,-9.286281812112063e-12,1.3613280057907104,1.3647634983062744,-5.176334392502904,0.0028762139845639467,0.0028762139845639467,7.1020221736136236e-12
0.6500000000000005,0.3819581630359506,0.38182321876505326,-0.07822028611156441,-0.07838598069070643,0.07852313412834772,0.07850217594211735,0.004084223881363869,0.004084223881363869,1.1401559069976637e-11,-0.8711572885513306,-0.8711572885513306,-6.968878172222957,0.4937193989753723,0.4937193989753723,-2.6651831347503907,-0.0007669904152862728,-0.0007669904152862728,-9.286281812112063e-12,1.3613280057907104,1.3647634983062744,-5.176334392502904,0.0028762139845639467,0.0028762139845639467,7.1020221736136236e-12
0.6550000000000005,0.3819581630359506,0.38182321876505326,-0.07822028611156441,-0.07838598069070643,0.07852313412834772,0.07850217594211735,0.004084223881363869,0.004084223881363869,1.1401559069976637e-11,-0.8711572885513306,-0.8711572885513306,-6.968878172222957,0.4937193989753723,0.4937193989753723,-2.6651831347503907,-0.0007669904152862728,-0.0007669904152862728,-9.286281812112063e-12,1.3613280057907104,1.3647634983062744,-5.176334392502904,0.0028762139845639467,0.0028762139845639467,7.1020221736136236e-12
0.6600000000000005,0.3819581630359506,0.38182321876505326,-0.07822028611156441,-0.07838598069070643,0.07852313412834772,0.07850217594211735,0.004084223881363869,0.004084223881363869,1.1401559069976637e-11,-0.8711572885513306,-0.8711572885513306,-6.968878172222957,0.4937193989753723,0.4937193989753723,-2.6651831347503907,-0.0007669904152862728,-0.0007669904152862728,-9.286281812112063e-12,1.3613280057907104,1.3647634983062744,-5.176334392502904,0.0028762139845639467,0.0028762139845639467,7.1020221736136236e-12
0.6650000000000005,0.3819581630359506,0.38182321876505326,-0.07822028611156441,-0.07838598069070643,0.07852313412834772,0.07850217594211735,0.004084223881363869,0.004084223881363869,1.1401559069976637e-11,-0.8711572885513306,-0.8711572885513306,-6.968878172222957,0.4937193989753723,0.4937193989753723,-2.6651831347503907,-0.0007669904152862728,-0.0007669904152862728,-9.286281812112063e-12,1.3613280057907104,1.3647634983062744,-5.176334392502904,0.0028762139845639467,0.0028762139845639467,7.1020221736136236e-12
0.6700000000000005,0.3819581630359506,0.38182321876505326,-0.07822028611156441,-0.07838598069070643,0.07852313412834772,0.07850217594211735,0.004084223881363869,0.004084223881363869,1.1401559069976637e-11,-0.8711572885513306,-0.8711572885513306,-6.968878172222957,0.4937193989753723,0.4937193989753723,-2.6651831347503907,-0.0007669904152862728,-0.0007669904152862728,-9.286281812112063e-12,1.3613280057907104,1.3647634983062744,-5.176334392502904,0.0028762139845639467,0.0028762139845639467,7.1020221736136236e-12
0.6750000000000005,0.3819581630359506,0.38182321876505326,-0.07822028611156441,-0.07838598069070643,0.07852313412834772,0.07850217594211735,0.004084223881363869,0.004084223881363869,1.1401559069976637e-11,-0.8711572885513306,-0.8711572885513306,-6.968878172222957,0.4937193989753723,0.4937193989753723,-2.6651831347503907,-0.0007669904152862728,-0.0007669904152862728,-9.286281812112063e-12,1.3613280057907104,1.3647634983062744,-5.176334392502904,0.0028762139845639467,0.0028762139845639467,7.1020221736136236e-12
0.6800000000000005,0.3819581630359506,0.38182321876505326,-0.07822028611156441,-0.07838598069070643,0.07852313412834772,0.07850217594211735,0.004084223881363869,0.004084223881363869,1.1401559069976637e-11,-0.8711572885513306,-0.8711572885513306,-6.968878172222957,0.4937193989753723,0.4937193989753723,-2.6651831347503907,-0.0007669904152862728,-0.0007669904152862728,-9.286281812112063e-12,1.3613280057907104,1.3647634983062744,-5.176334392502904,0.0028762139845639467,0.0028762139845639467,7.1020221736136236e-12
0.6850000000000005,0.3819581630359506,0.38182321876505326,-0.07822028611156441,-0.07838598069070643,0.07852313412834772,0.07850217594211735,0.004084223881363869,0.004084223881363869,1.1401559069976637e-11,-0.8711572885513306,-0.8711572885513306,-6.968878172222957,0.4937193989753723,0.4937193989753723,-2.6651831347503907,-0.0007669904152862728,-0.0007669904152862728,-9.286281812112063e-12,1.3613280057907104,1.3647634983062744,-5.176334392502904,0.0028762139845639467,0.0028762139845639467,7.1020221736136236e-12
0.6900000000000005,0.3819581630359506,0.38182321876505326,-0.07822028611156441,-0.07838598069070643,0.07852313412834772,0.07850217594211735,0.004084223881363869,0.004084223881363869,1.1401559069976637e-11,-0.8711572885513306,-0.8711572885513306,-6.968878172222957,0.4937193989753723,0.4937193989753723,-2.6651831347503907,-0.0007669904152862728,-0.0007669904152862728,-9.286281812112063e-12,1.3613280057907104,1.3647634983062744,-5.176334392502904,0.0028762139845639467,0.0028762139845639467,7.1020221736136236e-12
0.6950000000000005,0.3819581630359506,0.38182321876505326,-0.07822028611156441,-0.07838598069070643,0.07852313412834772,0.07850217594211735,0.004084223881363869,0.004084223881363869,1.1401559069976637e-11,-0.8711572885513306,-0.8711572885513306,-6.968878172222957,0.4937193989753723,0.4937193989753723,-2.6651831347503907,-0.0007669904152862728,-0.0007669904152862728,-9.286281812112063e-12,1.3613280057907104,1.3647634983062744,-5.176334392502904,0.0028762139845639467,0.0028762139845639467,7.1020221736136236e-12
0.7000000000000005,0.3819581630359506,0.38182321876505326,-0.07822028611156441,-0.07838598069070643,0.07852313412834772,0.07850217594211735,0.004084223881363869,0.004084223881363869,1.1401559069976637e-11,-0.8711572885513306,-0.8711572885513306,-6.968878172222957,0.4937193989753723,0.4937193989753723,-2.6651831347503907,-0.0007669904152862728,-0.0007669904152862728,-9.286281812112063e-12,1.3613280057907104,1.3647634983062744,-5.176334392502904,0.0028762139845639467,0.0028762139845639467,7.1020221736136236e-12
0.7050000000000005,0.3819581630359506,0.38182321876505326,-0.07822028611156441,-0.07838598069070643,0.07852313412834772,0.07850217594211735,0.004084223881363869,0.004084223881363869,1.1401559069976637e-11,-0.8711572885513306,-0.8711572885513306,-6.968878172222957,0.4937193989753723,0.4937193989753723,-2.6651831347503907,-0.0007669904152862728,-0.0007669904152862728,-9.286281812112063e-12,1.3613280057907104,1.3647634983062744,-5.176334392502904,0.0028762139845639467,0.0028762139845639467,7.1020221736136236e-12
0.7100000000000005,0.3819581630359506,0.38182321876505326,-0.07822028611156441,-0.07838598069070643,0.07852313412834772,0.07850217594211735,0.004084223881363869,0.004084223881363869,1.1401559069976637e-11,-0.8711572885513306,-0.8711572885513306,-6.968878172222957,0.4937193989753723,0.4937193989753723,-2.6651831347503907,-0.0007669904152862728,-0.0007669904152862728,-9.286281812112063e-12,1.3613280057907104,1.3647634983062744,-5.176334392502904,0.0028762139845639467,0.0028762139845639467,7.1020221736136236e-12
0.7150000000000005,0.3819581630359506,0.38182321876505326,-0.07822028611156441,-0.07838598069070643,0.07852313412834772,0.07850217594211735,0.004084223881363869,0.004084223881363869,1.1401559069976637e-11,-0.8711572885513306,-0.8711572885513306,-6.968878172222957,0.4937193989753723,0.4937193989753723,-2.6651831347503907,-0.0007669904152862728,-0.0007669904152862728,-9.286281812112063e-12,1.3613280057907104,1.3647634983062744,-5.176334392502904,0.0028762139845639467,0.0028762139845639467,7.1020221736136236e-12
0.7200000000000005,0.3819581630359506,0.38182321876505326,-0.07822028611156441,-0.07838598069070643,0.07852313412834772,0.07850217594211735,0.004084223881363869,0.004084223881363869,1.1401559069976637e-11,-0.8711572885513306,-0.8711572885513306,-6.968878172222957,0.4937193989753723,0.4937193989753723,-2.6651831347503907,-0.0007669904152862728,-0.0007669904152862728,-9.286281812112063e-12,1.3613280057907104,1.3647634983062744,-5.176334392502904,0.0028762139845639467,0.0028762139845639467,7.1020221736136236e-12
0.7250000000000005,0.3819581630359506,0.38182321876505326,-0.07822028611156441,-0.07838598069070643,0.07852313412834772,0.07850217594211735,0.004084223881363869,0.004084223881363869,1.1401559069976637e-11,-0.8711572885513306,-0.8711572885513306,-6.968878172222957,0.4937193989753723,0.4937193989753723,-2.6651831347503907,-0.0007669904152862728,-0.0007669904152862728,-9.286281812112063e-12,1.3613280057907104,1.3647634983062744,-5.176334392502904,0.0028762139845639467,0.0028762139845639467,7.1020221736136236e-12
0.7300000000000005,0.3819581630359506,0.38182321876505326,-0.07822028611156441,-0.07838598069070643,0.07852313412834772,0.07850217594211735,0.004084223881363869,0.004084223881363869,1.1401559069976637e-11,-0.8711572885513306,-0.8711572885513306,-6.968878172222957,0.4937193989753723,0.4937193989753723,-2.6651831347503907,-0.0007669904152862728,-0.0007669904152862728,-9.286281812112063e-12,1.3613280057907104,1.3647634983062744,-5.176334392502904,0.0028762139845639467,0.0028762139845639467,7.1020221736136236e-12
0.7350000000000005,0.3819581630359506,0.38182321876505326,-0.07822028611156441,-0.07838598069070643,0.07852313412834772,0.07850217594211735,0.004084223881363869,0.004084223881363869,1.1401559069976637e-11,-0.8711572885513306,-0.8711572885513306,-6.968878172222957,0.4937193989753723,0.4937193989753723,-2.6651831347503907,-0.0007669904152862728,-0.0007669904152862728,-9.286281812112063e-12,1.3613280057907104,1.3647634983062744,-5.176334392502904,0.0028762139845639467,0.0028762139845639467,7.1020221736136236e-12
0.7400000000000005,0.3819581630359506,0.38182321876505326,-0.07822028611156441,-0.07838598069070643,0.07852313412834772,0.07850217594211735,0.004084223881363869,0.004084223881363869,1.1401559069976637e-11,-0.8711572885513306,-0.8711572885513306,-6.968878172222957,0.4937193989753723,0.4937193989753723,-2.6651831347503907,-0.0007669904152862728,-0.0007669904152862728,-9.286281812112063e-12,1.3613280057907104,1.3647634983062744,-5.176334392502904,0.0028762139845639467,0.0028762139845639467,7.1020221736136236e-12
0.7450000000000006,0.3820988161421824,0.38182321876505326,-0.07804647457455373,-0.07838598069070643,0.0785454324419986,0.07850217594211735,0.004084223881363869,0.004084223881363869,1.1401559069976637e-11,-0.8711572885513306,-0.8711572885513306,-6.968878172222957,0.4937193989753723,0.4937193989753723,-2.6651831347503907,-0.0007669904152862728,-0.0007669904152862728,-9.286281812112063e-12,1.3577327728271484,1.3647634983062744,-5.0928733686357734,0.0028762139845639467,0.0028762139845639467,7.1020221736136236e-12
0.7500000000000006,0.3820988161421824,0.38182321876505326,-0.07804647457455373,-0.07838598069070643,0.0785454324419986,0.07850217594211735,0.004084223881363869,0.004084223881363869,1.1401559069976637e-11,-0.8711572885513306,-0.8711572885513306,-6.968878172222957,0.4937193989753723,0.4937193989753723,-2.6651831347503907,-0.0007669904152862728,-0.0007669904152862728,-9.286281812112063e-12,1.3577327728271484,1.3647634983062744,-5.0928733686357734,0.0028762139845639467,0.0028762139845639467,7.1020221736136236e-12
0.7550000000000006,0.3820988161421824,0.38182321876505326,-0.07804647457455373,-0.07838598069070643,0.0785454324419986,0.07850217594211735,0.004084223881363869,0.004084223881363869,1.1401559069976637e-11,-0.8711572885513306,-0.8711572885513306,-6.968878172222957,0.4937193989753723,0.4937193989753723,-2.6651831347503907,-0.0007669904152862728,-0.0007669904152862728,-9.286281812112063e-12,1.3577327728271484,1.3647634983062744,-5.0928733686357734,0.0028762139845639467,0.0028762139845639467,7.1020221736136236e-12
0.7600000000000006,0.3820988161421824,0.38182321876505326,-0.07804647457455373,-0.07838598069070643,0.0785454324419986,0.07850217594211735,0.004084223881363869,0.004084223881363869,1.1401559069976637e-11,-0.8711572885513306,-0.8711572885513306,-6.968878172222957,0.4937193989753723,0.4937193989753723,-2.6651831347503907,-0.0007669904152862728,-0.0007669904152862728,-9.286281812112063e-12,1.3577327728271484,1.3647634983062744,-5.0928733686357734,0.0028762139845639467,0.0028762139845639467,7.1020221736136236e-12
0.7650000000000006,0.3820988161421824,0.38182321876505326,-0.07804647457455373,-0.07838598069070643,0.0785454324419986,0.07850217594211735,0.004084223881363869,0.004084223881363869,1.1401559069976637e-11,-0.8711572885513306,-0.8711572885513306,-6.968878172222957,0.4937193989753723,0.4937193989753723,-2.6651831347503907,-0.0007669904152862728,-0.0007669904152862728,-9.286281812112063e-12,1.3577327728271484,1.3647634983062744,-5.0928733686357734,0.0028762139845639467,0.0028762139845639467,7.1020221736136236e-12
0.7700000000000006,0.3820988161421824,0.38182321876505326,-0.07804647457455373,-0.07838598069070643,0.0785454324419986,0.07850217594211735,0.004084223881363869,0.004084223881363869,1.1401559069976637e-11,-0.8711572885513306,-0.8711572885513306,-6.968878172222957,0.4937193989753723,0.4937193989753723,-2.6651831347503907,-0.0007669904152862728,-0.0007669904152862728,-9.286281812112063e-12,1.3577327728271484,1.3647634983062744,-5.0928733686357734,0.0028762139845639467,0.0028762139845639467,7.1020221736136236e-12
0.7750000000000006,0.3820988161421824,0.38182321876505326,-0.07804647457455373,-0.07838598069070643,0.0785454324419986,0.07850217594211735,0.004084223881363869,0.004084223881363869,1.1401559069976637e-11,-0.8711572885513306,-0.8711572885513306,-6.968878172222957,0.4937193989753723,0.4937193989753723,-2.6651831347503907,-0.0007669904152862728,-0.0007669904152862728,-9.286281812112063e-12,1.3577327728271484,1.3647634983062744,-5.0928733686357734,0.0028762139845639467,0.0028762139845639467,7.1020221736136236e-12
0.7800000000000006,0.3820988161421824,0.38182321876505326,-0.07804647457455373,-0.07838598069070643,0.0785454324419986,0.07850217594211735,0.004084223881363869,0.004084223881363869,1.1401559069976637e-11,-0.8711572885513306,-0.8711572885513306,-6.968878172222957,0.4937193989753723,0.4937193989753723,-2.6651831347503907,-0.0007669904152862728,-0.0007669904152862728,-9.286281812112063e-12,1.3577327728271484,1.3647634983062744,-5.0928733686357734,0.0028762139845639467,0.0028762139845639467,7.1020221736136236e-12
0.7850000000000006,0.3820988161421824,0.38182321876505326,-0.07804647457455373,-0.07838598069070643,0.0785454324419986,0.07850217594211735,0.004084223881363869,0.004084223881363869,1.1401559069976637e-11,-0.8711572885513306,-0.8711572885513306,-6.968878172222957,0.4937193989753723,0.4937193989753723,-2.6651831347503907,-0.0007669904152862728,-0.0007669904152862728,-9.286281812112063e-12,1.3577327728271484,1.3647634983062744,-5.0928733686357734,0.0028762139845639467,0.0028762139845639467,7.1020221736136236e-12
0.7900000000000006,0.3820988161421824,0.38182321876505326,-0.07804647457455373,-0.07838598069070643,0.0785454324419986,0.07850217594211735,0.004084223881363869,0.004084223881363869,1.1401559069976637e-11,-0.8711572885513306,-0.8711572885513306,-6.968878172222957,0.4937193989753723,0.4937193989753723,-2.6651831347503907,-0.0007669904152862728,-0.0007669904152862728,-9.286281812112063e-12,1.3577327728271484,1.3647634983062744,-5.0928733686357734,0.0028762139845639467,0.0028762139845639467,7.1020221736136236e-12
0.7950000000000006,0.3820988161421824,0.38182321876505326,-0.07804647457455373,-0.07838598069070643,0.0785454324419986,0.07850217594211735,0.004084223881363869,0.004084223881363869,1.1401559069976637e-11,-0.8711572885513306,-0.8711572885513306,-6.968878172222957,0.4937193989753723,0.4937193989753723,-2.6651831347503907,-0.0007669904152862728,-0.0007669904152862728,-9.286281812112063e-12,1.3577327728271484,1.3647634983062744,-5.0928733686357734,0.0028762139845639467,0.0028762139845639467,7.1020221736136236e-12
0.8000000000000006,0.3820988161421824,0.38182321876505326,-0.07804647457455373,-0.07838598069070643,0.0785454324419986,0.07850217594211735,0.004084223881363869,0.004084223881363869,1.1401559069976637e-11,-0.8711572885513306,-0.8711572885513306,-6.968878172222957,0.4937193989753723,0.4937193989753723,-2.6651831347503907,-0.0007669904152862728,-0.0007669904152862728,-9.286281812112063e-12,1.3577327728271484,1.3647634983062744,-5.0928733686357734,0.0028762139845639467,0.0028762139845639467,7.1020221736136236e-12
0.8050000000000006,0.3820988161421824,0.38182321876505326,-0.07804647457455373,-0.07838598069070643,0.0785454324419986,0.07850217594211735,0.004084223881363869,0.004084223881363869,1.1401559069976637e-11,-0.8711572885513306,-0.8711572885513306,-6.968878172222957,0.4937193989753723,0.4937193989753723,-2.6651831347503907,-0.0007669904152862728,-0.0007669904152862728,-9.286281812112063e-12,1.3577327728271484,1.3647634983062744,-5.0928733686357734,0.0028762139845639467,0.0028762139845639467,7.1020221736136236e-12
0.8100000000000006,0.3820988161421824,0.38182321876505326,-0.07804647457455373,-0.07838598069070643,0.0785454324419986,0.07850217594211735,0.004084223881363869,0.004084223881363869,1.1401559069976637e-11,-0.8711572885513306,-0.8711572885513306,-6.968878172222957,0.4937193989753723,0.4937193989753723,-2.6651831347503907,-0.0007669904152862728,-0.0007669904152862728,-9.286281812112063e-12,1.3577327728271484,1.3647634983062744,-5.0928733686357734,0.0028762139845639467,0.0028762139845639467,7.1020221736136236e-12
0.8150000000000006,0.3820988161421824,0.38182321876505326,-0.07804647457455373,-0.07838598069070643,0.0785454324419986,0.07850217594211735,0.004084223881363869,0.004084223881363869,1.1401559069976637e-11,-0.8711572885513306,-0.8711572885513306,-6.968878172222957,0.4937193989753723,0.4937193989753723,-2.6651831347503907,-0.0007669904152862728,-0.0007669904152862728,-9.286281812112063e-12,1.3577327728271484,1.3647634983062744,-5.0928733686357734,0.0028762139845639467,0.0028762139845639467,7.1020221736136236e-12
0.8200000000000006,0.3820988161421824,0.38182321876505326,-0.07804647457455373,-0.07838598069070643,0.0785454324419986,0.07850217594211735,0.004084223881363869,0.004084223881363869,1.1401559069976637e-11,-0.8711572885513306,-0.8711572885513306,-6.968878172222957,0.4937193989753723,0.4937193989753723,-2.6651831347503907,-0.0007669904152862728,-0.0007669904152862728,-9.286281812112063e-12,1.3577327728271484,1.3647634983062744,-5.0928733686357734,0.0028762139845639467,0.0028762139845639467,7.1020221736136236e-12
0.8250000000000006,0.3820988161421824,0.38182321876505326,-0.07804647457455373,-0.07838598069070643,0.0785454324419986,0.07850217594211735,0.004084223881363869,0.004084223881363869,1.1401559069976637e-11,-0.8711572885513306,-0.8711572885513306,-6.968878172222957,0.4937193989753723,0.4937193989753723,-2.6651831347503907,-0.0007669904152862728,-0.0007669904152862728,-9.286281812112063e-12,1.3577327728271484,1.3647634983062744,-5.0928733686357734,0.0028762139845639467,0.0028762139845639467,7.1020221736136236e-12
0.8300000000000006,0.3820988161421824,0.38182321876505326,-0.07804647457455373,-0.07838598069070643,0.0785454324419986,0.07850217594211735,0.004084223881363869,0.004084223881363869,1.1401559069976637e-11,-0.8711572885513306,-0.8711572885513306,-6.968878172222957,0.4937193989753723,0.4937193989753723,-2.6651831347503907,-0.0007669904152862728,-0.0007669904152862728,-9.286281812112063e-12,1.3577327728271484,1.3647634983062744,-5.0928733686357734,0.0028762139845639467,0.0028762139845639467,7.1020221736136236e-12
0.8350000000000006,0.3820988161421824,0.38182321876505326,-0.07804647457455373,-0.07838598069070643,0.0785454324419986,0.07850217594211735,0.004084223881363869,0.004084223881363869,1.1401559069976637e-11,-0.8711572885513306,-0.8711572885513306,-6.968878172222957,0.4937193989753723,0.4937193989753723,-2.6651831347503907,-0.0007669904152862728,-0.0007669904152862728,-9.286281812112063e-12,1.3577327728271484,1.3647634983062744,-5.0928733686357734,0.0028762139845639467,0.0028762139845639467,7.1020221736136236e-12
0.8400000000000006,0.3820988161421824,0.38182321876505326,-0.07804647457455373,-0.07838598069070643,0.0785454324419986,0.07850217594211735,0.004084223881363869,0.004084223881363869,1.1401559069976637e-11,-0.8711572885513306,-0.8711572885513306,-6.968878172222957,0.4937193989753723,0.4937193989753723,-2.6651831347503907,-0.0007669904152862728,-0.0007669904152862728,-9.286281812112063e-12,1.3577327728271484,1.3647634983062744,-5.0928733686357734,0.0028762139845639467,0.0028762139845639467,7.1020221736136236e-12
0.8450000000000006,0.38239693792900603,0.38182321876505326,-0.07767427176159965,-0.07838598069070643,0.07859425126577138,0.07850217594211735,0.004084223881363869,0.004084223881363869,1.1401559069976637e-11,-0.8711572885513306,-0.8711572885513306,-6.968878172222957,0.4937193989753723,0.4937193989753723,-2.6651831347503907,-0.0007669904152862728,-0.0007669904152862728,-9.286281812112063e-12,1.3500628471374512,1.3647634983062744,-4.967055792212486,0.0028762139845639467,0.0028762139845639467,7.1020221736136236e-12
0.8500000000000006,0.38239693792900603,0.38182321876505326,-0.07767427176159965,-0.07838598069070643,0.07859425126577138,0.07850217594211735,0.004084223881363869,0.004084223881363869,1.1401559069976637e-11,-0.8711572885513306,-0.8711572885513306,-6.968878172222957,0.4937193989753723,0.4937193989753723,-2.6651831347503907,-0.0007669904152862728,-0.0007669904152862728,-9.286281812112063e-12,1.3500628471374512,1.3647634983062744,-4.967055792212486,0.0028762139845639467,0.0028762139845639467,7.1020221736136236e-12
0.8550000000000006,0.38239693792900603,0.38182321876505326,-0.07767427176159965,-0.07838598069070643,0.07859425126577138,0.07850217594211735,0.004084223881363869,0.004084223881363869,1.1401559069976637e-11,-0.8711572885513306,-0.8711572885513306,-6.968878172222957,0.4937193989753723,0.4937193989753723,-2.6651831347503907,-0.0007669904152862728,-0.0007669904152862728,-9.286281812112063e-12,1.3500628471374512,1.3647634983062744,-4.967055792212486,0.0028762139845639467,0.0028762139845639467,7.1020221736136236e-12
0.8600000000000007,0.38239693792900603,0.38182321876505326,-0.07767427176159965,-0.07838598069070643,0.07859425126577138,0.07850217594211735,0.004084223881363869,0.004084223881363869,1.1401559069976637e-11,-0.8711572885513306,-0.8711572885513306,-6.968878172222957,0.4937193989753723,0.4937193989753723,-2.6651831347503907,-0.0007669904152862728,-0.0007669904152862728,-9.286281812112063e-12,1.3500628471374512,1.3647634983062744,-4.967055792212486,0.0028762139845639467,0.0028762139845639467,7.1020221736136236e-12
0.8650000000000007,0.38239693792900603,0.38182321876505326,-0.07767427176159965,-0.07838598069070643,0.07859425126577138,0.07850217594211735,0.004084223881363869,0.004084223881363869,1.1401559069976637e-11,-0.8711572885513306,-0.8711572885513306,-6.968878172222957,0.4937193989753723,0.4937193989753723,-2.6651831347503907,-0.0007669904152862728,-0.0007669904152862728,-9.286281812112063e-12,1.3500628471374512,1.3647634983062744,-4.967055792212486,0.0028762139845639467,0.0028762139845639467,7.1020221736136236e-12
0.8700000000000007,0.38239693792900603,0.38182321876505326,-0.07767427176159965,-0.07838598069070643,0.07859425126577138,0.07850217594211735,0.004084223881363869,0.004084223881363869,1.1401559069976637e-11,-0.8711572885513306,-0.8711572885513306,-6.968878172222957,0.4937193989753723,0.4937193989753723,-2.6651831347503907,-0.0007669904152862728,-0.0007669904152862728,-9.286281812112063e-12,1.3500628471374512,1.3647634983062744,-4.967055792212486,0.0028762139845639467,0.0028762139845639467,7.1020221736136236e-12
0.8750000000000007,0.38239693792900603,0.38182321876505326,-0.07767427176159965,-0.07838598069070643,0.07859425126577138,0.07850217594211735,0.004084223881363869,0.004084223881363869,1.1401559069976637e-11,-0.8711572885513306,-0.8711572885513306,-6.968878172222957,0.4937193989753723,0.4937193989753723,-2.6651831347503907,-0.0007669904152862728,-0.0007669904152862728,-9.286281812112063e-12,1.3500628471374512,1.3647634983062744,-4.967055792212486,0.0028762139845639467,0.0028762139845639467,7.1020221736136236e-12
0.8800000000000007,0.38239693792900603,0.38182321876505326,-0.07767427176159965,-0.07838598069070643,0.07859425126577138,0.07850217594211735,0.004084223881363869,0.004084223881363869,1.1401559069976637e-11,-0.8711572885513306,-0.8711572885513306,-6.968878172222957,0.4937193989753723,0.4937193989753723,-2.6651831347503907,-0.0007669904152862728,-0.0007669904152862728,-9.286281812112063e-12,1.3500628471374512,1.3647634983062744,-4.967055792212486,0.0028762139845639467,0.0028762139845639467,7.1020221736136236e-12
0.8850000000000007,0.38239693792900603,0.38182321876505326,-0.07767427176159965,-0.07838598069070643,0.07859425126577138,0.07850217594211735,0.004084223881363869,0.004084223881363869,1.1401559069976637e-11,-0.8711572885513306,-0.8711572885513306,-6.968878172222957,0.4937193989753723,0.4937193989753723,-2.6651831347503907,-0.0007669904152862728,-0.0007669904152862728,-9.286281812112063e-12,1.3500628471374512,1.3647634983062744,-4.967055792212486,0.0028762139845639467,0.0028762139845639467,7.1020221736136236e-12
0.8900000000000007,0.38239693792900603,0.38182321876505326,-0.07767427176159965,-0.07838598069070643,0.07859425126577138,0.07850217594211735,0.004084223881363869,0.004084223881363869,1.1401559069976637e-11,-0.8711572885513306,-0.8711572885513306,-6.968878172222957,0.4937193989753723,0.4937193989753723,-2.6651831347503907,-0.0007669904152862728,-0.0007669904152862728,-9.286281812112063e-12,1.3500628471374512,1.3647634983062744,-4.967055792212486,0.0028762139845639467,0.0028762139845639467,7.1020221736136236e-12
0.8950000000000007,0.38239693792900603,0.38182321876505326,-0.07767427176159965,-0.07838598069070643,0.07859425126577138,0.07850217594211735,0.004084223881363869,0.004084223881363869,1.1401559069976637e-11,-0.8711572885513306,-0.8711572885513306,-6.968878172222957,0.4937193989753723,0.4937193989753723,-2.6651831347503907,-0.0007669904152862728,-0.0007669904152862728,-9.286281812112063e-12,1.3500628471374512,1.3647634983062744,-4.967055792212486,0.0028762139845639467,0.0028762139845639467,7.1020221736136236e-12
0.9000000000000007,0.38239693792900603,0.38182321876505326,-0.07767427176159965,-0.07838598069070643,0.07859425126577138,0.07850217594211735,0.004084223881363869,0.004084223881363869,1.1401559069976637e-11,-0.8711572885513306,-0.8711572885513306,-6.968878172222957,0.4937193989753723,0.4937193989753723,-2.6651831347503907,-0.0007669904152862728,-0.0007669904152862728,-9.286281812112063e-12,1.3500628471374512,1.3647634983062744,-4.967055792212486,0.0028762139845639467,0.0028762139845639467,7.1020221736136236e-12
0.9050000000000007,0.38239693792900603,0.38182321876505326,-0.07767427176159965,-0.07838598069070643,0.07859425126577138,0.07850217594211735,0.004084223881363869,0.004084223881363869,1.1401559069976637e-11,-0.8711572885513306,-0.8711572885513306,-6.968878172222957,0.4937193989753723,0.4937193989753723,-2.6651831347503907,-0.0007669904152862728,-0.0007669904152862728,-9.286281812112063e-12,1.3500628471374512,1.3647634983062744,-4.967055792212486,0.0028762139845639467,0.0028762139845639467,7.1020221736136236e-12
0.9100000000000007,0.38239693792900603,0.38182321876505326,-0.07767427176159965,-0.07838598069070643,0.07859425126577138,0.07850217594211735,0.004084223881363869,0.004084223881363869,1.1401559069976637e-11,-0.8711572885513306,-0.8711572885513306,-6.968878172222957,0.4937193989753723,0.4937193989753723,-2.6651831347503907,-0.0007669904152862728,-0.0007669904152862728,-9.286281812112063e-12,1.3500628471374512,1.3647634983062744,-4.967055792212486,0.0028762139845639467,0.0028762139845639467,7.1020221736136236e-12
0.9150000000000007,0.38239693792900603,0.38182321876505326,-0.07767427176159965,-0.07838598069070643,0.07859425126577138,0.07850217594211735,0.004084223881363869,0.004084223881363869,1.1401559069976637e-11,-0.8711572885513306,-0.8711572885513306,-6.968878172222957,0.4937193989753723,0.4937193989753723,-2.6651831347503907,-0.0007669904152862728,-0.0007669904152862728,-9.286281812112063e-12,1.3500628471374512,1.3647634983062744,-4.967055792212486,0.0028762139845639467,0.0028762139845639467,7.1020221736136236e-12
0.9200000000000007,0.38239693792900603,0.38182321876505326,-0.07767427176159965,-0.07838598069070643,0.07859425126577138,0.07850217594211735,0.004084223881363869,0.004084223881363869,1.1401559069976637e-11,-0.8711572885513306,-0.8711572885513306,-6.968878172222957,0.4937193989753723,0.4937193989753723,-2.6651831347503907,-0.0007669904152862728,-0.0007669904152862728,-9.286281812112063e-12,1.3500628471374512,1.3647634983062744,-4.967055792212486,0.0028762139845639467,0.0028762139845639467,7.1020221736136236e-12
0.9250000000000007,0.38239693792900603,0.38182321876505326,-0.07767427176159965,-0.07838598069070643,0.07859425126577138,0.07850217594211735,0.004084223881363869,0.004084223881363869,1.1401559069976637e-11,-0.8711572885513306,-0.8711572885513306,-6.968878172222957,0.4937193989753723,0.4937193989753723,-2.6651831347503907,-0.0007669904152862728,-0.0007669904152862728,-9.286281812112063e-12,1.3500628471374512,1.3647634983062744,-4.967055792212486,0.0028762139845639467,0.0028762139845639467,7.1020221736136236e-12
0.9300000000000007,0.38239693792900603,0.38182321876505326,-0.07767427176159965,-0.07838598069070643,0.07859425126577138,0.07850217594211735,0.004084223881363869,0.004084223881363869,1.1401559069976637e-11,-0.8711572885513306,-0.8711572885513306,-6.968878172222957,0.4937193989753723,0.4937193989753723,-2.6651831347503907,-0.0007669904152862728,-0.0007669904152862728,-9.286281812112063e-12,1.3500628471374512,1.3647634983062744,-4.967055792212486,0.0028762139845639467,0.0028762139845639467,7.1020221736136236e-12
0.9350000000000007,0.38239693792900603,0.38182321876505326,-0.07767427176159965,-0.07838598069070643,0.07859425126577138,0.07850217594211735,0.004084223881363869,0.004084223881363869,1.1401559069976637e-11,-0.8711572885513306,-0.8711572885513306,-6.968878172222957,0.4937193989753723,0.4937193989753723,-2.6651831347503907,-0.0007669904152862728,-0.0007669904152862728,-9.286281812112063e-12,1.3500628471374512,1.3647634983062744,-4.967055792212486,0.0028762139845639467,0.0028762139845639467,7.1020221736136236e-12
0.9400000000000007,0.38239693792900603,0.38182321876505326,-0.07767427176159965,-0.07838598069070643,0.07859425126577138,0.07850217594211735,0.004084223881363869,0.004084223881363869,1.1401559069976637e-11,-0.8711572885513306,-0.8711572885513306,-6.968878172222957,0.4937193989753723,0.4937193989753723,-2.6651831347503907,-0.0007669904152862728,-0.0007669904152862728,-9.286281812112063e-12,1.3500628471374512,1.3647634983062744,-4.967055792212486,0.0028762139845639467,0.0028762139845639467,7.1020221736136236e-12
0.9450000000000007,0.3826218551332887,0.38182321876505326,-0.07738997841689255,-0.07838598069070643,0.07863251022700021,0.07850217594211735,0.004084223881363869,0.004084223881363869,1.1401559069976637e-11,-0.8711572885513306,-0.8711572885513306,-6.968878172222957,0.4937193989753723,0.4937193989753723,-2.6651831347503907,-0.0007669904152862728,-0.0007669904152862728,-9.286281812112063e-12,1.3442305326461792,1.3647634983062744,-4.945992199927568,0.0028762139845639467,0.0028762139845639467,7.1020221736136236e-12
0.9500000000000007,0.3826218551332887,0.38182321876505326,-0.07738997841689255,-0.07838598069070643,0.07863251022700021,0.07850217594211735,0.004084223881363869,0.004084223881363869,1.1401559069976637e-11,-0.8711572885513306,-0.8711572885513306,-6.968878172222957,0.4937193989753723,0.4937193989753723,-2.6651831347503907,-0.0007669904152862728,-0.0007669904152862728,-9.286281812112063e-12,1.3442305326461792,1.3647634983062744,-4.945992199927568,0.0028762139845639467,0.0028762139845639467,7.1020221736136236e-12
0.9550000000000007,0.3826218551332887,0.38182321876505326,-0.07738997841689255,-0.07838598069070643,0.07863251022700021,0.07850217594211735,0.004084223881363869,0.004084223881363869,1.1401559069976637e-11,-0.8711572885513306,-0.8711572885513306,-6.968878172222957,0.4937193989753723,0.4937193989753723,-2.6651831347503907,-0.0007669904152862728,-0.0007669904152862728,-9.286281812112063e-12,1.3442305326461792,1.3647634983062744,-4.945992199927568,0.0028762139845639467,0.0028762139845639467,7.1020221736136236e-12
0.9600000000000007,0.3826218551332887,0.38182321876505326,-0.07738997841689255,-0.07838598069070643,0.07863251022700021,0.07850217594211735,0.004084223881363869,0.004084223881363869,1.1401559069976637e-11,-0.8711572885513306,-0.8711572885513306,-6.968878172222957,0.4937193989753723,0.4937193989753723,-2.6651831347503907,-0.0007669904152862728,-0.0007669904152862728,-9.286281812112063e-12,1.3442305326461792,1.3647634983062744,-4.945992199927568,0.0028762139845639467,0.0028762139845639467,7.1020221736136236e-12
0.9650000000000007,0.3826218551332887,0.38182321876505326,-0.07738997841689255,-0.07838598069070643,0.07863251022700021,0.07850217594211735,0.004084223881363869,0.004084223881363869,1.1401559069976637e-11,-0.8711572885513306,-0.8711572885513306,-6.968878172222957,0.4937193989753723,0.4937193989753723,-2.6651831347503907,-0.0007669904152862728,-0.0007669904152862728,-9.286281812112063e-12,1.3442305326461792,1.3647634983062744,-4.945992199927568,0.0028762139845639467,0.0028762139845639467,7.1020221736136236e-12
