armandomm09/Control-Challenge-4.1/trials/trial_ctc_pert.csv
time,p_x,p_des_x,p_y,p_des_y,p_z,p_des_z,q_1,q_des_1,tau_1,q_2,q_des_2,tau_2,q_3,q_des_3,tau_3,q_4,q_des_4,tau_4,q_5,q_des_5,tau_5,q_6,q_des_6,tau_6
0.0,0.2801455189347575,0.28,-0.0020920571080890837,0.0,0.2000593176349533,0.3,-0.007457063999027014,0.0,-10.0,0.4879765510559082,0.0,-10.0,0.9893850088119507,0.0,-10.0,-0.0001917476038215682,0.0,2.3892399343274233,0.49183258414268494,0.0,-10.0,-0.03317233547568321,0.0,-5.354041723906995
0.02,0.2801455189347575,0.28,-0.0020920571080890837,0.0,0.2000593176349533,0.3,-0.007457063999027014,-0.13361776130836275,10.0,0.4879765510559082,-0.13361776130836275,10.0,0.9893850088119507,-0.020173437687047664,-10.0,-0.0001917476038215682,-0.006111034396763756,5.966432042103604,0.49183258414268494,-1.2033842279538352,10.0,-0.03317233547568321,0.0,-5.354041723906995
0.04,0.2801455189347575,0.28,-0.0020920571080890837,0.0,0.2000593176349533,0.3,-0.007457063999027014,-0.1799897576251413,10.0,0.4879765510559082,-0.1799897576251413,-10.0,0.9893850088119507,-0.04616063653101965,-10.0,-0.0001917476038215682,-0.010113279011837232,3.3844465911248314,0.49183258414268494,-1.66065160390536,-10.0,-0.03317233547568321,0.0,-5.354041723906995
0.06,0.2801455189347575,0.28,-0.0020920571080890837,0.0,0.2000593176349533,0.3,-0.007457063999027014,-0.2031832543436036,10.0,0.4879765510559082,-0.20318325431187723,-10.0,0.9893850088119507,-0.06812890471138416,-10.0,-0.0001917476038215682,-0.01398712575245828,-5.195111595109722,0.49183258414268494,-2.02192212318762,-10.0,-0.03317233547568321,0.0,-5.354041723906995
0.08,0.2801455189347575,0.28,-0.0020920571080890837,0.0,0.2000593176349533,0.3,-0.007457063999027014,-0.21052214750714887,-10.0,0.4879765510559082,-0.21052214749133405,-10.0,0.9893850088119507,-0.08364293547502274,-10.0,-0.0001917476038215682,-0.022509326098706612,-10.0,0.49183258414268494,-2.346535218504122,10.0,-0.03317233547568321,0.0,-5.354041723906995
0.1,0.2801455189347575,0.28,-0.0020920571080890837,0.0,0.2000593176349533,0.3,-0.007457063999027014,-0.2683206598642297,10.0,0.4879765510559082,-0.2683206598488893,10.0,0.9893850088119507,-0.10203466186858298,-10.0,-0.0001917476038215682,-0.04267748084374999,-5.297072236685478,0.49183258414268494,-2.0712094881984764,-10.0,-0.03317233547568321,0.0,-5.354041723906995
0.12000000000000001,0.2801455189347575,0.28,-0.0020920571080890837,0.0,0.2000593176349533,0.3,-0.007457063999027014,-0.2691998734985833,-10.0,0.4879765510559082,-0.26919987348753566,-10.0,0.9893850088119507,-0.11084756112249433,-10.0,-0.0001917476038215682,-0.06240375877062617,-10.0,0.49183258414268494,-2.284611772672461,10.0,-0.03317233547568321,0.0,-5.354041723906995
0.14,0.280128277165263,0.28,-0.0020779965510916766,0.0,0.20116089768888987,0.3,-0.00740720983594656,-0.30127202554647625,10.0,0.48406681418418884,-0.30127202554437754,10.0,0.9894291162490845,-0.12120297152311013,-10.0,-0.0001917476038215682,-0.10704091806242347,-10.0,0.49494847655296326,-2.1367415922320876,-10.0,-0.03317233547568321,0.0,-5.354041723906995
0.16,0.280128277165263,0.28,-0.0020779965510916766,0.0,0.20116089768888987,0.3,-0.00740720983594656,-0.30127143123075684,-10.0,0.48406681418418884,-0.30127143129303835,-10.0,0.9894291162490845,-0.12165633621439788,-10.0,-0.0001917476038215682,-0.16071131179531362,-10.0,0.49494847655296326,-2.2608937755952176,10.0,-0.03317233547568321,0.0,-5.354041723906995
0.18,0.280128277165263,0.28,-0.0020779965510916766,0.0,0.20116089768888987,0.3,-0.00740720983594656,-0.3205431653115587,10.0,0.48406681418418884,-0.3205431653698094,-10.0,0.9894291162490845,-0.12143341913485546,-10.0,-0.0001917476038215682,-0.2559661381800407,-10.0,0.49494847655296326,-2.1706661904065863,-10.0,-0.03317233547568321,0.0,-5.354041723906995
0.19999999999999998,0.280128277165263,0.28,-0.0020779965510916766,0.0,0.20116089768888987,0.3,-0.00740720983594656,-0.32208718341104325,-10.0,0.48406681418418884,-0.32208718346677623,-10.0,0.9894291162490845,-0.11127012585309687,-10.0,-0.0001917476038215682,-0.3706387540836987,-10.0,0.49494847655296326,-2.233951159898192,10.0,-0.03317233547568321,0.0,-5.354041723906995
0.21999999999999997,0.280128277165263,0.28,-0.0020779965510916766,0.0,0.20116089768888987,0.3,-0.00740720983594656,-0.3317459378943768,-10.0,0.48406681418418884,-0.3317459379505969,-10.0,0.9894291162490845,-0.10002891568214087,-10.0,-0.0001917476038215682,-0.5198528444430173,-10.0,0.49494847655296326,-2.210740429610156,-10.0,-0.03317233547568321,0.0,-5.354041723906995
0.23999999999999996,0.27991270677846414,0.28,-0.0018356955796978332,0.0,0.20647173954194278,0.3,-0.006504078395664692,-0.3373815291618149,-10.0,0.466629296541214,-0.33738152921634845,-10.0,0.9917665123939514,-0.08778127340100078,-10.0,-0.0005752427969127893,-0.664597266483998,-10.0,0.517638623714447,-2.2209346854743957,-10.0,-0.03317233547568321,0.0,-5.354041723906995
0.25999999999999995,0.27991270677846414,0.28,-0.0018356955796978332,0.0,0.20647173954194278,0.3,-0.006504078395664692,-0.34317333330446215,-10.0,0.466629296541214,-0.34317333335767347,-10.0,0.9917665123939514,-0.0790395639301489,-10.0,-0.0005752427969127893,-0.7921379103903836,-10.0,0.517638623714447,-2.2238239280694176,-10.0,-0.03317233547568321,0.0,-5.354041723906995
0.27999999999999997,0.27991270677846414,0.28,-0.0018356955796978332,0.0,0.20647173954194278,0.3,-0.006504078395664692,-0.3484259628460559,-10.0,0.466629296541214,-0.34842596289747496,-10.0,0.9917665123939514,-0.07400079745697553,-10.0,-0.0005752427969127893,-0.8964684408291094,-10.0,0.517638623714447,-2.2242436588705927,-10.0,-0.03317233547568321,0.0,-5.354041723906995
0.3,0.27991270677846414,0.28,-0.0018356955796978332,0.0,0.20647173954194278,0.3,-0.006504078395664692,-0.3530965810651999,-10.0,0.466629296541214,-0.353096581099718,-10.0,0.9917665123939514,-0.07198391659572376,-10.0,-0.0005752427969127893,-0.979854140028648,-10.0,0.517638623714447,-2.22206656112055,-10.0,-0.03317233547568321,0.0,-5.354041723906995
0.32,0.27991270677846414,0.28,-0.0018356955796978332,0.0,0.20647173954194278,0.3,-0.006504078395664692,-0.3572072927950845,-10.0,0.466629296541214,-0.35720729284118213,-10.0,0.9917665123939514,-0.07213097180225228,-10.0,-0.0005752427969127893,-1.0463010801484014,-10.0,0.517638623714447,-2.217597290149736,-10.0,-0.03317233547568321,0.0,-5.354041723906995
0.34,0.27984403811503283,0.28,-0.0015614442543649984,0.0,0.21042148574749384,0.3,-0.005459053907543421,-0.3608112162912538,-10.0,0.4535425007343292,-0.3608112163359751,-10.0,0.9933043122291565,-0.07371868170899583,-10.0,-0.0011504855938255787,-1.0995341388239532,-10.0,0.5313805341720581,-2.211331301658702,-10.0,-0.03317233547568321,0.0,-5.354041723906995
0.36000000000000004,0.27984403811503283,0.28,-0.0015614442543649984,0.0,0.21042148574749384,0.3,-0.005459053907543421,-0.36397043231105064,-10.0,0.4535425007343292,-0.36397043237295146,-10.0,0.9933043122291565,-0.07620467296573559,-10.0,-0.0011504855938255787,-1.1425539755934557,-10.0,0.5313805341720581,-2.2037913856782354,-10.0,-0.03317233547568321,0.0,-5.354041723906995
0.38000000000000006,0.27984403811503283,0.28,-0.0015614442543649984,0.0,0.21042148574749384,0.3,-0.005459053907543421,-0.36674479282881717,-10.0,0.4535425007343292,-0.36674479288046563,-10.0,0.9933043122291565,-0.07920153365234103,-10.0,-0.0011504855938255787,-1.1776674510805778,-10.0,0.5313805341720581,-2.1954507541645683,-10.0,-0.03317233547568321,0.0,-5.354041723906995
0.4000000000000001,0.27984403811503283,0.28,-0.0015614442543649984,0.0,0.21042148574749384,0.3,-0.005459053907543421,-0.36918747008778746,-10.0,0.4535425007343292,-0.3691874701379439,-10.0,0.9933043122291565,-0.08244026655815345,-10.0,-0.0011504855938255787,-1.2066210920887184,-10.0,0.5313805341720581,-2.18670382564568,-10.0,-0.03317233547568321,0.0,-5.354041723906995
0.4200000000000001,0.27984403811503283,0.28,-0.0015614442543649984,0.0,0.21042148574749384,0.3,-0.005459053907543421,-0.37134395088861955,-10.0,0.4535425007343292,-0.3713439509228379,-10.0,0.9933043122291565,-0.08573861688054116,-10.0,-0.0011504855938255787,-1.2307334554328733,-10.0,0.5313805341720581,-2.177861033477424,-10.0,-0.03317233547568321,0.0,-5.354041723906995
0.4400000000000001,0.2796776925913219,0.28,-0.0013505211613797322,0.0,0.2144920508561074,0.3,-0.004682476166635752,-0.3732525466605186,-10.0,0.4401949644088745,-0.37325254669371044,-10.0,0.9950856566429138,-0.08897661731733161,-10.0,-0.0013422331539914012,-1.2510029152689404,-10.0,0.5467203259468079,-2.169155056293256,-10.0,-0.03317233547568321,0.0,-5.354041723906995
0.46000000000000013,0.2796776925913219,0.28,-0.0013505211613797322,0.0,0.2144920508561074,0.3,-0.004682476166635752,-0.3749454226903369,-10.0,0.4401949644088745,-0.3749454227225916,-10.0,0.9950856566429138,-0.09207845359710143,-10.0,-0.0013422331539914012,-1.2681899513480837,-10.0,0.5467203259468079,-2.1607518056403316,-10.0,-0.03317233547568321,0.0,-5.354041723906995
0.48000000000000015,0.2796776925913219,0.28,-0.0013505211613797322,0.0,0.2144920508561074,0.3,-0.004682476166635752,-0.37644968297764025,-10.0,0.4401949644088745,-0.3764496830088701,-10.0,0.9950856566429138,-0.09499924376029813,-10.0,-0.0013422331539914012,-1.2828783782396684,-10.0,0.5467203259468079,-2.152762644977946,-10.0,-0.03317233547568321,0.0,-5.354041723906995
0.5000000000000001,0.2796776925913219,0.28,-0.0013505211613797322,0.0,0.2144920508561074,0.3,-0.004682476166635752,-0.3777883273535624,-10.0,0.4401949644088745,-0.3777883273776941,-10.0,0.9950856566429138,-0.09771548794025871,-10.0,-0.0013422331539914012,-1.295520424307072,-10.0,0.5467203259468079,-2.1452560364114253,-10.0,-0.03317233547568321,0.0,-5.354041723906995
0.5200000000000001,0.2796776925913219,0.28,-0.0013505211613797322,0.0,0.2144920508561074,0.3,-0.004682476166635752,-0.3789810323309514,-10.0,0.4401949644088745,-0.378981032354296,-10.0,0.9950856566429138,-0.10021821751976887,-10.0,-0.0013422331539914012,-1.3064698009646738,-10.0,0.5467203259468079,-2.1382677851427037,-10.0,-0.03317233547568321,0.0,-5.354041723906995
0.5400000000000001,0.2795958844443131,0.28,-0.0011725406017162696,0.0,0.2183414681907021,0.3,-0.004020947031676769,-0.3800447650510106,-10.0,0.4279231131076813,-0.38004476507366264,-10.0,0.9972600936889648,-0.10250811450262715,-10.0,-0.0015339808305725455,-1.3160059677324485,-10.0,0.5606220364570618,-2.131809601741912,-10.0,-0.03317233547568321,0.0,-5.354041723906995
0.5600000000000002,0.2795958844443131,0.28,-0.0011725406017162696,0.0,0.2183414681907021,0.3,-0.004020947031676769,-0.38099425906246187,-10.0,0.4279231131076813,-0.38099425909597356,-10.0,0.9972600936889648,-0.10459206143123842,-10.0,-0.0015339808305725455,-1.3243519852997807,-10.0,0.5606220364570618,-2.1258760008373314,-10.0,-0.03317233547568321,0.0,-5.354041723906995
0.5800000000000002,0.2795958844443131,0.28,-0.0011725406017162696,0.0,0.2183414681907021,0.3,-0.004020947031676769,-0.38184238303843354,-10.0,0.4279231131076813,-0.3818423830766851,-10.0,0.9972600936889648,-0.10648072496556715,-10.0,-0.0015339808305725455,-1.3316877092827415,-10.0,0.5606220364570618,-2.1204497021974036,-10.0,-0.03317233547568321,0.0,-5.354041723906995
0.6000000000000002,0.2795958844443131,0.28,-0.0011725406017162696,0.0,0.2183414681907021,0.3,-0.004020947031676769,-0.3826004291044722,-10.0,0.4279231131076813,-0.38260042914157616,-10.0,0.9972600936889648,-0.1081868826013051,-10.0,-0.0015339808305725455,-1.3381595967159268,-10.0,0.5606220364570618,-2.1155057576771776,-10.0,-0.03317233547568321,0.0,-5.354041723906995
0.6200000000000002,0.2795958844443131,0.28,-0.0011725406017162696,0.0,0.2183414681907021,0.3,-0.004020947031676769,-0.3832783417338192,-10.0,0.4279231131076813,-0.38327834176975717,-10.0,0.9972600936889648,-0.1097242807368725,-10.0,-0.0015339808305725455,-1.3438880438042706,-10.0,0.5606220364570618,-2.111014635214899,-10.0,-0.03317233547568321,0.0,-5.354041723906995
0.6400000000000002,0.27960234102935,0.28,-0.0009963225943077005,0.0,0.22244844652913207,0.3,-0.0033632528502494097,-0.38388490266863634,-10.0,0.41523709893226624,-0.38388490269788283,-10.0,1.0001343488693237,-0.11110687040568787,-10.0,-0.001725728390738368,-1.348972917345841,-10.0,0.5746835470199585,-2.1069444728787605,-10.0,-0.03317233547568321,0.0,-5.354041723906995
0.6600000000000003,0.27960234102935,0.28,-0.0009963225943077005,0.0,0.22244844652913207,0.3,-0.0033632528502494097,-0.38442788297889946,-10.0,0.41523709893226624,-0.3844278830072686,-10.0,1.0001343488693237,-0.112348309625904,-10.0,-0.001725728390738368,-1.3534977576728744,-10.0,0.5746835470199585,-2.1032626871209366,-10.0,-0.03317233547568321,0.0,-5.354041723906995
0.6800000000000003,0.27960234102935,0.28,-0.0009963225943077005,0.0,0.22244844652913207,0.3,-0.0033632528502494097,-0.38491417022435054,-10.0,0.41523709893226624,-0.38491417025192076,-10.0,1.0001343488693237,-0.11346165249887977,-10.0,-0.001725728390738368,-1.3575329987056315,-10.0,0.5746835470199585,-2.0999370878149644,-10.0,-0.03317233547568321,0.0,-5.354041723906995
0.7000000000000003,0.27960234102935,0.28,-0.0009963225943077005,0.0,0.22244844652913207,0.3,-0.0033632528502494097,-0.3853498762715938,-10.0,0.41523709893226624,-0.38534987630379475,-10.0,1.0001343488693237,-0.11445916787043192,-10.0,-0.001725728390738368,-1.3611384561108226,-10.0,0.5746835470199585,-2.0969366227828057,-10.0,-0.03317233547568321,0.0,-5.354041723906995
0.7200000000000003,0.27960234102935,0.28,-0.0009963225943077005,0.0,0.22244844652913207,0.3,-0.0033632528502494097,-0.38574042981526546,-10.0,0.41523709893226624,-0.38574042984655227,-10.0,1.0001343488693237,-0.11535224677566777,-10.0,-0.001725728390738368,-1.364365266493088,-10.0,0.5746835470199585,-2.0942318485024076,-10.0,-0.03317233547568321,0.0,-5.354041723906995
0.7400000000000003,0.27948893302466654,0.28,-0.0008531628479455741,0.0,0.22624308977399427,0.3,-0.002847451949492097,-0.38609065644801516,-10.0,0.4038377106189728,-0.3860906564838033,-10.0,1.0032234191894531,-0.11615136975170728,-10.0,-0.001725728390738368,-1.367257411942186,-10.0,0.5900233387947083,-2.0917952016674355,-10.0,-0.03317233547568321,0.0,-5.354041723906995
0.7600000000000003,0.27948893302466654,0.28,-0.0008531628479455741,0.0,0.22624308977399427,0.3,-0.002847451949492097,-0.38640484848105267,-10.0,0.4038377106189728,-0.386404848521176,-10.0,1.0032234191894531,-0.11686611359573833,-10.0,-0.001725728390738368,-1.3698529289009256,-10.0,0.5900233387947083,-2.089601128650011,-10.0,-0.03317233547568321,0.0,-5.354041723906995
0.7800000000000004,0.27948893302466654,0.28,-0.0008531628479455741,0.0,0.22624308977399427,0.3,-0.002847451949492097,-0.38668682608002825,-10.0,0.4038377106189728,-0.38668682611345034,-10.0,1.0032234191894531,-0.11750518326028567,-10.0,-0.001725728390738368,-1.3721848749495653,-10.0,0.5900233387947083,-2.087626115712836,-10.0,-0.03317233547568321,0.0,-5.354041723906995
0.8000000000000004,0.27948893302466654,0.28,-0.0008531628479455741,0.0,0.22624308977399427,0.3,-0.002847451949492097,-0.3869399909947928,-10.0,0.4038377106189728,-0.38693999102721227,-10.0,1.0032234191894531,-0.11807645892658779,-10.0,-0.001725728390738368,-1.374282108482951,-10.0,0.5900233387947083,-2.0858486518595503,-10.0,-0.03317233547568321,0.0,-5.354041723906995
0.8200000000000004,0.27948893302466654,0.28,-0.0008531628479455741,0.0,0.22624308977399427,0.3,-0.002847451949492097,-0.38716737394439615,-10.0,0.4038377106189728,-0.3871673739705309,-10.0,1.0032234191894531,-0.11858705139164112,-10.0,-0.001725728390738368,-1.3761699226017232,-10.0,0.5900233387947083,-2.084249147792376,-10.0,-0.03317233547568321,0.0,-5.354041723906995
0.8400000000000004,0.279535109848673,0.28,-0.0006987365878056591,0.0,0.2303995654397152,0.3,-0.0023143934085965157,-0.38737167639028264,-10.0,0.3916272222995758,-0.38737167642088444,-10.0,1.0069490671157837,-0.11904336111055207,-10.0,-0.0015339808305725455,-1.3778705645755656,-10.0,0.604164719581604,-2.082809827951034,-10.0,-0.03317233547568321,0.0,-5.354041723906995
0.8600000000000004,0.279535109848673,0.28,-0.0006987365878056591,0.0,0.2303995654397152,0.3,-0.0023143934085965157,-0.3875553075118468,-10.0,0.3916272222995758,-0.3875553075414794,-10.0,1.0069490671157837,-0.119451137794989,-10.0,-0.0015339808305725455,-1.3794036648728918,-10.0,0.604164719581604,-2.0815146077283577,-10.0,-0.03317233547568321,0.0,-5.354041723906995
0.8800000000000004,0.279535109848673,0.28,-0.0006987365878056591,0.0,0.2303995654397152,0.3,-0.0023143934085965157,-0.3877204168495492,-10.0,0.3916272222995758,-0.38772041687817593,-10.0,1.0069490671157837,-0.11981553854272486,-10.0,-0.0015339808305725455,-1.3807865939659434,-10.0,0.604164719581604,-2.0803489644709887,-10.0,-0.03317233547568321,0.0,-5.354041723906995
0.9000000000000005,0.279535109848673,0.28,-0.0006987365878056591,0.0,0.2303995654397152,0.3,-0.0023143934085965157,-0.3878689232382812,-10.0,0.3916272222995758,-0.38786892326070455,-10.0,1.0069490671157837,-0.12014118325831409,-10.0,-0.0015339808305725455,-1.3820347612725736,-10.0,0.604164719581604,-2.0792998080297465,-10.0,-0.03317233547568321,0.0,-5.354041723906995
0.9200000000000005,0.279535109848673,0.28,-0.0006987365878056591,0.0,0.2303995654397152,0.3,-0.0023143934085965157,-0.3880025403903947,-10.0,0.3916272222995758,-0.38800254041215265,-10.0,1.0069490671157837,-0.12043220663255122,-10.0,-0.0015339808305725455,-1.383161867148207,-10.0,0.604164719581604,-2.0783553548302045,-10.0,-0.03317233547568321,0.0,-5.354041723906995
0.9400000000000005,0.2793575968094349,0.28,-0.0006086063509593973,0.0,0.23418636786643474,0.3,-0.0019385681953281164,-0.38812279958585105,-10.0,0.3808414041996002,-0.3881227996122815,-10.0,1.010787844657898,-0.120692306333352,-10.0,-0.0019174759509041905,-1.3841801167403769,-10.0,0.6210225224494934,-2.077505007843588,-10.0,-0.03317233547568321,0.0,-5.354041723906995
0.9600000000000005,0.2793575968094349,0.28,-0.0006086063509593973,0.0,0.23418636786643474,0.3,-0.0019385681953281164,-0.38823106976057514,-10.0,0.3808414041996002,-0.3882310697862127,-10.0,1.010787844657898,-0.12092478728178654,-10.0,-0.0019174759509041905,-1.3851004024416624,-10.0,0.6210225224494934,-2.0767392439841172,-10.0,-0.03317233547568321,0.0,-5.354041723906995
0.9800000000000005,0.2793575968094349,0.28,-0.0006086063509593973,0.0,0.23418636786643474,0.3,-0.0019385681953281164,-0.38832857529830955,-10.0,0.3808414041996002,-0.3883285753231343,-10.0,1.010787844657898,-0.12113260206174899,-10.0,-0.0019174759509041905,-1.3859324604244136,-10.0,0.6210225224494934,-2.076049509645526,-10.0,-0.03317233547568321,0.0,-5.354041723906995
1.0000000000000004,0.2793575968094349,0.28,-0.0006086063509593973,0.0,0.23418636786643474,0.3,-0.0019385681953281164,-0.3884164118302914,-10.0,0.3808414041996002,-0.3884164118544296,-10.0,1.010787844657898,-0.12131838761151388,-10.0,-0.0019174759509041905,-1.3866850056243483,-10.0,0.6210225224494934,-2.0754281246089246,-10.0,-0.03317233547568321,0.0,-5.354041723906995
1.0200000000000005,0.2793575968094349,0.28,-0.0006086063509593973,0.0,0.23418636786643474,0.3,-0.0019385681953281164,-0.3884955602333221,-10.0,0.3808414041996002,-0.38849556025673615,-10.0,1.010787844657898,-0.12148449839820136,-10.0,-0.0019174759509041905,-1.3873658486146518,-10.0,0.6210225224494934,-2.0748681942812865,-10.0,-0.03317233547568321,0.0,-5.354041723906995
1.0400000000000005,0.27947572886552463,0.28,-0.00047659442705593185,0.0,0.2383770399864092,0.3,-0.0014860439114272594,-0.38856689906273656,-10.0,0.36923491954803467,-0.3885668990854991,-10.0,1.0154281854629517,-0.12163303633084958,-10.0,-0.001725728390738368,-1.3879819973599168,-10.0,0.6348443627357483,-2.0743635298539482,-10.0,-0.03317233547568321,0.0,-5.354041723906995
1.0600000000000005,0.27947572886552463,0.28,-0.00047659442705593185,0.0,0.2383770399864092,0.3,-0.0014860439114272594,-0.38863121557914354,-10.0,0.36923491954803467,-0.388631215601274,-10.0,1.0154281854629517,-0.12176587764467171,-10.0,-0.001725728390738368,-1.3885397459386835,-10.0,0.6348443627357483,-2.0739085761052345,-10.0,-0.03317233547568321,0.0,-5.354041723906995
1.0800000000000005,0.27947572886552463,0.28,-0.00047659442705593185,0.0,0.2383770399864092,0.3,-0.0014860439114272594,-0.3886892155543763,-10.0,0.36923491954803467,-0.3886892155705441,-10.0,1.0154281854629517,-0.12188469703506913,-10.0,-0.001725728390738368,-1.3890447523844975,-10.0,0.6348443627357483,-2.0734983461732197,-10.0,-0.03317233547568321,0.0,-5.354041723906995
1.1000000000000005,0.27947572886552463,0.28,-0.00047659442705593185,0.0,0.2383770399864092,0.3,-0.0014860439114272594,-0.3887415319711984,-10.0,0.36923491954803467,-0.3887415319868811,-10.0,1.0154281854629517,-0.12199098927897,-10.0,-0.001725728390738368,-1.3895021070811044,-10.0,0.6348443627357483,-2.07312836284043,-10.0,-0.03317233547568321,0.0,-5.354041723906995
1.1200000000000006,0.27947572886552463,0.28,-0.00047659442705593185,0.0,0.2383770399864092,0.3,-0.0014860439114272594,-0.388788732780209,-10.0,0.36923491954803467,-0.38878873279547205,-10.0,1.0154281854629517,-0.12208608857838858,-10.0,-0.001725728390738368,-1.3899163930106946,-10.0,0.6348443627357483,-2.072794605796917,-10.0,-0.03317233547568321,0.0,-5.354041723906995
1.1400000000000006,0.27947572886552463,0.28,-0.00047659442705593185,0.0,0.2383770399864092,0.3,-0.0014860439114272594,-0.3888313277826847,-10.0,0.36923491954803467,-0.38883132779755514,-10.0,1.0154281854629517,-0.12217118585958386,-10.0,-0.001725728390738368,-1.3902917390739782,-10.0,0.6348443627357483,-2.072493464264246,-10.0,-0.03317233547568321,0.0,-5.354041723906995
1.1600000000000006,0.27947572886552463,0.28,-0.00047659442705593185,0.0,0.2383770399864092,0.3,-0.0014860439114272594,-0.38886977476583656,-10.0,0.36923491954803467,-0.38886977478031165,-10.0,1.0154281854629517,-0.12224734422254149,-10.0,-0.001725728390738368,-1.3906318672826241,-10.0,0.6348443627357483,-2.0722216945498695,-10.0,-0.03317233547568321,0.0,-5.354041723906995
1.1800000000000006,0.27947572886552463,0.28,-0.00047659442705593185,0.0,0.2383770399864092,0.3,-0.0014860439114272594,-0.3889044849663721,-10.0,0.36923491954803467,-0.3889044849804637,-10.0,1.0154281854629517,-0.12231551273516075,-10.0,-0.001725728390738368,-1.3909401346678385,-10.0,0.6348443627357483,-2.0719763820129398,-10.0,-0.03317233547568321,0.0,-5.354041723906995
1.2000000000000006,0.27947572886552463,0.28,-0.00047659442705593185,0.0,0.2383770399864092,0.3,-0.0014860439114272594,-0.3889358279361778,-10.0,0.36923491954803467,-0.38893582795513365,-10.0,1.0154281854629517,-0.12237653874152168,-10.0,-0.001725728390738368,-1.3912195705455348,-10.0,0.6348443627357483,-2.071754907017496,-10.0,-0.03317233547568321,0.0,-5.354041723906995
1.2200000000000006,0.27947572886552463,0.28,-0.00047659442705593185,0.0,0.2383770399864092,0.3,-0.0014860439114272594,-0.38896413589605794,-10.0,0.36923491954803467,-0.38896413591445234,-10.0,1.0154281854629517,-0.12243117884387787,-10.0,-0.001725728390738368,-1.391472909737065,-10.0,0.6348443627357483,-2.07155491444179,-10.0,-0.03317233547568321,0.0,-5.354041723906995
1.2400000000000007,0.27947572886552463,0.28,-0.00047659442705593185,0.0,0.2383770399864092,0.3,-0.0014860439114272594,-0.38898970759488033,-10.0,0.36923491954803467,-0.38898970761277357,-10.0,1.0154281854629517,-0.12248010869669379,-10.0,-0.001725728390738368,-1.391702622218007,-10.0,0.6348443627357483,-2.0713742863918694,-10.0,-0.03317233547568321,0.0,-5.354041723906995
1.2600000000000007,0.27947572886552463,0.28,-0.00047659442705593185,0.0,0.2383770399864092,0.3,-0.0014860439114272594,-0.38901281177535807,-10.0,0.36923491954803467,-0.3890128117979978,-10.0,1.0154281854629517,-0.12252393173784136,-10.0,-0.001725728390738368,-1.3919109395885119,-10.0,0.6348443627357483,-2.071211117798298,-10.0,-0.03317233547568321,0.0,-5.354041723906995
1.2800000000000007,0.27947572886552463,0.28,-0.00047659442705593185,0.0,0.2383770399864092,0.3,-0.0014860439114272594,-0.3890336902720346,-10.0,0.36923491954803467,-0.3890336902939879,-10.0,1.0154281854629517,-0.12256318697515547,-10.0,-0.001725728390738368,-1.3920998787741956,-10.0,0.6348443627357483,-2.0710636945634833,-10.0,-0.03317233547568321,0.0,-5.354041723906995
1.3000000000000007,0.27947572886552463,0.28,-0.00047659442705593185,0.0,0.2383770399864092,0.3,-0.0014860439114272594,-0.3890525607594689,-10.0,0.36923491954803467,-0.38905256078076356,-10.0,1.0154281854629517,-0.12259835593071741,-10.0,-0.001725728390738368,-1.3922712632814436,-10.0,0.6348443627357483,-2.0709304739852796,-10.0,-0.03317233547568321,0.0,-5.354041723906995
1.3200000000000007,0.27947572886552463,0.28,-0.00047659442705593185,0.0,0.2383770399864092,0.3,-0.0014860439114272594,-0.3890696192316404,-10.0,0.36923491954803467,-0.389069619246965,-10.0,1.0154281854629517,-0.1226298688262121,-10.0,-0.001725728390738368,-1.392426742194735,-10.0,0.6348443627357483,-2.0708100672738143,-10.0,-0.03317233547568321,0.0,-5.354041723906995
1.3400000000000007,0.27947572886552463,0.28,-0.00047659442705593185,0.0,0.2383770399864092,0.3,-0.0014860439114272594,-0.3890850422014203,-10.0,0.36923491954803467,-0.3890850422164083,-10.0,1.0154281854629517,-0.12265811010361075,-10.0,-0.001725728390738368,-1.392567807299531,-10.0,0.6348443627357483,-2.0707012238494946,-10.0,-0.03317233547568321,0.0,-5.354041723906995
1.3600000000000008,0.27947572886552463,0.28,-0.00047659442705593185,0.0,0.2383770399864092,0.3,-0.0014860439114272594,-0.3890989886932304,-10.0,0.36923491954803467,-0.3890989887077687,-10.0,1.0154281854629517,-0.12268342334313138,-10.0,-0.001725728390738368,-1.3926958084089225,-10.0,0.6348443627357483,-2.070602817310464,-10.0,-0.03317233547568321,0.0,-5.354041723906995
1.3800000000000008,0.27947572886552463,0.28,-0.00047659442705593185,0.0,0.2383770399864092,0.3,-0.0014860439114272594,-0.3891116020010544,-10.0,0.36923491954803467,-0.3891116020203843,-10.0,1.0154281854629517,-0.12270611564986313,-10.0,-0.001725728390738368,-1.3928119671688888,-10.0,0.6348443627357483,-2.0705138328472987,-10.0,-0.03317233547568321,0.0,-5.354041723906995
1.4000000000000008,0.27947572886552463,0.28,-0.00047659442705593185,0.0,0.2383770399864092,0.3,-0.0014860439114272594,-0.38912301128895854,-10.0,0.36923491954803467,-0.3891230113077592,-10.0,1.0154281854629517,-0.12272646156487758,-10.0,-0.001725728390738368,-1.3929173894686029,-10.0,0.6348443627357483,-2.0704333559671473,-10.0,-0.03317233547568321,0.0,-5.354041723906995
1.4200000000000008,0.27947572886552463,0.28,-0.00047659442705593185,0.0,0.2383770399864092,0.3,-0.0014860439114272594,-0.38913333300260705,-10.0,0.36923491954803467,-0.38913333301556635,-10.0,1.0154281854629517,-0.12274470655530993,-10.0,-0.001725728390738368,-1.3930130766304651,-10.0,0.6348443627357483,-2.0703605623681014,-10.0,-0.03317233547568321,0.0,-5.354041723906995
1.4400000000000008,0.27947572886552463,0.28,-0.00047659442705593185,0.0,0.2383770399864092,0.3,-0.0014860439114272594,-0.38914267214302206,-10.0,0.36923491954803467,-0.38914267215559983,-10.0,1.0154281854629517,-0.12276107012303497,-10.0,-0.001725728390738368,-1.3930999354561855,-10.0,0.6348443627357483,-2.0702947088875505,-10.0,-0.03317233547568321,0.0,-5.354041723906995
1.4600000000000009,0.2793831628197798,0.28,-0.0004043404162995738,0.0,0.24181000757309207,0.3,-0.0012233497109264135,-0.3891511234260043,-10.0,0.3600406348705292,-0.38915112343820474,-10.0,1.0196274518966675,-0.12277574858077213,-10.0,-0.001725728390738368,-1.3931787873057326,-10.0,0.6496248841285706,-2.070235125358033,-10.0,-0.03317233547568321,0.0,-5.354041723906995
1.4800000000000009,0.2793831628197798,0.28,-0.0004043404162995738,0.0,0.24181000757309207,0.3,-0.0012233497109264135,-0.38915877229969065,-10.0,0.3600406348705292,-0.38915877231147444,-10.0,1.0196274518966675,-0.12278891752814028,-10.0,-0.001725728390738368,-1.3932503762869373,-10.0,0.6496248841285706,-2.0701812073011645,-10.0,-0.03317233547568321,0.0,-5.354041723906995
1.5000000000000009,0.2793831628197798,0.28,-0.0004043404162995738,0.0,0.24181000757309207,0.3,-0.0012233497109264135,-0.38916569586748934,-10.0,0.3600406348705292,-0.3891656958789848,-10.0,1.0196274518966675,-0.12280073405818685,-10.0,-0.001725728390738368,-1.3933153766065454,-10.0,0.6496248841285706,-2.0701324093880595,-10.0,-0.03317233547568321,0.0,-5.354041723906995
1.520000000000001,0.2793831628197798,0.28,-0.0004043404162995738,0.0,0.24181000757309207,0.3,-0.0012233497109264135,-0.38917196372290735,-10.0,0.3600406348705292,-0.38917196372884044,-10.0,1.0196274518966675,-0.12281133873139816,-10.0,-0.001725728390738368,-1.3933743992599963,-10.0,0.6496248841285706,-2.0700882395289555,-10.0,-0.03317233547568321,0.0,-5.354041723906995
1.540000000000001,0.2794363082799007,0.28,-0.0002435932787804962,0.0,0.24842849719465543,0.3,-0.0006135923322290182,-0.38917763868071836,-10.0,0.34286004304885864,-0.389177638686582,-10.0,1.028340458869934,-0.12282085733172707,-10.0,-0.0019174759509041905,-1.393427998016353,-10.0,0.6743124127388,-2.0700482536047096,-10.0,-0.03317233547568321,0.0,-5.354041723906995
1.560000000000001,0.2794363082799007,0.28,-0.0002435932787804962,0.0,0.24842849719465543,0.3,-0.0006135923322290182,-0.3891827774647787,-10.0,0.34286004304885864,-0.38918277747051705,-10.0,1.028340458869934,-0.1228294024386787,-10.0,-0.0019174759509041905,-1.3934766748693115,-10.0,0.6743124127388,-2.0700120506975437,-10.0,-0.03317233547568321,0.0,-5.354041723906995
1.580000000000001,0.2794363082799007,0.28,-0.0002435932787804962,0.0,0.24842849719465543,0.3,-0.0006135923322290182,-0.3891874312947477,-10.0,0.34286004304885864,-0.3891874313056464,-10.0,1.028340458869934,-0.12283707482707354,-10.0,-0.0019174759509041905,-1.3935208849249725,-10.0,0.6743124127388,-2.0699792688303296,-10.0,-0.03317233547568321,0.0,-5.354041723906995
1.600000000000001,0.2794363082799007,0.28,-0.0002435932787804962,0.0,0.24842849719465543,0.3,-0.0006135923322290182,-0.3891916464406634,-10.0,0.34286004304885864,-0.38919164645118454,-10.0,1.028340458869934,-0.12284396471829243,-10.0,-0.0019174759509041905,-1.3935610408258436,-10.0,0.6743124127388,-2.0699495811246775,-10.0,-0.03317233547568321,0.0,-5.354041723906995
1.620000000000001,0.2794363082799007,0.28,-0.0002435932787804962,0.0,0.24842849719465543,0.3,-0.0006135923322290182,-0.3891954646980685,-10.0,0.34286004304885864,-0.38919546470300703,-10.0,1.028340458869934,-0.12285015289852053,-10.0,-0.0019174759509041905,-1.393597516783036,-10.0,0.6743124127388,-2.0699226923363643,-10.0,-0.03317233547568321,0.0,-5.354041723906995
1.640000000000001,0.27947397440628263,0.28,-0.00024931909529943194,0.0,0.24944957085342556,0.3,-0.0005790777504444122,-0.38919892382273924,-10.0,0.34030213952064514,-0.389198923832753,-10.0,1.0297938585281372,-0.12285571171587212,-10.0,-0.0023009711876511574,-1.3936306521735427,-10.0,0.6777478456497192,-2.0698983357518075,-10.0,-0.03317233547568321,0.0,-5.354041723906995
1.660000000000001,0.27947397440628263,0.28,-0.00024931909529943194,0.0,0.24944957085342556,0.3,-0.0005790777504444122,-0.3892020579517938,-10.0,0.34030213952064514,-0.3892020579561827,-10.0,1.0297938585281372,-0.12286070597082645,-10.0,-0.0023009711876511574,-1.393660754827921,-10.0,0.6777478456497192,-2.0698762703936517,-10.0,-0.03317233547568321,0.0,-5.354041723906995
1.680000000000001,0.27947397440628263,0.28,-0.00024931909529943194,0.0,0.24944957085342556,0.3,-0.0005790777504444122,-0.3892048979225112,-10.0,0.34030213952064514,-0.3892048979267684,-10.0,1.0297938585281372,-0.12286519371378601,-10.0,-0.0023009711876511574,-1.393688103994718,-10.0,0.6777478456497192,-2.069856278491819,-10.0,-0.03317233547568321,0.0,-5.354041723906995
1.700000000000001,0.27947397440628263,0.28,-0.00024931909529943194,0.0,0.24944957085342556,0.3,-0.0005790777504444122,-0.3892074716175376,-10.0,0.34030213952064514,-0.3892074716269913,-10.0,1.0297938585281372,-0.1228692269543104,-10.0,-0.0023009711876511574,-1.3937129530072065,-10.0,0.6777478456497192,-2.0698381632291976,-10.0,-0.03317233547568321,0.0,-5.354041723906995
1.720000000000001,0.27947397440628263,0.28,-0.00024931909529943194,0.0,0.24944957085342556,0.3,-0.0005790777504444122,-0.3892098042549094,-10.0,0.34030213952064514,-0.3892098042588567,-10.0,1.0297938585281372,-0.12287285229849135,-10.0,-0.0023009711876511574,-1.393735531729626,-10.0,0.6777478456497192,-2.0698217466849806,-10.0,-0.03317233547568321,0.0,-5.354041723906995
1.740000000000001,0.2793980498110259,0.28,-0.00022378177294833974,0.0,0.254160805124758,0.3,-0.00047936898772604764,-0.3892119186228443,-10.0,0.32910406589508057,-0.38921191862667315,-10.0,1.0372624397277832,-0.12287611151603553,-10.0,-0.0023009711876511574,-1.3937560487428884,-10.0,0.6990798115730286,-2.069806868000868,-10.0,-0.03317233547568321,0.0,-5.354041723906995
1.7600000000000011,0.2793980498110259,0.28,-0.00022378177294833974,0.0,0.254160805124758,0.3,-0.00047936898772604764,-0.38921383533998233,-10.0,0.32910406589508057,-0.3892138353436384,-10.0,1.0372624397277832,-0.12287904204706511,-10.0,-0.0023009711876511574,-1.3937746933260118,-10.0,0.6990798115730286,-2.0697933817283336,-10.0,-0.03317233547568321,0.0,-5.354041723906995
1.7800000000000011,0.2793980498110259,0.28,-0.00022378177294833974,0.0,0.254160805124758,0.3,-0.00047936898772604764,-0.38921557304861576,-10.0,0.32910406589508057,-0.3892155730628097,-10.0,1.0372624397277832,-0.12288167745702858,-10.0,-0.0023009711876511574,-1.3937916372645187,-10.0,0.6990798115730286,-2.069781156326005,-10.0,-0.03317233547568321,0.0,-5.354041723906995
1.8000000000000012,0.2793980498110259,0.28,-0.00022378177294833974,0.0,0.254160805124758,0.3,-0.00047936898772604764,-0.38921714863134305,-10.0,0.32910406589508057,-0.38921714863983814,-10.0,1.0372624397277832,-0.12288404784134785,-10.0,-0.0023009711876511574,-1.3938070364803345,-10.0,0.6990798115730286,-2.069770072819048,-10.0,-0.03317233547568321,0.0,-5.354041723906995
1.8200000000000012,0.2793980498110259,0.28,-0.00022378177294833974,0.0,0.254160805124758,0.3,-0.00047936898772604764,-0.3892185773406567,-10.0,0.32910406589508057,-0.3892185773488463,-10.0,1.0372624397277832,-0.12288618018967533,-10.0,-0.0023009711876511574,-1.3938210325130962,-10.0,0.6990798115730286,-2.0697600235741533,-10.0,-0.03317233547568321,0.0,-5.354041723906995
1.8400000000000012,0.27848954764166767,0.28,-9.292839785450886e-05,0.0,0.25491430347872013,0.3,-0.00012080098531441763,-0.3892198729880417,-10.0,0.32372555136680603,-0.38921987300130917,-10.0,1.0337938070297241,-0.1228880987093011,-10.0,-0.0015339808305725455,-1.3938337538533054,-10.0,0.7027549743652344,-2.069750911210881,-10.0,-0.03278883919119835,0.0,-5.360077669164166
1.8600000000000012,0.27848954764166767,0.28,-9.292839785450886e-05,0.0,0.25491430347872013,0.3,-0.00012080098531441763,-0.3892210480776301,-10.0,0.32372555136680603,-0.3892210480904995,-10.0,1.0337938070297241,-0.12288982511467615,-10.0,-0.0015339808305725455,-1.3938453171449712,-10.0,0.7027549743652344,-2.069742647617987,-10.0,-0.03278883919119835,0.0,-5.360077669164166
1.8800000000000012,0.27848954764166767,0.28,-9.292839785450886e-05,0.0,0.25491430347872013,0.3,-0.00012080098531441763,-0.38922211392025485,-10.0,0.32372555136680603,-0.3892221139326803,-10.0,1.0337938070297241,-0.12289137888833696,-10.0,-0.0015339808305725455,-1.3938558283036362,-10.0,0.7027549743652344,-2.069735153051482,-10.0,-0.03278883919119835,0.0,-5.360077669164166
1.9000000000000012,0.27848954764166767,0.28,-9.292839785450886e-05,0.0,0.25491430347872013,0.3,-0.00012080098531441763,-0.3892230807576409,-10.0,0.32372555136680603,-0.3892230807696936,-10.0,1.0337938070297241,-0.12289277751291663,-10.0,-0.0015339808305725455,-1.39386538350492,-10.0,0.7027549743652344,-2.069728355331915,-10.0,-0.03278883919119835,0.0,-5.360077669164166
1.9200000000000013,0.27848954764166767,0.28,-9.292839785450886e-05,0.0,0.25491430347872013,0.3,-0.00012080098531441763,-0.38922395785851355,-10.0,0.32372555136680603,-0.38922395787559305,-10.0,1.0337938070297241,-0.12289403667767368,-10.0,-0.0015339808305725455,-1.3938740700723071,-10.0,0.7027549743652344,-2.0697221891274924,-10.0,-0.03278883919119835,0.0,-5.360077669164166
1.9400000000000013,0.2777693425629266,0.28,-0.00023076292128430898,0.0,0.25208571094032134,0.3,-0.0002109223569277674,-0.38922475361630976,-10.0,0.3265269994735718,-0.3892247536486369,-10.0,1.0241833925247192,-0.12289517046621566,-10.0,-0.00441019469872117,-1.3938819673207425,-10.0,0.687095582485199,-2.0697165952849725,-10.0,-0.03259709104895592,0.0,-5.360921360990033
1.9600000000000013,0.2777693425629266,0.28,-0.00023076292128430898,0.0,0.25208571094032134,0.3,-0.0002109223569277674,-0.389225475646815,-10.0,0.3265269994735718,-0.3892254756782229,-10.0,1.0241833925247192,-0.12289619152182103,-10.0,-0.00441019469872117,-1.3938891472782728,-10.0,0.687095582485199,-2.0697115202468277,-10.0,-0.03259709104895592,0.0,-5.360921360990033
1.9800000000000013,0.2777693425629266,0.28,-0.00023076292128430898,0.0,0.25208571094032134,0.3,-0.0002109223569277674,-0.3892261308275139,-10.0,0.3265269994735718,-0.38922613085792895,-10.0,1.0241833925247192,-0.1228971111967159,-10.0,-0.00441019469872117,-1.3938956753683756,-10.0,0.687095582485199,-2.0697069155138395,-10.0,-0.03259709104895592,0.0,-5.360921360990033
2.0000000000000013,0.2777693425629266,0.28,-0.00023076292128430898,0.0,0.25208571094032134,0.3,-0.0002109223569277674,-0.389226725397838,-10.0,0.3265269994735718,-0.3892267254220536,-10.0,1.0241833925247192,-0.1228979396856974,-10.0,-0.00441019469872117,-1.3939016110171605,-10.0,0.687095582485199,-2.069702737161459,-10.0,-0.03259709104895592,0.0,-5.360921360990033
2.0200000000000014,0.2777693425629266,0.28,-0.00023076292128430898,0.0,0.25208571094032134,0.3,-0.0002109223569277674,-0.3892272650019698,-10.0,0.3265269994735718,-0.38922726502540833,-10.0,1.0241833925247192,-0.12289868614515366,-10.0,-0.00441019469872117,-1.3939070082031044,-10.0,0.687095582485199,-2.0696989454066856,-10.0,-0.03259709104895592,0.0,-5.360921360990033
2.0400000000000014,0.27874449164604603,0.28,0.0004114082428795324,0.0,0.25611982971984404,0.3,0.001829272136092186,-0.3892277547611274,-10.0,0.3217102885246277,-0.3892277547839134,-10.0,1.0367965698242188,-0.12289935880056682,-10.0,-0.0024927188642323017,-1.3939119159647368,-10.0,0.7068296074867249,-2.069695504210031,-10.0,-0.032213594764471054,0.0,-5.358260183036329
2.0600000000000014,0.27874449164604603,0.28,0.0004114082428795324,0.0,0.25611982971984404,0.3,0.001829272136092186,-0.3892281993098062,-10.0,0.3217102885246277,-0.389228199337181,-10.0,1.0367965698242188,-0.12289996504153165,-10.0,-0.0024927188642323017,-1.3939163788454085,-10.0,0.7068296074867249,-2.0696923809258223,-10.0,-0.032213594764471054,0.0,-5.358260183036329
2.0800000000000014,0.27874449164604603,0.28,0.0004114082428795324,0.0,0.25611982971984404,0.3,0.001829272136092186,-0.3892286028563455,-10.0,0.3217102885246277,-0.38922860288289907,-10.0,1.0367965698242188,-0.12290051150911041,-10.0,-0.0024927188642323017,-1.3939204373271792,-10.0,0.7068296074867249,-2.069689545968738,-10.0,-0.032213594764471054,0.0,-5.358260183036329
2.1000000000000014,0.27874449164604603,0.28,0.0004114082428795324,0.0,0.25611982971984404,0.3,0.001829272136092186,-0.38922896920676353,-10.0,0.3217102885246277,-0.38922896923241923,-10.0,1.0367965698242188,-0.12290100417172559,-10.0,-0.0024927188642323017,-1.3939241281868198,-10.0,0.7068296074867249,-2.069686972531317,-10.0,-0.032213594764471054,0.0,-5.358260183036329
2.1200000000000014,0.27874449164604603,0.28,0.0004114082428795324,0.0,0.25611982971984404,0.3,0.001829272136092186,-0.3892293018129548,-10.0,0.3217102885246277,-0.3892293018378987,-10.0,1.0367965698242188,-0.1229014483940709,-10.0,-0.0024927188642323017,-1.393927484843098,-10.0,0.7068296074867249,-2.069684636320341,-10.0,-0.032213594764471054,0.0,-5.358260183036329
2.1400000000000015,0.27883738345215026,0.28,-0.00018700113535008144,0.0,0.25458844247045836,0.3,-0.00034706314909271896,-0.3892296038016281,-10.0,0.32619142532348633,-0.3892296038311467,-10.0,1.0354753732681274,-0.122901848999473,-10.0,-0.0023009711876511574,-1.3939305376636255,-10.0,0.7024353742599487,-2.0696825153154204,-10.0,-0.03202185034751892,0.0,-5.363452420076356
2.1600000000000015,0.27883738345215026,0.28,-0.00018700113535008144,0.0,0.25458844247045836,0.3,-0.00034706314909271896,-0.38922987801453196,-10.0,0.32619142532348633,-0.389229878043165,-10.0,1.0354753732681274,-0.12290221032435561,-10.0,-0.0023009711876511574,-1.3939333142424732,-10.0,0.7024353742599487,-2.069680589560145,-10.0,-0.03202185034751892,0.0,-5.363452420076356
2.1800000000000015,0.27883738345215026,0.28,-0.00018700113535008144,0.0,0.25458844247045836,0.3,-0.00034706314909271896,-0.3892301270185002,-10.0,0.32619142532348633,-0.3892301270516479,-10.0,1.0354753732681274,-0.12290253626921564,-10.0,-0.0023009711876511574,-1.393935839663233,-10.0,0.7024353742599487,-2.0696788409582902,-10.0,-0.03202185034751892,0.0,-5.363452420076356
2.2000000000000015,0.27883738345215026,0.28,-0.00018700113535008144,0.0,0.25458844247045836,0.3,-0.00034706314909271896,-0.3892303531501609,-10.0,0.32619142532348633,-0.3892303531823142,-10.0,1.0354753732681274,-0.1229028303413685,-10.0,-0.0023009711876511574,-1.3939381367110162,-10.0,0.7024353742599487,-2.069677253110807,-10.0,-0.03202185034751892,0.0,-5.363452420076356
2.2200000000000015,0.27883738345215026,0.28,-0.00018700113535008144,0.0,0.25458844247045836,0.3,-0.00034706314909271896,-0.38923055851924393,-10.0,0.32619142532348633,-0.38923055855569766,-10.0,1.0354753732681274,-0.1229030956968157,-10.0,-0.0023009711876511574,-1.3939402261108063,-10.0,0.7024353742599487,-2.0696758111417157,-10.0,-0.03202185034751892,0.0,-5.363452420076356
2.2400000000000015,0.2770756476376293,0.28,-0.0004721024654076727,0.0,0.2531805284987407,0.3,-0.0014917963417246938,-0.38923074504847166,-10.0,0.3219384551048279,-0.38923074508388245,-10.0,1.023370385169983,-0.12290333517471422,-10.0,-0.0015339808305725455,-1.39394212668866,-10.0,0.6951649188995361,-2.0696745015653533,-10.0,-0.03278883919119835,0.0,-5.351380545953289
2.2600000000000016,0.2770756476376293,0.28,-0.0004721024654076727,0.0,0.2531805284987407,0.3,-0.0014917963417246938,-0.3892309144743882,-10.0,0.3219384551048279,-0.38923091450873665,-10.0,1.023370385169983,-0.12290355132999845,-10.0,-0.0015339808305725455,-1.3939438555599204,-10.0,0.6951649188995361,-2.0696733121512096,-10.0,-0.03278883919119835,0.0,-5.351380545953289
2.2800000000000016,0.2770756476376293,0.28,-0.0004721024654076727,0.0,0.2531805284987407,0.3,-0.0014917963417246938,-0.38923106837168286,-10.0,0.3219384551048279,-0.3892310684102153,-10.0,1.023370385169983,-0.12290374646185974,-10.0,-0.0015339808305725455,-1.393945428281613,-10.0,0.6951649188995361,-2.0696722318088168,-10.0,-0.03278883919119835,0.0,-5.351380545953289
2.3000000000000016,0.2770756476376293,0.28,-0.0004721024654076727,0.0,0.2531805284987407,0.3,-0.0014917963417246938,-0.3892312081745221,-10.0,0.3219384551048279,-0.3892312082170045,-10.0,1.023370385169983,-0.12290392264058403,-10.0,-0.0015339808305725455,-1.3939468590020927,-10.0,0.6951649188995361,-2.0696712504740096,-10.0,-0.03278883919119835,0.0,-5.351380545953289
2.3200000000000016,0.2770756476376293,0.28,-0.0004721024654076727,0.0,0.2531805284987407,0.3,-0.0014917963417246938,-0.3892313351857306,-10.0,0.3219384551048279,-0.3892313352216156,-10.0,1.023370385169983,-0.12290408172921512,-10.0,-0.0015339808305725455,-1.3939481605725719,-10.0,0.6951649188995361,-2.0696703590236707,-10.0,-0.03278883919119835,0.0,-5.351380545953289
2.3400000000000016,0.27655510608767364,0.28,0.00125687656507789,0.0,0.2542456328162893,0.3,0.00470165116712451,-0.38923145057512054,-10.0,0.3160172998905182,-0.3892314506099869,-10.0,1.0206878185272217,-0.12290422540570245,-10.0,-0.0011504855938255787,-1.3939493446837428,-10.0,0.6947654485702515,-2.0696695491783474,-10.0,-0.032213594764471054,0.0,-5.3713058678526435
2.3600000000000017,0.27655510608767364,0.28,0.00125687656507789,0.0,0.2542456328162893,0.3,0.00470165116712451,-0.38923155541506266,-10.0,0.3160172998905182,-0.38923155544888305,-10.0,1.0206878185272217,-0.12290435518199536,-10.0,-0.0011504855938255787,-1.393950421973085,-10.0,0.6947654485702515,-2.069668813420212,-10.0,-0.032213594764471054,0.0,-5.3713058678526435
2.3800000000000017,0.27655510608767364,0.28,0.00125687656507789,0.0,0.2542456328162893,0.3,0.00470165116712451,-0.3892316506718159,-10.0,0.3160172998905182,-0.38923165070983606,-10.0,1.0206878185272217,-0.12290447241834193,-10.0,-0.0011504855938255787,-1.3939514020945076,-10.0,0.6947654485702515,-2.0696681449399135,-10.0,-0.032213594764471054,0.0,-5.3713058678526435
2.4000000000000017,0.27655510608767364,0.28,0.00125687656507789,0.0,0.2542456328162893,0.3,0.00470165116712451,-0.38923173723147886,-10.0,0.3160172998905182,-0.3892317372683512,-10.0,1.0206878185272217,-0.12290457834167753,-10.0,-0.0011504855938255787,-1.3939522938412796,-10.0,0.6947654485702515,-2.0696675375472213,-10.0,-0.032213594764471054,0.0,-5.3713058678526435
2.4200000000000017,0.27655510608767364,0.28,0.00125687656507789,0.0,0.2542456328162893,0.3,0.00470165116712451,-0.3892318158952652,-10.0,0.3160172998905182,-0.3892318159205375,-10.0,1.0206878185272217,-0.12290467405669335,-10.0,-0.0011504855938255787,-1.3939531052023917,-10.0,0.6947654485702515,-2.0696669856301986,-10.0,-0.032213594764471054,0.0,-5.3713058678526435
2.4400000000000017,0.27463675442458013,0.28,0.0011367493700624202,0.0,0.2545868767832347,0.3,0.004241456743329763,-0.3892318873743432,-10.0,0.3070703446865082,-0.3892318874041803,-10.0,1.0107725858688354,-0.12290476055842665,-10.0,-0.0007669904152862728,-1.3939538434384255,-10.0,0.6954046487808228,-2.0696664840987387,-10.0,-0.03202185034751892,0.0,-5.363452420076356
2.4600000000000017,0.27463675442458013,0.28,0.0011367493700624202,0.0,0.2545868767832347,0.3,0.004241456743329763,-0.38923195233720703,-10.0,0.3070703446865082,-0.3892319523661996,-10.0,1.0107725858688354,-0.12290483874387258,-10.0,-0.0007669904152862728,-1.3939545151516544,-10.0,0.6954046487808228,-2.069666028331812,-10.0,-0.03202185034751892,0.0,-5.363452420076356
2.4800000000000018,0.27463675442458013,0.28,0.0011367493700624202,0.0,0.2545868767832347,0.3,0.004241456743329763,-0.3892320113735115,-10.0,0.3070703446865082,-0.389232011412186,-10.0,1.0107725858688354,-0.12290490942207315,-10.0,-0.0007669904152862728,-1.393955126353519,-10.0,0.6954046487808228,-2.0696656141311816,-10.0,-0.03202185034751892,0.0,-5.363452420076356
2.5000000000000018,0.27463675442458013,0.28,0.0011367493700624202,0.0,0.2545868767832347,0.3,0.004241456743329763,-0.3892320650364002,-10.0,0.3070703446865082,-0.38923206507391445,-10.0,1.0107725858688354,-0.12290497332239003,-10.0,-0.0007669904152862728,-1.3939556825085897,-10.0,0.6954046487808228,-2.069665237686171,-10.0,-0.03202185034751892,0.0,-5.363452420076356
2.520000000000002,0.27463675442458013,0.28,0.0011367493700624202,0.0,0.2545868767832347,0.3,0.004241456743329763,-0.3892321138130424,-10.0,0.3070703446865082,-0.38923211384943124,-10.0,1.0107725858688354,-0.12290503110256307,-10.0,-0.0007669904152862728,-1.3939561885890848,-10.0,0.6954046487808228,-2.069664895536668,-10.0,-0.03202185034751892,0.0,-5.363452420076356
2.540000000000002,0.2746136746547844,0.28,0.0010696392365165367,0.0,0.2540991833855288,0.3,0.004109151195734739,-0.3892321581495289,-10.0,0.3085468113422394,-0.3892321581848767,-10.0,1.0103871822357178,-0.12290508335459026,-10.0,-0.0015339808305725455,-1.3939566491048303,-10.0,0.6949252486228943,-2.0696645845498494,-10.0,-0.03183010220527649,0.0,-5.364296111902222
2.560000000000002,0.2746136746547844,0.28,0.0010696392365165367,0.0,0.2540991833855288,0.3,0.004109151195734739,-0.38923219845324364,-10.0,0.3085468113422394,-0.3892321984875817,-10.0,1.0103871822357178,-0.12290513061473504,-10.0,-0.0015339808305725455,-1.3939570681805702,-10.0,0.6949252486228943,-2.069664301864265,-10.0,-0.03183010220527649,0.0,-5.364296111902222
2.580000000000002,0.2746136746547844,0.28,0.0010696392365165367,0.0,0.2540991833855288,0.3,0.004109151195734739,-0.38923223508871435,-10.0,0.3085468113422394,-0.38923223512724386,-10.0,1.0103871822357178,-0.12290517336381668,-10.0,-0.0015339808305725455,-1.3939574495413694,-10.0,0.6949252486228943,-2.069664044903029,-10.0,-0.03183010220527649,0.0,-5.364296111902222
2.600000000000002,0.2746136746547844,0.28,0.0010696392365165367,0.0,0.2540991833855288,0.3,0.004109151195734739,-0.38923226839383945,-10.0,0.3085468113422394,-0.3892322684364274,-10.0,1.0103871822357178,-0.12290521203779284,-10.0,-0.0015339808305725455,-1.3939577965894265,-10.0,0.6949252486228943,-2.069663811311036,-10.0,-0.03183010220527649,0.0,-5.364296111902222
2.620000000000002,0.2746136746547844,0.28,0.0010696392365165367,0.0,0.2540991833855288,0.3,0.004109151195734739,-0.3892322986779813,-10.0,0.3085468113422394,-0.38923229871396875,-10.0,1.0103871822357178,-0.12290524702938106,-10.0,-0.0015339808305725455,-1.3939581124208833,-10.0,0.6949252486228943,-2.0696635989537184,-10.0,-0.03183010220527649,0.0,-5.364296111902222
2.640000000000002,0.2727164114570263,0.28,0.00014787731818927555,0.0,0.2573322376215583,0.3,0.0009012137306854129,-0.3892323262065941,-10.0,0.2909424602985382,-0.3892323262467741,-10.0,1.0030163526535034,-0.12290527869310523,-10.0,-0.0024927188642323017,-1.393958399849536,-10.0,0.7007575631141663,-2.0696634058920416,-10.0,-0.03183010220527649,0.0,-5.359947550296785
2.660000000000002,0.2727164114570263,0.28,0.00014787731818927555,0.0,0.2573322376215583,0.3,0.0009012137306854129,-0.3892323512412027,-10.0,0.2909424602985382,-0.38923235127491235,-10.0,1.0030163526535034,-0.12290530734894965,-10.0,-0.0024927188642323017,-1.3939586614342312,-10.0,0.7007575631141663,-2.069663230365057,-10.0,-0.03183010220527649,0.0,-5.359947550296785
2.680000000000002,0.2727164114570263,0.28,0.00014787731818927555,0.0,0.2573322376215583,0.3,0.0009012137306854129,-0.38923237399893656,-10.0,0.2909424602985382,-0.38923237403690714,-10.0,1.0030163526535034,-0.1229053332856134,-10.0,-0.0024927188642323017,-1.3939588995043253,-10.0,0.7007575631141663,-2.0696630707742,-10.0,-0.03183010220527649,0.0,-5.359947550296785
2.700000000000002,0.2727164114570263,0.28,0.00014787731818927555,0.0,0.2573322376215583,0.3,0.0009012137306854129,-0.3892323946948367,-10.0,0.2909424602985382,-0.389232394731661,-10.0,1.0030163526535034,-0.12290535676396139,-10.0,-0.0024927188642323017,-1.3939591161776703,-10.0,0.7007575631141663,-2.069662925666177,-10.0,-0.03183010220527649,0.0,-5.359947550296785
2.720000000000002,0.2727164114570263,0.28,0.00014787731818927555,0.0,0.2573322376215583,0.3,0.0009012137306854129,-0.38923241351917065,-10.0,0.2909424602985382,-0.3892324135442951,-10.0,1.0030163526535034,-0.12290537801915602,-10.0,-0.0024927188642323017,-1.393959313377328,-10.0,0.7007575631141663,-2.0696627937236522,-10.0,-0.03183010220527649,0.0,-5.359947550296785
2.740000000000002,0.2727703264587601,0.28,-0.0005638979938703901,0.0,0.2602921790247412,0.3,-0.0018177672754973173,-0.38923243063221197,-10.0,0.2844403088092804,-0.38923243065653207,-10.0,1.008552074432373,-0.1229053972640392,-10.0,-0.001725728390738368,-1.3939594928582113,-10.0,0.7139402031898499,-2.0696626737464965,-10.0,-0.03163835406303406,0.0,-5.365139803728089
2.760000000000002,0.2727703264587601,0.28,-0.0005638979938703901,0.0,0.2602921790247412,0.3,-0.0018177672754973173,-0.38923244619176284,-10.0,0.2844403088092804,-0.3892324462206255,-10.0,1.008552074432373,-0.12290541469049274,-10.0,-0.001725728390738368,-1.393959656213974,-10.0,0.7139402031898499,-2.0696625646469253,-10.0,-0.03163835406303406,0.0,-5.365139803728089
2.780000000000002,0.2727703264587601,0.28,-0.0005638979938703901,0.0,0.2602921790247412,0.3,-0.0018177672754973173,-0.3892324603476622,-10.0,0.2844403088092804,-0.38923246037034337,-10.0,1.008552074432373,-0.12290543047297008,-10.0,-0.001725728390738368,-1.3939598049014512,-10.0,0.7139402031898499,-2.0696624654289293,-10.0,-0.03163835406303406,0.0,-5.365139803728089
2.800000000000002,0.2727703264587601,0.28,-0.0005638979938703901,0.0,0.2602921790247412,0.3,-0.0018177672754973173,-0.38923247321902,-10.0,0.2844403088092804,-0.3892324732410207,-10.0,1.008552074432373,-0.12290544476723993,-10.0,-0.001725728390738368,-1.3939599402334766,-10.0,0.7139402031898499,-2.069662375200559,-10.0,-0.03163835406303406,0.0,-5.365139803728089
2.820000000000002,0.2727703264587601,0.28,-0.0005638979938703901,0.0,0.2602921790247412,0.3,-0.0018177672754973173,-0.3892324849250087,-10.0,0.2844403088092804,-0.38923248494634943,-10.0,1.008552074432373,-0.1229054577149356,-10.0,-0.001725728390738368,-1.3939600634107965,-10.0,0.7139402031898499,-2.0696622931450985,-10.0,-0.03163835406303406,0.0,-5.365139803728089
2.840000000000002,0.2727896576984254,0.28,-0.000929814824027659,0.0,0.2603360593520703,0.3,-0.003071796614676714,-0.3892324955721856,-10.0,0.28498104214668274,-0.3892324955928933,-10.0,1.00944185256958,-0.1229054694448433,-10.0,-0.0023009711876511574,-1.3939601755342417,-10.0,0.7162571549415588,-2.0696622185145204,-10.0,-0.031446605920791626,0.0,-5.365983495553955
2.860000000000002,0.2727896576984254,0.28,-0.000929814824027659,0.0,0.2603360593520703,0.3,-0.003071796614676714,-0.3892325052565724,-10.0,0.28498104214668274,-0.38923250527665887,-10.0,1.00944185256958,-0.1229054800725905,-10.0,-0.0023009711876511574,-1.3939602775957547,-10.0,0.7162571549415588,-2.069662150635065,-10.0,-0.031446605920791626,0.0,-5.365983495553955
2.880000000000002,0.2727896576984254,0.28,-0.000929814824027659,0.0,0.2603360593520703,0.3,-0.003071796614676714,-0.38923251406757237,-10.0,0.28498104214668274,-0.3892325140817334,-10.0,1.00944185256958,-0.12290548970209879,-10.0,-0.0023009711876511574,-1.393960370494422,-10.0,0.7162571549415588,-2.0696620888984922,-10.0,-0.031446605920791626,0.0,-5.365983495553955
2.900000000000002,0.2727896576984254,0.28,-0.000929814824027659,0.0,0.2603360593520703,0.3,-0.003071796614676714,-0.3892325220796651,-10.0,0.28498104214668274,-0.38923252209335063,-10.0,1.00944185256958,-0.12290549842844559,-10.0,-0.0023009711876511574,-1.3939604550562605,-10.0,0.7162571549415588,-2.069662032744174,-10.0,-0.031446605920791626,0.0,-5.365983495553955
2.920000000000002,0.2727896576984254,0.28,-0.000929814824027659,0.0,0.2603360593520703,0.3,-0.003071796614676714,-0.3892325293704996,-10.0,0.28498104214668274,-0.3892325293785024,-10.0,1.00944185256958,-0.1229055063370932,-10.0,-0.0023009711876511574,-1.3939605320340644,-10.0,0.7162571549415588,-2.0696619816656914,-10.0,-0.031446605920791626,0.0,-5.365983495553955
2.940000000000002,0.2730098825602074,0.28,-0.0007250760475506013,0.0,0.26246764766031466,0.3,-0.0022587866988033056,-0.3892325360052007,-10.0,0.2803790867328644,-0.3892325360024696,-10.0,1.0134934186935425,-0.12290551350516056,-10.0,-0.0026844663079828024,-1.3939606021027597,-10.0,0.7227286696434021,-2.069661935204679,-10.0,-0.031446605920791626,0.0,-5.361634933948518
2.960000000000002,0.2730098825602074,0.28,-0.0007250760475506013,0.0,0.26246764766031466,0.3,-0.0022587866988033056,-0.38923254203586083,-10.0,0.2803790867328644,-0.38923254203321167,-10.0,1.0134934186935425,-0.12290552000289184,-10.0,-0.0026844663079828024,-1.3939606658872166,-10.0,0.7227286696434021,-2.069661892940434,-10.0,-0.031446605920791626,0.0,-5.361634933948518
2.980000000000002,0.2730098825602074,0.28,-0.0007250760475506013,0.0,0.26246764766031466,0.3,-0.0022587866988033056,-0.389232547521589,-10.0,0.2803790867328644,-0.38923254751896863,-10.0,1.0134934186935425,-0.1229055258929975,-10.0,-0.0026844663079828024,-1.39396072394639,-10.0,0.7227286696434021,-2.0696618544966303,-10.0,-0.031446605920791626,0.0,-5.361634933948518
3.000000000000002,0.2730098825602074,0.28,-0.0007250760475506013,0.0,0.26246764766031466,0.3,-0.0022587866988033056,-0.3892325525147763,-10.0,0.2803790867328644,-0.38923255250691174,-10.0,1.0134934186935425,-0.12290553123317167,-10.0,-0.0026844663079828024,-1.3939607767992104,-10.0,0.7227286696434021,-2.069661819524222,-10.0,-0.031446605920791626,0.0,-5.361634933948518
3.0200000000000022,0.2730098825602074,0.28,-0.0007250760475506013,0.0,0.26246764766031466,0.3,-0.0022587866988033056,-0.38923255705971865,-10.0,0.2803790867328644,-0.38923255704154563,-10.0,1.0134934186935425,-0.12290553607479857,-10.0,-0.0026844663079828024,-1.393960824908654,-10.0,0.7227286696434021,-2.0696617877118566,-10.0,-0.031446605920791626,0.0,-5.361634933948518
3.0400000000000023,0.2731346958009496,0.28,-0.0007056576779359084,0.0,0.26401566726577075,0.3,-0.002329733222723007,-0.38923256119018074,-10.0,0.27753740549087524,-0.3892325611726108,-10.0,1.0170561075210571,-0.12290554046578131,-10.0,-0.001725728390738368,-1.39396086870998,-10.0,0.729679524898529,-2.069661758766287,-10.0,-0.031446605920791626,0.0,-5.361634933948518
3.0600000000000023,0.2731346958009496,0.28,-0.0007056576779359084,0.0,0.26401566726577075,0.3,-0.002329733222723007,-0.38923256494549274,-10.0,0.27753740549087524,-0.38923256493377273,-10.0,1.0170561075210571,-0.12290554444793195,-10.0,-0.001725728390738368,-1.3939609085853433,-10.0,0.729679524898529,-2.0696617324319755,-10.0,-0.031446605920791626,0.0,-5.361634933948518
3.0800000000000023,0.2731346958009496,0.28,-0.0007056576779359084,0.0,0.26401566726577075,0.3,-0.002329733222723007,-0.38923256835966086,-10.0,0.27753740549087524,-0.38923256835883685,-10.0,1.0170561075210571,-0.12290554805983245,-10.0,-0.001725728390738368,-1.3939609448897343,-10.0,0.729679524898529,-2.069661708471197,-10.0,-0.031446605920791626,0.0,-5.361634933948518
3.1000000000000023,0.2731346958009496,0.28,-0.0007056576779359084,0.0,0.26401566726577075,0.3,-0.002329733222723007,-0.3892325714709853,-10.0,0.27753740549087524,-0.389232571470186,-10.0,1.0170561075210571,-0.12290555133600398,-10.0,-0.001725728390738368,-1.3939609779396998,-10.0,0.729679524898529,-2.069661686670985,-10.0,-0.031446605920791626,0.0,-5.361634933948518
3.1200000000000023,0.2731346958009496,0.28,-0.0007056576779359084,0.0,0.26401566726577075,0.3,-0.002329733222723007,-0.3892325743042184,-10.0,0.27753740549087524,-0.3892325742980624,-10.0,1.0170561075210571,-0.1229055543075094,-10.0,-0.001725728390738368,-1.3939610080243723,-10.0,0.729679524898529,-2.0696616668388033,-10.0,-0.031446605920791626,0.0,-5.361634933948518
3.1400000000000023,0.27379826509615074,0.28,-0.00034805243532755445,0.0,0.26587119072283844,0.3,-0.0009568204986862838,-0.38923257687714696,-10.0,0.27631211280822754,-0.3892325768763972,-10.0,1.0240299701690674,-0.12290555700340361,-10.0,-0.002109223511070013,-1.3939610354143233,-10.0,0.7377488613128662,-2.0696616487930397,-10.0,-0.031446605920791626,0.0,-5.361634933948518
3.1600000000000024,0.27379826509615074,0.28,-0.00034805243532755445,0.0,0.26587119072283844,0.3,-0.0009568204986862838,-0.38923257921767995,-10.0,0.27631211280822754,-0.3892325792223334,-10.0,1.0240299701690674,-0.12290555944890158,-10.0,-0.002109223511070013,-1.3939610603468624,-10.0,0.7377488613128662,-2.069661632376261,-10.0,-0.031446605920791626,0.0,-5.361634933948518
3.1800000000000024,0.27379826509615074,0.28,-0.00034805243532755445,0.0,0.26587119072283844,0.3,-0.0009568204986862838,-0.38923258135021943,-10.0,0.27631211280822754,-0.3892325813548418,-10.0,1.0240299701690674,-0.12290556166814798,-10.0,-0.002109223511070013,-1.3939610830490514,-10.0,0.7377488613128662,-2.0696616174360023,-10.0,-0.031446605920791626,0.0,-5.361634933948518
3.2000000000000024,0.27379826509615074,0.28,-0.00034805243532755445,0.0,0.26587119072283844,0.3,-0.0009568204986862838,-0.38923258329059945,-10.0,0.27631211280822754,-0.38923258329502525,-10.0,1.0240299701690674,-0.1229055636816918,-10.0,-0.002109223511070013,-1.3939611037156532,-10.0,0.7377488613128662,-2.0696616038430093,-10.0,-0.031446605920791626,0.0,-5.361634933948518
3.2200000000000024,0.27379826509615074,0.28,-0.00034805243532755445,0.0,0.26587119072283844,0.3,-0.0009568204986862838,-0.3892325850559564,-10.0,0.27631211280822754,-0.38923258506035796,-10.0,1.0240299701690674,-0.12290556550873634,-10.0,-0.002109223511070013,-1.3939611225275899,-10.0,0.7377488613128662,-2.0696615914757266,-10.0,-0.031446605920791626,0.0,-5.361634933948518
3.2400000000000024,0.2750934389232102,0.28,-0.0004607460937485844,0.0,0.26656994487344793,0.3,-0.0013019661419093609,-0.3892325866678737,-10.0,0.2804711163043976,-0.38923258666154814,-10.0,1.0324265956878662,-0.1229055671669256,-10.0,-0.0024927188642323017,-1.3939611396568647,-10.0,0.741344153881073,-2.0696615802214446,-10.0,-0.031446605920791626,0.0,-5.361634933948518
3.2600000000000025,0.2750934389232102,0.28,-0.0004607460937485844,0.0,0.26656994487344793,0.3,-0.0013019661419093609,-0.389232588130399,-10.0,0.2804711163043976,-0.38923258812420536,-10.0,1.0324265956878662,-0.1229055686725695,-10.0,-0.0024927188642323017,-1.3939611552578521,-10.0,0.741344153881073,-2.069661569975568,-10.0,-0.031446605920791626,0.0,-5.361634933948518
3.2800000000000025,0.2750934389232102,0.28,-0.0004607460937485844,0.0,0.26656994487344793,0.3,-0.0013019661419093609,-0.38923258946354433,-10.0,0.2804711163043976,-0.3892325894522643,-10.0,1.0324265956878662,-0.12290557003886252,-10.0,-0.0024927188642323017,-1.3939611694573557,-10.0,0.741344153881073,-2.069661560654513,-10.0,-0.031446605920791626,0.0,-5.361634933948518
3.3000000000000025,0.2750934389232102,0.28,-0.0004607460937485844,0.0,0.26656994487344793,0.3,-0.0013019661419093609,-0.3892325906739235,-10.0,0.2804711163043976,-0.38923259066303256,-10.0,1.0324265956878662,-0.12290557127876352,-10.0,-0.0024927188642323017,-1.3939611823823697,-10.0,0.741344153881073,-2.069661552174682,-10.0,-0.031446605920791626,0.0,-5.361634933948518
3.3200000000000025,0.2750934389232102,0.28,-0.0004607460937485844,0.0,0.26656994487344793,0.3,-0.0013019661419093609,-0.3892325917758178,-10.0,0.2804711163043976,-0.3892325917652536,-10.0,1.0324265956878662,-0.12290557240473977,-10.0,-0.0024927188642323017,-1.3939611941536356,-10.0,0.741344153881073,-2.069661544455041,-10.0,-0.031446605920791626,0.0,-5.361634933948518
3.3400000000000025,0.2742467534640423,0.28,-0.0005082870828426449,0.0,0.2693736586417709,0.3,-0.0015646604588255286,-0.38923259277898337,-10.0,0.2703161835670471,-0.38923259276879396,-10.0,1.032522439956665,-0.12290557342732737,-10.0,-0.0019174759509041905,-1.3939612048757808,-10.0,0.7511712312698364,-2.0696615374271454,-10.0,-0.031254857778549194,0.0,-5.366827187379823
3.3600000000000025,0.2742467534640423,0.28,-0.0005082870828426449,0.0,0.2693736586417709,0.3,-0.0015646604588255286,-0.3892325936916326,-10.0,0.2703161835670471,-0.38923259368164037,-10.0,1.032522439956665,-0.12290557435543775,-10.0,-0.0019174759509041905,-1.3939612146334377,-10.0,0.7511712312698364,-2.0696615310337636,-10.0,-0.031254857778549194,0.0,-5.366827187379823
3.3800000000000026,0.2742467534640423,0.28,-0.0005082870828426449,0.0,0.2693736586417709,0.3,-0.0015646604588255286,-0.3892325945273497,-10.0,0.2703161835670471,-0.3892325945070622,-10.0,1.032522439956665,-0.12290557519800901,-10.0,-0.0019174759509041905,-1.3939612235165935,-10.0,0.7511712312698364,-2.069661525216309,-10.0,-0.031254857778549194,0.0,-5.366827187379823
3.4000000000000026,0.2742467534640423,0.28,-0.0005082870828426449,0.0,0.2693736586417709,0.3,-0.0015646604588255286,-0.3892325952829314,-10.0,0.2703161835670471,-0.3892325952633032,-10.0,1.032522439956665,-0.12290557596311064,-10.0,-0.0019174759509041905,-1.3939612316042809,-10.0,0.7511712312698364,-2.0696615199218606,-10.0,-0.031254857778549194,0.0,-5.366827187379823
3.4200000000000026,0.2742467534640423,0.28,-0.0005082870828426449,0.0,0.2693736586417709,0.3,-0.0015646604588255286,-0.3892325959708476,-10.0,0.2703161835670471,-0.3892325959518661,-10.0,1.032522439956665,-0.12290557665814694,-10.0,-0.0019174759509041905,-1.3939612389710503,-10.0,0.7511712312698364,-2.0696615151015596,-10.0,-0.031254857778549194,0.0,-5.366827187379823
3.4400000000000026,0.2744483283183399,0.28,-0.00044582348291095404,0.0,0.27052168197180876,0.3,-0.0013345632469281554,-0.38923259659691195,-10.0,0.26861730217933655,-0.38923259657855774,-10.0,1.035621166229248,-0.12290557728939946,-10.0,-0.0019174759509041905,-1.3939612456775456,-10.0,0.7554855346679688,-2.06966151071427,-10.0,-0.031254857778549194,0.0,-5.362478625774385
3.4600000000000026,0.2744483283183399,0.28,-0.00044582348291095404,0.0,0.27052168197180876,0.3,-0.0013345632469281554,-0.389232597169278,-10.0,0.26861730217933655,-0.3892325971462022,-10.0,1.035621166229248,-0.12290557786262528,-10.0,-0.0019174759509041905,-1.3939612517827005,-10.0,0.7554855346679688,-2.069661506721921,-10.0,-0.031254857778549194,0.0,-5.362478625774385
3.4800000000000026,0.2744483283183399,0.28,-0.00044582348291095404,0.0,0.27052168197180876,0.3,-0.0013345632469281554,-0.38923259769032353,-10.0,0.26861730217933655,-0.3892325976626099,-10.0,1.035621166229248,-0.12290557838318691,-10.0,-0.0019174759509041905,-1.3939612573410678,-10.0,0.7554855346679688,-2.0696615030888945,-10.0,-0.031254857778549194,0.0,-5.362478625774385
3.5000000000000027,0.2744483283183399,0.28,-0.00044582348291095404,0.0,0.27052168197180876,0.3,-0.0013345632469281554,-0.3892325981622315,-10.0,0.26861730217933655,-0.38923259813529143,-10.0,1.035621166229248,-0.12290557885616078,-10.0,-0.0019174759509041905,-1.3939612624036763,-10.0,0.7554855346679688,-2.0696614997812417,-10.0,-0.031254857778549194,0.0,-5.362478625774385
3.5200000000000027,0.2744483283183399,0.28,-0.00044582348291095404,0.0,0.27052168197180876,0.3,-0.0013345632469281554,-0.3892325985911485,-10.0,0.26861730217933655,-0.3892325985649588,-10.0,1.035621166229248,-0.12290557928523642,-10.0,-0.0019174759509041905,-1.3939612670071422,-10.0,0.7554855346679688,-2.069661496774826,-10.0,-0.031254857778549194,0.0,-5.362478625774385
3.5400000000000027,0.2758990943182447,0.28,-0.0012193535016814638,0.0,0.2699001390648621,0.3,-0.0041609229519963264,-0.38923259898207846,-10.0,0.2769947350025177,-0.3892325989566238,-10.0,1.0432335138320923,-0.12290557967553678,-10.0,-0.001725728390738368,-1.39396127120469,-10.0,0.7560448050498962,-2.0696614940346403,-10.0,-0.031254857778549194,0.0,-5.362478625774385
3.5600000000000027,0.2758990943182447,0.28,-0.0012193535016814638,0.0,0.2699001390648621,0.3,-0.0041609229519963264,-0.3892325993376862,-10.0,0.2769947350025177,-0.3892325993131037,-10.0,1.0432335138320923,-0.12290558003002401,-10.0,-0.001725728390738368,-1.3939612750251655,-10.0,0.7560448050498962,-2.0696614915411886,-10.0,-0.031254857778549194,0.0,-5.362478625774385
3.5800000000000027,0.2758990943182447,0.28,-0.0012193535016814638,0.0,0.2699001390648621,0.3,-0.0041609229519963264,-0.38923259966423557,-10.0,0.2769947350025177,-0.3892325996351256,-10.0,1.0432335138320923,-0.12290558035230362,-10.0,-0.001725728390738368,-1.3939612785055726,-10.0,0.7560448050498962,-2.069661489270119,-10.0,-0.031254857778549194,0.0,-5.362478625774385
3.6000000000000028,0.2758990943182447,0.28,-0.0012193535016814638,0.0,0.2699001390648621,0.3,-0.0041609229519963264,-0.3892325999613105,-10.0,0.2769947350025177,-0.38923259992780884,-10.0,1.0432335138320923,-0.12290558064488526,-10.0,-0.001725728390738368,-1.393961281671015,-10.0,0.7560448050498962,-2.0696614872047636,-10.0,-0.031254857778549194,0.0,-5.362478625774385
3.6200000000000028,0.2758990943182447,0.28,-0.0012193535016814638,0.0,0.2699001390648621,0.3,-0.0041609229519963264,-0.38923260022984124,-10.0,0.2769947350025177,-0.3892326001973446,-10.0,1.0432335138320923,-0.12290558091126814,-10.0,-0.001725728390738368,-1.3939612845604357,-10.0,0.7560448050498962,-2.069661485320719,-10.0,-0.031254857778549194,0.0,-5.362478625774385
3.640000000000003,0.27478226293472924,0.28,-0.0033989472865126815,0.0,0.27143756238766203,0.3,-0.012108860537409782,-0.3892326004739994,-10.0,0.2677103281021118,-0.38923260044247765,-10.0,1.0386372804641724,-0.12290558115307976,-10.0,-0.001725728390738368,-1.3939612871890183,-10.0,0.7574030160903931,-2.0696614836075478,-10.0,-0.03508980944752693,0.0,-5.310816345587373
3.660000000000003,0.27478226293472924,0.28,-0.0033989472865126815,0.0,0.27143756238766203,0.3,-0.012108860537409782,-0.38923260069632415,-10.0,0.2677103281021118,-0.3892326006657481,-10.0,1.0386372804641724,-0.12290558137294204,-10.0,-0.001725728390738368,-1.3939612895830795,-10.0,0.7574030160903931,-2.0696614820472625,-10.0,-0.03508980944752693,0.0,-5.310816345587373
3.680000000000003,0.27478226293472924,0.28,-0.0033989472865126815,0.0,0.27143756238766203,0.3,-0.012108860537409782,-0.38923260089330797,-10.0,0.2677103281021118,-0.3892326008742949,-10.0,1.0386372804641724,-0.12290558157267455,-10.0,-0.001725728390738368,-1.3939612917630761,-10.0,0.7574030160903931,-2.0696614806274622,-10.0,-0.03508980944752693,0.0,-5.310816345587373
3.700000000000003,0.27478226293472924,0.28,-0.0033989472865126815,0.0,0.27143756238766203,0.3,-0.012108860537409782,-0.38923260108018504,-10.0,0.2677103281021118,-0.38923260105641955,-10.0,1.0386372804641724,-0.12290558175416073,-10.0,-0.001725728390738368,-1.393961293746453,-10.0,0.7574030160903931,-2.069661479335332,-10.0,-0.03508980944752693,0.0,-5.310816345587373
3.720000000000003,0.27478226293472924,0.28,-0.0033989472865126815,0.0,0.27143756238766203,0.3,-0.012108860537409782,-0.38923260124533765,-10.0,0.2677103281021118,-0.3892326012275067,-10.0,1.0386372804641724,-0.12290558191926947,-10.0,-0.001725728390738368,-1.3939612955546536,-10.0,0.7574030160903931,-2.069661478157942,-10.0,-0.03508980944752693,0.0,-5.310816345587373
3.740000000000003,0.27515467029012974,0.28,-0.0012692705449135477,0.0,0.27280338186513176,0.3,-0.004381432663649321,-0.3892326013977738,-10.0,0.2666269540786743,-0.38923260138047777,-10.0,1.0434693098068237,-0.12290558206899944,-10.0,-0.0015339808305725455,-1.393961297197336,-10.0,0.7639544010162354,-2.0696614770886343,-10.0,-0.03470631688833237,0.0,-5.360337890507654
3.760000000000003,0.27515467029012974,0.28,-0.0012692705449135477,0.0,0.27280338186513176,0.3,-0.004381432663649321,-0.38923260153422257,-10.0,0.2666269540786743,-0.3892326015226091,-10.0,1.0434693098068237,-0.12290558220527822,-10.0,-0.0015339808305725455,-1.393961298697367,-10.0,0.7639544010162354,-2.0696614761137027,-10.0,-0.03470631688833237,0.0,-5.360337890507654
3.780000000000003,0.27515467029012974,0.28,-0.0012692705449135477,0.0,0.27280338186513176,0.3,-0.004381432663649321,-0.38923260165794427,-10.0,0.2666269540786743,-0.3892326016520093,-10.0,1.0434693098068237,-0.1229055823290073,-10.0,-0.0015339808305725455,-1.3939613000593278,-10.0,0.7639544010162354,-2.069661475227453,-10.0,-0.03470631688833237,0.0,-5.360337890507654
3.800000000000003,0.27515467029012974,0.28,-0.0012692705449135477,0.0,0.27280338186513176,0.3,-0.004381432663649321,-0.38923260177338853,-10.0,0.2666269540786743,-0.3892326017676822,-10.0,1.0434693098068237,-0.12290558244180665,-10.0,-0.0015339808305725455,-1.3939613013034613,-10.0,0.7639544010162354,-2.0696614744182065,-10.0,-0.03470631688833237,0.0,-5.360337890507654
3.820000000000003,0.27515467029012974,0.28,-0.0012692705449135477,0.0,0.27280338186513176,0.3,-0.004381432663649321,-0.389232601878425,-10.0,0.2666269540786743,-0.3892326018728899,-10.0,1.0434693098068237,-0.12290558254423217,-10.0,-0.0015339808305725455,-1.3939613024361854,-10.0,0.7639544010162354,-2.069661473682305,-10.0,-0.03470631688833237,0.0,-5.360337890507654
3.840000000000003,0.27595765033168357,0.28,-0.0014278335739890012,0.0,0.2706314637605521,0.3,-0.005064053926616907,-0.38923260197362886,-10.0,0.2757944166660309,-0.3892326019683104,-10.0,1.0450512170791626,-0.12290558263695384,-10.0,-0.0007669904152862728,-1.3939613034632625,-10.0,0.7594003677368164,-2.069661473015213,-10.0,-0.03413107246160507,0.0,-5.3585204043798145
3.860000000000003,0.27595765033168357,0.28,-0.0014278335739890012,0.0,0.2706314637605521,0.3,-0.005064053926616907,-0.38923260205730287,-10.0,0.2757944166660309,-0.3892326020574668,-10.0,1.0450512170791626,-0.12290558272095224,-10.0,-0.0007669904152862728,-1.3939613043943622,-10.0,0.7594003677368164,-2.0696614724102025,-10.0,-0.03413107246160507,0.0,-5.3585204043798145
3.880000000000003,0.27595765033168357,0.28,-0.0014278335739890012,0.0,0.2706314637605521,0.3,-0.005064053926616907,-0.38923260213653693,-10.0,0.2757944166660309,-0.38923260213669597,-10.0,1.0450512170791626,-0.12290558279786903,-10.0,-0.0007669904152862728,-1.3939613052482422,-10.0,0.7594003677368164,-2.069661471855416,-10.0,-0.03413107246160507,0.0,-5.3585204043798145
3.900000000000003,0.27595765033168357,0.28,-0.0014278335739890012,0.0,0.2706314637605521,0.3,-0.005064053926616907,-0.38923260220881045,-10.0,0.2757944166660309,-0.38923260220901534,-10.0,1.0450512170791626,-0.12290558286794817,-10.0,-0.0007669904152862728,-1.393961306027467,-10.0,0.7594003677368164,-2.0696614713492423,-10.0,-0.03413107246160507,0.0,-5.3585204043798145
3.920000000000003,0.27595765033168357,0.28,-0.0014278335739890012,0.0,0.2706314637605521,0.3,-0.005064053926616907,-0.38923260227433576,-10.0,0.2757944166660309,-0.38923260227454176,-10.0,1.0450512170791626,-0.12290558293136314,-10.0,-0.0007669904152862728,-1.3939613067343,-10.0,0.7594003677368164,-2.069661470890587,-10.0,-0.03413107246160507,0.0,-5.3585204043798145
3.940000000000003,0.2746442727942636,0.28,-0.002132738511759938,0.0,0.2727090634321631,0.3,-0.0074436417780816555,-0.3892326023341086,-10.0,0.2641093134880066,-0.38923260233431567,-10.0,1.039923906326294,-0.12290558298919783,-10.0,-0.002109223511070013,-1.3939613073783739,-10.0,0.7615575194358826,-2.0696614704718987,-10.0,-0.03355582803487778,0.0,-5.361051479857415
3.960000000000003,0.2746442727942636,0.28,-0.002132738511759938,0.0,0.2727090634321631,0.3,-0.0074436417780816555,-0.38923260238567947,-10.0,0.2641093134880066,-0.38923260239109464,-10.0,1.039923906326294,-0.12290558304154296,-10.0,-0.002109223511070013,-1.393961307962535,-10.0,0.7615575194358826,-2.0696614700925253,-10.0,-0.03355582803487778,0.0,-5.361051479857415
3.980000000000003,0.2746442727942636,0.28,-0.002132738511759938,0.0,0.2727090634321631,0.3,-0.0074436417780816555,-0.38923260243312563,-10.0,0.2641093134880066,-0.38923260244370117,-10.0,1.039923906326294,-0.12290558308980536,-10.0,-0.002109223511070013,-1.3939613085021358,-10.0,0.7615575194358826,-2.0696614697422073,-10.0,-0.03355582803487778,0.0,-5.361051479857415
4.000000000000003,0.2746442727942636,0.28,-0.002132738511759938,0.0,0.2727090634321631,0.3,-0.0074436417780816555,-0.38923260248360253,-10.0,0.2641093134880066,-0.3892326024832585,-10.0,1.039923906326294,-0.12290558313314895,-10.0,-0.002109223511070013,-1.39396130898822,-10.0,0.7615575194358826,-2.0696614694272406,-10.0,-0.03355582803487778,0.0,-5.361051479857415
4.020000000000002,0.2746442727942636,0.28,-0.002132738511759938,3.940240000000001e-07,0.2727090634321631,0.3,-0.0074436417780816555,-0.3892326025221307,-10.0,0.2641093134880066,-0.38923260252701136,-10.0,1.039923906326294,-0.12290558317275269,-10.0,-0.002109223511070013,-1.3939613094321193,-10.0,0.7615575194358826,-2.069661469139139,-10.0,-0.03355582803487778,0.0,-5.361051479857415
4.040000000000002,0.2765555268570514,0.28,-0.0013826908158056945,3.1047680000000007e-06,0.27595237510700615,0.3,-0.004736165516078472,-0.3892303507030801,-10.0,0.26597118377685547,-0.38923035070776374,-10.0,1.0568150281906128,-0.12290561570401866,-10.0,-0.001725728390738368,-1.3939615827182807,-10.0,0.7758587002754211,-2.069661237678269,-10.0,-0.033364083617925644,0.0,-5.357546593686566
4.060000000000001,0.2765555268570514,0.28,-0.0013826908158056945,1.0319831999999998e-05,0.27595237510700615,0.3,-0.004736165516078472,-0.3892213836541303,-10.0,0.26597118377685547,-0.3892213836639457,-10.0,1.0568150281906128,-0.12290574210456655,-10.0,-0.001725728390738368,-1.3939626552030897,-10.0,0.7758587002754211,-2.069660337688155,-10.0,-0.033364083617925644,0.0,-5.357546593686566
4.080000000000001,0.2765555268570514,0.28,-0.0013826908158056945,2.408857600000001e-05,0.27595237510700615,0.3,-0.004736165516078472,-0.38920164709916005,-10.0,0.26597118377685547,-0.38920164709814364,-10.0,1.0568150281906128,-0.12290601278069149,-10.0,-0.001725728390738368,-1.3939649736619093,-10.0,0.7758587002754211,-2.069658409005365,-10.0,-0.033364083617925644,0.0,-5.357546593686566
4.1000000000000005,0.2765555268570514,0.28,-0.0013826908158056945,4.6325e-05,0.27595237510700615,0.3,-0.004736165516078472,-0.3891674449591079,-10.0,0.26597118377685547,-0.3891674449528569,-10.0,1.0568150281906128,-0.12290647041154903,-10.0,-0.001725728390738368,-1.39396891061891,-10.0,0.7758587002754211,-2.0696551466817943,-10.0,-0.033364083617925644,0.0,-5.357546593686566
4.12,0.2765555268570514,0.28,-0.0013826908158056945,7.881062399999999e-05,0.27595237510700615,0.3,-0.004736165516078472,-0.3891154015071154,-10.0,0.26597118377685547,-0.3891154015010519,-10.0,1.0568150281906128,-0.12290715299981998,-10.0,-0.001725728390738368,-1.3939747654060644,-10.0,0.7758587002754211,-2.0696502805066004,-10.0,-0.033364083617925644,0.0,-5.357546593686566
4.14,0.2778152846034418,0.28,-0.0014707215009330274,0.00012319736800000004,0.27742308293009477,0.3,-0.005029539577662945,-0.3890424328292751,-10.0,0.26894325017929077,-0.3890424328233935,-10.0,1.0670772790908813,-0.12290809674047712,-10.0,-0.001725728390738368,-1.393982762042141,-10.0,0.7835286259651184,-2.0696435559008672,-10.0,-0.033364083617925644,0.0,-5.353198032081129
4.159999999999999,0.2778152846034418,0.28,-0.0014707215009330274,0.00018101043200000004,0.27742308293009477,0.3,-0.005029539577662945,-0.38894572499607327,-10.0,0.26894325017929077,-0.38894572499037544,-10.0,1.0670772790908813,-0.12290933869601386,-10.0,-0.001725728390738368,-1.3939930446916518,-10.0,0.7835286259651184,-2.0696347162275224,-10.0,-0.033364083617925644,0.0,-5.353198032081129
4.179999999999999,0.2778152846034418,0.28,-0.0014707215009330274,0.00025365117600000003,0.27742308293009477,0.3,-0.005029539577662945,-0.38882271705417043,-10.0,0.26894325017929077,-0.38882271704337823,-10.0,1.0670772790908813,-0.12291091926994228,-10.0,-0.001725728390738368,-1.3940056713775504,-10.0,0.7835286259651184,-2.0696234865395526,-10.0,-0.033364083617925644,0.0,-5.353198032081129
4.199999999999998,0.2778152846034418,0.28,-0.0014707215009330274,0.0003424000000000001,0.27742308293009477,0.3,-0.005029539577662945,-0.38867108743959516,-10.0,0.26894325017929077,-0.38867108742918594,-10.0,1.0670772790908813,-0.12291288446199768,-10.0,-0.001725728390738368,-1.3940206065140934,-10.0,0.7835286259651184,-2.0696095588491197,-10.0,-0.033364083617925644,0.0,-5.353198032081129
4.219999999999998,0.2778152846034418,0.28,-0.0014707215009330274,0.0004484192239999999,0.27742308293009477,0.3,-0.005029539577662945,-0.3884887428670491,-10.0,0.26894325017929077,-0.38848874285701207,-10.0,1.0670772790908813,-0.12291528789055473,-10.0,-0.001725728390738368,-1.3940377127456451,-10.0,0.7835286259651184,-2.069592578989526,-10.0,-0.033364083617925644,0.0,-5.353198032081129
4.2399999999999975,0.27786654097235636,0.28,-0.003486204389598229,0.0005727559679999999,0.2782965150606799,0.3,-0.01212803553789854,-0.38827380892733965,-10.0,0.2673402428627014,-0.38827380892288393,-10.0,1.0689928531646729,-0.12291819256568402,-10.0,-0.0026844663079828024,-1.3940567425438282,-10.0,0.7864048480987549,-2.069572135156623,-10.0,-0.03413107246160507,0.0,-5.332429034747183
4.259999999999997,0.27786654097235636,0.28,-0.003486204389598229,0.0007163450320000002,0.2782965150606799,0.3,-0.01212803553789854,-0.3880246219316353,-10.0,0.2673402428627014,-0.38802462192725934,-10.0,1.0689928531646729,-0.12292167239476892,-10.0,-0.0026844663079828024,-1.3940773298729756,-10.0,0.7864048480987549,-2.0695477482343234,-10.0,-0.03413107246160507,0.0,-5.332429034747183
4.279999999999997,0.27786654097235636,0.28,-0.003486204389598229,0.0008800117760000002,0.2782965150606799,0.3,-0.01212803553789854,-0.3877397215884561,-10.0,0.2673402428627014,-0.38773972157899395,-10.0,1.0689928531646729,-0.12292581341410835,-10.0,-0.0026844663079828024,-1.394098982351721,-10.0,0.7864048480987549,-2.0695188639227022,-10.0,-0.03413107246160507,0.0,-5.332429034747183
4.299999999999996,0.27786654097235636,0.28,-0.003486204389598229,0.0010644749999999998,0.2782965150606799,0.3,-0.01212803553789854,-0.38741784428217585,-10.0,0.2673402428627014,-0.3874178442729976,-10.0,1.0689928531646729,-0.12293071473001882,-10.0,-0.0026844663079828024,-1.3941210741064696,-10.0,0.7864048480987549,-2.069484846768184,-10.0,-0.03413107246160507,0.0,-5.332429034747183
4.319999999999996,0.27786654097235636,0.28,-0.003486204389598229,0.0012703498240000004,0.2782965150606799,0.3,-0.01212803553789854,-0.387057916772273,-10.0,0.2673402428627014,-0.38705791676342743,-10.0,1.0689928531646729,-0.12293648917170288,-10.0,-0.0026844663079828024,-1.3941428396553666,-10.0,0.7864048480987549,-2.0694449760604545,-10.0,-0.03413107246160507,0.0,-5.332429034747183
4.339999999999995,0.27818428387171873,0.28,-0.0033023759329255924,0.001498150568,0.2796916705779165,0.3,-0.011573884636163712,-0.3866590501337519,-10.0,0.2658638060092926,-0.3866590501252389,-10.0,1.0733858346939087,-0.1229432636432195,-10.0,-0.0019174759509041905,-1.3941633689369703,-10.0,0.7915980219841003,-2.069398443672931,-10.0,-0.03470631688833237,0.0,-5.33859508248046
4.359999999999995,0.27818428387171873,0.28,-0.0033023759329255924,0.001748293632,0.2796916705779165,0.3,-0.011573884636163712,-0.38622053389471483,-10.0,0.2658638060092926,-0.38622053388645716,-10.0,1.0733858346939087,-0.12295117918838609,-10.0,-0.0019174759509041905,-1.3941816037985186,-10.0,0.7915980219841003,-2.0693443537357603,-10.0,-0.03470631688833237,0.0,-5.33859508248046
4.379999999999995,0.27818428387171873,0.28,-0.0033023759329255924,0.0020211003760000003,0.2796916705779165,0.3,-0.011573884636163712,-0.3857418302788352,-10.0,0.2658638060092926,-0.3857418302708163,-10.0,1.0733858346939087,-0.12296039076307393,-10.0,-0.0019174759509041905,-1.394196335963253,-10.0,0.7915980219841003,-2.0692817241772845,-10.0,-0.03470631688833237,0.0,-5.33859508248046
4.399999999999994,0.27818428387171873,0.28,-0.0033023759329255924,0.0023168000000000004,0.2796916705779165,0.3,-0.011573884636163712,-0.3852225685225977,-10.0,0.2658638060092926,-0.38522256850946773,-10.0,1.0733858346939087,-0.12297106673131458,-10.0,-0.0019174759509041905,-1.3942062066920358,-10.0,0.7915980219841003,-2.069209490011214,-10.0,-0.03470631688833237,0.0,-5.33859508248046
4.419999999999994,0.27818428387171873,0.28,-0.0033023759329255924,0.0026355324239999995,0.2796916705779165,0.3,-0.011573884636163712,-0.38466253921756144,-10.0,0.2658638060092926,-0.384662539204759,-10.0,1.0733858346939087,-0.12298338809292633,-10.0,-0.0019174759509041905,-1.3942097081835967,-10.0,0.7915980219841003,-2.0691265083168617,-10.0,-0.03470631688833237,0.0,-5.33859508248046
4.439999999999993,0.279004526274632,0.28,-0.0040014442349509205,0.002977351168,0.27975257441627993,0.3,-0.01386143360286951,-0.38406168869544266,-10.0,0.269459068775177,-0.3840616886830243,-10.0,1.0780969858169556,-0.12299754745426189,-10.0,-0.003067961661145091,-1.3942051867220642,-10.0,0.7922371625900269,-2.0690315648361772,-10.0,-0.0348980613052845,0.0,-5.3420999686513095
4.459999999999993,0.279004526274632,0.28,-0.0040014442349509205,0.003342226232,0.27975257441627993,0.3,-0.01386143360286951,-0.3834201134036047,-10.0,0.269459068775177,-0.3834201133915691,-10.0,1.0780969858169556,-0.12301374777181484,-10.0,-0.003067961661145091,-1.3941908477366365,-10.0,0.7922371625900269,-2.068923381982301,-10.0,-0.0348980613052845,0.0,-5.3420999686513095
4.479999999999992,0.279004526274632,0.28,-0.0040014442349509205,0.0037300469759999995,0.27975257441627993,0.3,-0.01386143360286951,-0.3827380542897104,-10.0,0.269459068775177,-0.3827380542780359,-10.0,1.0780969858169556,-0.12303220087236015,-10.0,-0.003067961661145091,-1.3941647626252884,-10.0,0.7922371625900269,-2.0688006282477613,-10.0,-0.0348980613052845,0.0,-5.3420999686513095
4.499999999999992,0.279004526274632,0.28,-0.0040014442349509205,0.004140625,0.27975257441627993,0.3,-0.01386143360286951,-0.38201589118869955,-10.0,0.269459068775177,-0.3820158911722016,-10.0,1.0780969858169556,-0.12305312578151865,-10.0,-0.003067961661145091,-1.3941248773928332,-10.0,0.7922371625900269,-2.068661928801791,-10.0,-0.0348980613052845,0.0,-5.3420999686513095
4.519999999999992,0.279004526274632,0.28,-0.0040014442349509205,0.004573697024000001,0.27975257441627993,0.3,-0.01386143360286951,-0.3812541371995693,-10.0,0.269459068775177,-0.38125413718365775,-10.0,1.0780969858169556,-0.1230767468841291,-10.0,-0.003067961661145091,-1.3940690230774015,-10.0,0.7922371625900269,-2.068505877129256,-10.0,-0.0348980613052845,0.0,-5.3420999686513095
4.539999999999991,0.2791644617602581,0.28,-0.004222419680673767,0.005028927768000001,0.2794734211529245,0.3,-0.014827841892838478,-0.38045343308074847,-10.0,0.2713765501976013,-0.3804534330705594,-10.0,1.079237937927246,-0.12310329193135303,-10.0,-0.0019174759509041905,-1.3939949277960286,-10.0,0.7935953736305237,-2.0683310476284498,-10.0,-0.03528155758976936,0.0,-5.3404125849995765
4.559999999999991,0.2791644617602581,0.28,-0.004222419680673767,0.005505912832000001,0.2794734211529245,0.3,-0.014827841892838478,-0.37961454164123865,-10.0,0.2713765501976013,-0.3796145416313553,-10.0,1.079237937927246,-0.12313298993341772,-10.0,-0.0019174759509041905,-1.3939002304384265,-10.0,0.7935953736305237,-2.06813600891618,-10.0,-0.03528155758976936,0.0,-5.3404125849995765
4.57999999999999,0.2791644617602581,0.28,-0.004222419680673767,0.0060041815759999985,0.2794734211529245,0.3,-0.014827841892838478,-0.37873834211615376,-10.0,0.2713765501976013,-0.3787383421119086,-10.0,1.079237937927246,-0.12316606895113891,-10.0,-0.0019174759509041905,-1.3937824957795513,-10.0,0.7935953736305237,-2.0679193377746934,-10.0,-0.03528155758976936,0.0,-5.3404125849995765
4.59999999999999,0.2791644617602581,0.28,-0.004222419680673767,0.006523199999999998,0.2794734211529245,0.3,-0.014827841892838478,-0.37782582458978464,-10.0,0.2713765501976013,-0.3778258245855726,-10.0,1.079237937927246,-0.12320275382118966,-10.0,-0.0019174759509041905,-1.3936392309630175,-10.0,0.7935953736305237,-2.067679633520459,-10.0,-0.03528155758976936,0.0,-5.3404125849995765
4.6199999999999894,0.2791644617602581,0.28,-0.004222419680673767,0.007062373624,0.2794734211529245,0.3,-0.014827841892838478,-0.37687808439503845,-10.0,0.2713765501976013,-0.37687808438035153,-10.0,1.079237937927246,-0.12324326384018086,-10.0,-0.0019174759509041905,-1.3934679031952368,-10.0,0.7935953736305237,-2.06741553264727,-10.0,-0.03528155758976936,0.0,-5.3404125849995765
4.639999999999989,0.27908338191609094,0.28,-0.0054863499924594,0.0076210503680000045,0.27849681314510927,0.3,-0.019360754638910294,-0.3758963165189982,-10.0,0.27309268712997437,-0.3758963165101094,-10.0,1.0770156383514404,-0.12328781042526964,-10.0,-0.0019174759509041905,-1.3932659584065417,-10.0,0.7899202108383179,-2.067125723649091,-10.0,-0.03815777227282524,0.0,-5.314711555577815
4.659999999999989,0.27908338191609094,0.28,-0.0054863499924594,0.008198523432000001,0.27849681314510927,0.3,-0.019360754638910294,-0.37488181008248334,-10.0,0.27309268712997437,-0.3748818100739829,-10.0,1.0770156383514404,-0.1233365947907477,-10.0,-0.0019174759509041905,-1.3930308408519907,-10.0,0.7899202108383179,-2.0668089617714966,-10.0,-0.03815777227282524,0.0,-5.314711555577815
4.679999999999988,0.27908338191609094,0.28,-0.0054863499924594,0.008794034176,0.27849681314510927,0.3,-0.019360754638910294,-0.37383594275077386,-10.0,0.27309268712997437,-0.37383594274252846,-10.0,1.0770156383514404,-0.12338980565215595,-10.0,-0.0019174759509041905,-1.3927600133351263,-10.0,0.7899202108383179,-2.0664640836402683,-10.0,-0.03815777227282524,0.0,-5.314711555577815
4.699999999999988,0.27908338191609094,0.28,-0.0054863499924594,0.009406775000000001,0.27849681314510927,0.3,-0.019360754638910294,-0.37276017521862786,-10.0,0.27309268712997437,-0.37276017521076177,-10.0,1.0770156383514404,-0.12344761699134041,-10.0,-0.0019174759509041905,-1.3924509779776704,-10.0,0.7899202108383179,-2.066090021555557,-10.0,-0.03815777227282524,0.0,-5.314711555577815
4.719999999999987,0.27908338191609094,0.28,-0.0054863499924594,0.010035892224,0.27849681314510927,0.3,-0.019360754638910294,-0.37165604568893096,-10.0,0.27309268712997437,-0.3716560456814381,-10.0,1.0770156383514404,-0.12351018589705204,-10.0,-0.0019174759509041905,-1.3921012972361864,-10.0,0.7899202108383179,-2.065685817376744,-10.0,-0.03815777227282524,0.0,-5.314711555577815
4.739999999999987,0.27949217420605615,0.28,-0.004912791695553324,0.010680488968,0.2826503110937095,0.3,-0.017523812130093575,-0.37052516437206334,-10.0,0.266226202249527,-0.3705251643701554,-10.0,1.0869672298431396,-0.1235776505089136,-10.0,-0.0003834952076431364,-1.3917086150770854,-10.0,0.8043012619018555,-2.065250635818553,-10.0,-0.038733016699552536,0.0,-5.32522616491653
4.7599999999999865,0.27949217420605615,0.28,-0.004912791695553324,0.011339628032000004,0.2826503110937095,0.3,-0.017523812130093575,-0.36936920801482825,-10.0,0.266226202249527,-0.36936920801297757,-10.0,1.0869672298431396,-0.1236501280802083,-10.0,-0.0003834952076431364,-1.3912706780389945,-10.0,0.8043012619018555,-2.0647837770710398,-10.0,-0.038733016699552536,0.0,-5.32522616491653
4.779999999999986,0.27949217420605615,0.28,-0.004912791695553324,0.012012334775999998,0.2826503110937095,0.3,-0.017523812130093575,-0.36818991442184323,-10.0,0.266226202249527,-0.36818991442004806,-10.0,1.0869672298431396,-0.12372771317937353,-10.0,-0.0003834952076431364,-1.390785356026722,-10.0,0.8043012619018555,-2.064284688615547,-10.0,-0.038733016699552536,0.0,-5.32522616491653
4.799999999999986,0.27949217420605615,0.28,-0.004912791695553324,0.012697600000000003,0.2826503110937095,0.3,-0.017523812130093575,-0.3669890770225776,-10.0,0.266226202249527,-0.3669890770208363,-10.0,1.0869672298431396,-0.12381047604521701,-10.0,-0.0003834952076431364,-1.3902506626307474,-10.0,0.8043012619018555,-2.063752976141497,-10.0,-0.038733016699552536,0.0,-5.32522616491653
4.819999999999985,0.27949217420605615,0.28,-0.004912791695553324,0.013394382823999998,0.2826503110937095,0.3,-0.017523812130093575,-0.36576853944073284,-10.0,0.266226202249527,-0.365768539449411,-10.0,1.0869672298431396,-0.12389846111185475,-10.0,-0.0003834952076431364,-1.3896647748081057,-10.0,0.8043012619018555,-2.063188413455652,-10.0,-0.038733016699552536,0.0,-5.32522616491653
4.839999999999985,0.2790366466889885,0.28,-0.006391338209598235,0.014101613567999995,0.2816121775106827,0.3,-0.022817963734269142,-0.3645301901141961,-10.0,0.2676317095756531,-0.3645301901227644,-10.0,1.0841197967529297,-0.12399168571619416,-10.0,-0.0005752427969127893,-1.3890260517355872,-10.0,0.8049404621124268,-2.0625909512951197,-10.0,-0.03892476111650467,0.0,-5.328731051087381
4.859999999999984,0.2790366466889885,0.28,-0.006391338209598235,0.014818196632,0.2816121775106827,0.3,-0.022817963734269142,-0.36327595688531156,-10.0,0.2676317095756531,-0.3632759568934669,-10.0,1.0841197967529297,-0.12409013899703553,-10.0,-0.0005752427969127893,-1.3883330526647266,-10.0,0.8049404621124268,-2.0619607249764114,-10.0,-0.03892476111650467,0.0,-5.328731051087381
4.879999999999984,0.2790366466889885,0.28,-0.006391338209598235,0.015543013375999996,0.2816121775106827,0.3,-0.022817963734269142,-0.362007801670408,-10.0,0.2676317095756531,-0.36200780167829566,-10.0,1.0841197967529297,-0.1241937809987917,-10.0,-0.0005752427969127893,-1.3875845536449742,-10.0,0.8049404621124268,-2.0612980607794693,-10.0,-0.03892476111650467,0.0,-5.328731051087381
4.8999999999999835,0.2790366466889885,0.28,-0.006391338209598235,0.016274925000000006,0.2816121775106827,0.3,-0.022817963734269142,-0.3607277151317854,-10.0,0.2676317095756531,-0.360727715134102,-10.0,1.0841197967529297,-0.12430254198114636,-10.0,-0.0005752427969127893,-1.3867795629271598,-10.0,0.8049404621124268,-2.060603481046274,-10.0,-0.03892476111650467,0.0,-5.328731051087381
4.919999999999983,0.2790366466889885,0.28,-0.006391338209598235,0.017012775424,0.2816121775106827,0.3,-0.022817963734269142,-0.35943771137220504,-10.0,0.2676317095756531,-0.35943771137978514,-10.0,1.0841197967529297,-0.12441632194739613,-10.0,-0.0005752427969127893,-1.38591733496534,-10.0,0.8049404621124268,-2.059877707885406,-10.0,-0.03892476111650467,0.0,-5.328731051087381
4.939999999999983,0.2783173906811213,0.28,-0.007689001108659536,0.017755394168000007,0.27956652932167336,0.3,-0.027322115376591682,-0.3581398227069206,-10.0,0.2681877911090851,-0.3581398227090942,-10.0,1.0757136344909668,-0.12453499039095313,-10.0,-0.0019174759509041905,-1.3849973828720137,-10.0,0.7952731847763062,-2.059121665466627,-10.0,-0.04180097579956055,0.0,-5.255195841640234
4.959999999999982,0.2783173906811213,0.28,-0.007689001108659536,0.018501599231999996,0.27956652932167336,0.3,-0.027322115376591682,-0.3568360944049485,-10.0,0.2681877911090851,-0.35683609440705694,-10.0,1.0757136344909668,-0.12465838626121285,-10.0,-0.0019174759509041905,-1.3840194891891613,-10.0,0.7952731847763062,-2.0583364808751217,-10.0,-0.04180097579956055,0.0,-5.255195841640234
4.979999999999982,0.2783173906811213,0.28,-0.007689001108659536,0.019250199975999995,0.27956652932167336,0.3,-0.027322115376591682,-0.3555285795440826,-10.0,0.2681877911090851,-0.3555285795512674,-10.0,1.0757136344909668,-0.12478631815662244,-10.0,-0.0019174759509041905,-1.3829837149848299,-10.0,0.7952731847763062,-2.0575234834385903,-10.0,-0.04180097579956055,0.0,-5.255195841640234
4.999999999999981,0.2783173906811213,0.28,-0.007689001108659536,0.02,0.27956652932167336,0.3,-0.027322115376591682,-0.3542193338795444,-10.0,0.2681877911090851,-0.3542193338811585,-10.0,1.0757136344909668,-0.12491856473276912,-10.0,-0.0019174759509041905,-1.3818904070376115,-10.0,0.7952731847763062,-2.0566842025928227,-10.0,-0.04180097579956055,0.0,-5.255195841640234
5.019999999999981,0.2783173906811213,0.28,-0.007689001108659536,0.020749800024000013,0.27956652932167336,0.3,-0.027322115376591682,-0.35291041075057056,-10.0,0.2681877911090851,-0.35291041075213625,-10.0,1.0757136344909668,-0.12505487533591192,-10.0,-0.0019174759509041905,-1.3807402032319658,-10.0,0.7952731847763062,-2.0558203641735604,-10.0,-0.04180097579956055,0.0,-5.255195841640234
5.0399999999999805,0.27743105443784377,0.28,-0.008655427020926941,0.021498400768000005,0.28257733891151277,0.3,-0.030980659648776054,-0.3516038560926213,-10.0,0.25748443603515625,-0.35160385608878597,-10.0,1.075899600982666,-0.1251949708468071,-10.0,-0.0013422331539914012,-1.3795340359419501,-10.0,0.8030229806900024,-2.0549338852189223,-10.0,-0.044677190482616425,0.0,-5.29472323866561
5.05999999999998,0.27743105443784377,0.28,-0.008655427020926941,0.022244605832,0.28257733891151277,0.3,-0.030980659648776054,-0.35030170346759265,-10.0,0.25748443603515625,-0.350301703464326,-10.0,1.075899600982666,-0.12533854474137332,-10.0,-0.0013422331539914012,-1.3782731335428087,-10.0,0.8030229806900024,-2.0540268671981923,-10.0,-0.044677190482616425,0.0,-5.29472323866561
5.07999999999998,0.27743105443784377,0.28,-0.008655427020926941,0.02298722457600001,0.28257733891151277,0.3,-0.030980659648776054,-0.34900596919807686,-10.0,0.25748443603515625,-0.3490059691946909,-10.0,1.075899600982666,-0.12548526434739837,-10.0,-0.0013422331539914012,-1.3769590198176724,-10.0,0.8030229806900024,-2.0531015877951795,-10.0,-0.044677190482616425,0.0,-5.29472323866561
5.099999999999979,0.27743105443784377,0.28,-0.008655427020926941,0.023725075000000012,0.28257733891151277,0.3,-0.030980659648776054,-0.3477186475557727,-10.0,0.25748443603515625,-0.34771864755245646,-10.0,1.075899600982666,-0.12563477230909562,-10.0,-0.0013422331539914012,-1.3755935115128795,-10.0,0.8030229806900024,-2.0521604911202855,-10.0,-0.044677190482616425,0.0,-5.29472323866561
5.119999999999979,0.27743105443784377,0.28,-0.008655427020926941,0.024456986623999994,0.28257733891151277,0.3,-0.030980659648776054,-0.34644170603676144,-10.0,0.25748443603515625,-0.3464417060333163,-10.0,1.075899600982666,-0.12578668823253927,-10.0,-0.0013422331539914012,-1.3741787138040757,-10.0,0.8030229806900024,-2.051206176531255,-10.0,-0.044677190482616425,0.0,-5.29472323866561
5.139999999999978,0.2775931212359252,0.28,-0.0073483307144582115,0.025181803367999994,0.2819144272564575,0.3,-0.02628859505057335,-0.34517708072203745,-10.0,0.2604009211063385,-0.34517708071892955,-10.0,1.076553463935852,-0.12594061051760802,-10.0,-0.0011504855938255787,-1.3727170138769202,-10.0,0.8044610619544983,-2.050241385987558,-10.0,-0.044868938624858856,0.0,-5.302576670050622
5.159999999999978,0.2775931212359252,0.28,-0.0073483307144582115,0.025898386431999994,0.2819144272564575,0.3,-0.02628859505057335,-0.3439266717159643,-10.0,0.2604009211063385,-0.3439266717231101,-10.0,1.076553463935852,-0.12609611835436974,-10.0,-0.0011504855938255787,-1.3712110725129019,-10.0,0.8044610619544983,-2.049268990086685,-10.0,-0.044868938624858856,0.0,-5.302576670050622
5.1799999999999775,0.2775931212359252,0.28,-0.0073483307144582115,0.026605617176000008,0.2819144272564575,0.3,-0.02628859505057335,-0.3426923387005683,-10.0,0.2604009211063385,-0.3426923387123296,-10.0,1.076553463935852,-0.12625277388415987,-10.0,-0.0011504855938255787,-1.3696638138464687,-10.0,0.8044610619544983,-2.048291972756349,-10.0,-0.044868938624858856,0.0,-5.302576670050622
5.199999999999977,0.2775931212359252,0.28,-0.0073483307144582115,0.027302399999999984,0.2819144272564575,0.3,-0.02628859505057335,-0.341475896541187,-10.0,0.2604009211063385,-0.3414758965523454,-10.0,1.076553463935852,-0.12641012450629127,-10.0,-0.0011504855938255787,-1.36807841327394,-10.0,0.8044610619544983,-2.047313414734183,-10.0,-0.044868938624858856,0.0,-5.302576670050622
5.219999999999977,0.2775931212359252,0.28,-0.0073483307144582115,0.027987665224000004,0.2819144272564575,0.3,-0.02628859505057335,-0.340279111006953,-10.0,0.2604009211063385,-0.34027911101752134,-10.0,1.076553463935852,-0.1265677053192223,-10.0,-0.0011504855938255787,-1.36645828355866,-10.0,0.8044610619544983,-2.046336475910701,-10.0,-0.044868938624858856,0.0,-5.302576670050622
5.239999999999976,0.27636778649783267,0.28,-0.00739907369023016,0.028660371968000007,0.2817457454033192,0.3,-0.02652636356651783,-0.33910369458558254,-10.0,0.2551662027835846,-0.3391036945958338,-10.0,1.0693858861923218,-0.1267250416892818,-10.0,-0.0015339808305725455,-1.364807059296629,-10.0,0.8030229806900024,-2.0453643765817886,-10.0,-0.04506068676710129,0.0,-5.301732978224756
5.259999999999976,0.27636778649783267,0.28,-0.00739907369023016,0.029319511031999996,0.2817457454033192,0.3,-0.02652636356651783,-0.3379513023735427,-10.0,0.2551662027835846,-0.33795130238333465,-10.0,1.0693858861923218,-0.12688165192474832,-10.0,-0.0015339808305725455,-1.3631285797128816,-10.0,0.8030229806900024,-2.0444003777825093,-10.0,-0.04506068676710129,0.0,-5.301732978224756
5.279999999999975,0.27636778649783267,0.28,-0.00739907369023016,0.029964107776000035,0.2817457454033192,0.3,-0.02652636356651783,-0.336823528055059,-10.0,0.2551662027835846,-0.3368235280645572,-10.0,1.0693858861923218,-0.12703705005053234,-10.0,-0.0015339808305725455,-1.3614268699635503,-10.0,0.8030229806900024,-2.043447760744976,-10.0,-0.04506068676710129,0.0,-5.301732978224756
5.299999999999975,0.27636778649783267,0.28,-0.00739907369023016,0.030593224999999974,0.2817457454033192,0.3,-0.02652636356651783,-0.33572189995624424,-10.0,0.2551662027835846,-0.3357218999654575,-10.0,1.0693858861923218,-0.1271907486626731,-10.0,-0.0015339808305725455,-1.3597061209561063,-10.0,0.8030229806900024,-2.0425098056600706,-10.0,-0.04506068676710129,0.0,-5.301732978224756
5.3199999999999745,0.27636778649783267,0.28,-0.00739907369023016,0.031205965824000002,0.2817457454033192,0.3,-0.02652636356651783,-0.3346478771701846,-10.0,0.2551662027835846,-0.33464787718384725,-10.0,1.0693858861923218,-0.12734226185367237,-10.0,-0.0015339808305725455,-1.3579706678741221,-10.0,0.8030229806900024,-2.0415897698213805,-10.0,-0.04506068676710129,0.0,-5.301732978224756
