armandomm09/Control-Challenge-4.1/trials/trial_pid_nopert.csv
time,p_x,p_des_x,p_y,p_des_y,p_z,p_des_z,q_1,q_des_1,tau_1,q_2,q_des_2,tau_2,q_3,q_des_3,tau_3,q_4,q_des_4,tau_4,q_5,q_des_5,tau_5,q_6,q_des_6,tau_6
0.0,0.2872,0.28,0.29011,0.0,0.24350000000000002,0.3,0.0,0.0,-10.0,0.0,0.0,-10.0,0.0,0.0,-10.0,0.0,0.0,-3.055517198381878,0.0,0.0,-10.0,0.0,0.0,-0.0
0.02,0.2872,0.28,0.29011,0.0,0.24350000000000002,0.3,0.0,-0.13361776130836275,-10.0,0.0,-0.13361776130836275,-10.0,0.0,-0.020173437687047664,-10.0,0.0,-0.006111034396763756,-2.184820001503456,0.0,-1.2033842279538352,-10.0,0.0,0.0,-0.0
0.04,0.2872,0.28,0.29011,0.0,0.24350000000000002,0.3,0.0,-0.1799897576251413,-10.0,0.0,-0.1799897576251413,-10.0,0.0,-0.04616063653101965,-10.0,0.0,-0.010113279011837232,-2.241295199470157,0.0,-1.66065160390536,-10.0,0.0,0.0,-0.0
0.06,0.2872,0.28,0.29011,0.0,0.24350000000000002,0.3,0.0,-0.2031832543436036,-10.0,0.0,-0.20318325431187723,-10.0,0.0,-0.06812890471138416,-10.0,0.0,-0.01398712575245828,-4.682526632047578,0.0,-2.02192212318762,-10.0,0.0,0.0,-0.0
0.08,0.2872,0.28,0.29011,0.0,0.24350000000000002,0.3,0.0,-0.21052214750714887,-10.0,0.0,-0.21052214749133405,-10.0,0.0,-0.08364293547502274,-10.0,0.0,-0.022509326098706612,-10.0,0.0,-2.346535218504122,10.0,0.0,0.0,-0.0
0.1,0.2872,0.28,0.29011,0.0,0.24350000000000002,0.3,0.0,-0.2683206598642297,-10.0,0.0,-0.2683206598488893,-10.0,0.0,-0.10203466186858298,-10.0,0.0,-0.04267748084374999,-10.0,0.0,-2.0712094881984764,-10.0,0.0,0.0,-0.0
0.12000000000000001,0.2872,0.28,0.29011,0.0,0.24350000000000002,0.3,0.0,-0.2691998734985833,-10.0,0.0,-0.26919987348753566,-10.0,0.0,-0.11084756112249433,-10.0,0.0,-0.06240375877062617,-10.0,0.0,-2.284611772672461,1.569245281961023,0.0,0.0,-0.0
0.14,0.2872,0.28,0.29011,0.0,0.24350000000000002,0.3,0.0,-0.30127202554647625,-10.0,0.0,-0.30127202554437754,-10.0,0.0,-0.12120297152311013,-5.220693255717693,0.0,-0.10704091806242347,-10.0,0.0,-2.1367415922320876,-10.0,0.0,0.0,-0.0
0.16,0.2872,0.28,0.29011,0.0,0.24350000000000002,0.3,0.0,-0.30127143123075684,-10.0,0.0,-0.30127143129303835,-10.0,0.0,-0.12165633621439788,-4.777596237409534,0.0,-0.16071131179531362,-10.0,0.0,-2.2608937755952176,-10.0,0.0,0.0,-0.0
0.18,0.2872,0.28,0.29011,0.0,0.24350000000000002,0.3,0.0,-0.3205431653115587,-10.0,0.0,-0.3205431653698094,-10.0,0.0,-0.12143341913485546,2.177440445410008,0.0,-0.2559661381800407,-10.0,0.0,-2.1706661904065863,-10.0,0.0,0.0,-0.0
0.19999999999999998,0.2872,0.28,0.29011,0.0,0.24350000000000002,0.3,0.0,-0.32208718341104325,-10.0,0.0,-0.32208718346677623,-10.0,0.0,-0.11127012585309687,3.3273869865332295,0.0,-0.3706387540836987,-10.0,0.0,-2.233951159898192,-10.0,0.0,0.0,-0.0
0.21999999999999997,0.2872,0.28,0.29011,0.0,0.24350000000000002,0.3,0.0,-0.3317459378943768,-10.0,0.0,-0.3317459379505969,-10.0,0.0,-0.10002891568214087,4.47153497893211,0.0,-0.5198528444430173,-10.0,0.0,-2.210740429610156,-10.0,0.0,0.0,-0.0
0.23999999999999996,0.2872,0.28,0.29011,0.0,0.24350000000000002,0.3,0.0,-0.3373815291618149,-10.0,0.0,-0.33738152921634845,-10.0,0.0,-0.08778127340100078,2.498509575635872,0.0,-0.664597266483998,-10.0,0.0,-2.2209346854743957,-10.0,0.0,0.0,-0.0
0.25999999999999995,0.2872,0.28,0.29011,0.0,0.24350000000000002,0.3,0.0,-0.34317333330446215,-10.0,0.0,-0.34317333335767347,-10.0,0.0,-0.0790395639301489,0.2482138997019641,0.0,-0.7921379103903836,-10.0,0.0,-2.2238239280694176,-10.0,0.0,0.0,-0.0
0.27999999999999997,0.2872,0.28,0.29011,0.0,0.24350000000000002,0.3,0.0,-0.3484259628460559,-10.0,0.0,-0.34842596289747496,-10.0,0.0,-0.07400079745697553,-1.672955449461904,0.0,-0.8964684408291094,-10.0,0.0,-2.2242436588705927,-10.0,0.0,0.0,-0.0
0.3,0.2872,0.28,0.29011,0.0,0.24350000000000002,0.3,0.0,-0.3530965810651999,-10.0,0.0,-0.353096581099718,-10.0,0.0,-0.07198391659572376,-3.1142338541176158,0.0,-0.979854140028648,-10.0,0.0,-2.22206656112055,-10.0,0.0,0.0,-0.0
0.32,0.2872,0.28,0.29011,0.0,0.24350000000000002,0.3,0.0,-0.3572072927950845,-10.0,0.0,-0.35720729284118213,-10.0,0.0,-0.07213097180225228,-4.135787449709497,0.0,-1.0463010801484014,-10.0,0.0,-2.217597290149736,-10.0,0.0,0.0,-0.0
0.34,0.2872,0.28,0.29011,0.0,0.24350000000000002,0.3,0.0,-0.3608112162912538,-10.0,0.0,-0.3608112163359751,-10.0,0.0,-0.07371868170899583,-4.835464659147492,0.0,-1.0995341388239532,-10.0,0.0,-2.211331301658702,-10.0,0.0,0.0,-0.0
0.36000000000000004,0.2872,0.28,0.29011,0.0,0.24350000000000002,0.3,0.0,-0.36397043231105064,-10.0,0.0,-0.36397043237295146,-10.0,0.0,-0.07620467296573559,-5.300133377619629,0.0,-1.1425539755934557,-10.0,0.0,-2.2037913856782354,-10.0,0.0,0.0,-0.0
0.38000000000000006,0.2872,0.28,0.29011,0.0,0.24350000000000002,0.3,0.0,-0.36674479282881717,-10.0,0.0,-0.36674479288046563,-10.0,0.0,-0.07920153365234103,-5.597238511893963,0.0,-1.1776674510805778,-10.0,0.0,-2.1954507541645683,-10.0,0.0,0.0,-0.0
0.4000000000000001,0.2872,0.28,0.29011,0.0,0.24350000000000002,0.3,0.0,-0.36918747008778746,-10.0,0.0,-0.3691874701379439,-10.0,0.0,-0.08244026655815345,-5.776764046384984,0.0,-1.2066210920887184,-10.0,0.0,-2.18670382564568,-10.0,0.0,0.0,-0.0
0.4200000000000001,0.2872,0.28,0.29011,0.0,0.24350000000000002,0.3,0.0,-0.37134395088861955,-10.0,0.0,-0.3713439509228379,-10.0,0.0,-0.08573861688054116,-5.875027001050466,0.0,-1.2307334554328733,-10.0,0.0,-2.177861033477424,-10.0,0.0,0.0,-0.0
0.4400000000000001,0.2872,0.28,0.29011,0.0,0.24350000000000002,0.3,0.0,-0.3732525466605186,-10.0,0.0,-0.37325254669371044,-10.0,0.0,-0.08897661731733161,-5.918129770339375,0.0,-1.2510029152689404,-10.0,0.0,-2.169155056293256,-10.0,0.0,0.0,-0.0
0.46000000000000013,0.2872,0.28,0.29011,0.0,0.24350000000000002,0.3,0.0,-0.3749454226903369,-10.0,0.0,-0.3749454227225916,-10.0,0.0,-0.09207845359710143,-5.924678785288692,0.0,-1.2681899513480837,-10.0,0.0,-2.1607518056403316,-10.0,0.0,0.0,-0.0
0.48000000000000015,0.2872,0.28,0.29011,0.0,0.24350000000000002,0.3,0.0,-0.37644968297764025,-10.0,0.0,-0.3764496830088701,-10.0,0.0,-0.09499924376029813,-5.907828127927309,0.0,-1.2828783782396684,-10.0,0.0,-2.152762644977946,-10.0,0.0,0.0,-0.0
0.5000000000000001,0.2872,0.28,0.29011,0.0,0.24350000000000002,0.3,0.0,-0.3777883273535624,-10.0,0.0,-0.3777883273776941,-10.0,0.0,-0.09771548794025871,-5.8767892236044625,0.0,-1.295520424307072,-10.0,0.0,-2.1452560364114253,-10.0,0.0,0.0,-0.0
0.5200000000000001,0.2872,0.28,0.29011,0.0,0.24350000000000002,0.3,0.0,-0.3789810323309514,-10.0,0.0,-0.378981032354296,-10.0,0.0,-0.10021821751976887,-5.837937410880532,0.0,-1.3064698009646738,-10.0,0.0,-2.1382677851427037,-10.0,0.0,0.0,-0.0
0.5400000000000001,0.2872,0.28,0.29011,0.0,0.24350000000000002,0.3,0.0,-0.3800447650510106,-10.0,0.0,-0.38004476507366264,-10.0,0.0,-0.10250811450262715,-5.7956190636722145,0.0,-1.3160059677324485,-10.0,0.0,-2.131809601741912,-10.0,0.0,0.0,-0.0
0.5600000000000002,0.2872,0.28,0.29011,0.0,0.24350000000000002,0.3,0.0,-0.38099425906246187,-10.0,0.0,-0.38099425909597356,-10.0,0.0,-0.10459206143123842,-5.752737770962012,0.0,-1.3243519852997807,-10.0,0.0,-2.1258760008373314,-10.0,0.0,0.0,-0.0
0.5800000000000002,0.2872,0.28,0.29011,0.0,0.24350000000000002,0.3,0.0,-0.38184238303843354,-10.0,0.0,-0.3818423830766851,-10.0,0.0,-0.10648072496556715,-5.711178255818172,0.0,-1.3316877092827415,-10.0,0.0,-2.1204497021974036,-10.0,0.0,0.0,-0.0
0.6000000000000002,0.10874164874582985,0.28,0.3452265479344156,0.0,0.024417300138504013,0.3,0.037459809333086014,-0.3826004291044722,-10.0,0.32409754395484924,-0.38260042914157616,-10.0,0.7789726853370667,-0.1081868826013051,-10.0,-0.011888351291418076,-1.3381595967159268,-10.0,0.4291950464248657,-2.1155057576771776,-10.0,-0.07286408543586731,0.0,1.4587389904260577
0.6200000000000002,0.10874164874582985,0.28,0.3452265479344156,0.0,0.024417300138504013,0.3,0.037459809333086014,-0.3832783417338192,-10.0,0.32409754395484924,-0.38327834176975717,-10.0,0.7789726853370667,-0.1097242807368725,-10.0,-0.011888351291418076,-1.3438880438042706,-10.0,0.4291950464248657,-2.111014635214899,-10.0,-0.07286408543586731,0.0,1.4601962721347752
0.6400000000000002,0.10874164874582985,0.28,0.3452265479344156,0.0,0.024417300138504013,0.3,0.037459809333086014,-0.38388490266863634,-10.0,0.32409754395484924,-0.38388490269788283,-10.0,0.7789726853370667,-0.11110687040568787,-10.0,-0.011888351291418076,-1.348972917345841,-10.0,0.4291950464248657,-2.1069444728787605,-10.0,-0.07286408543586731,0.0,1.4616535538434925
0.6600000000000003,0.10874164874582985,0.28,0.3452265479344156,0.0,0.024417300138504013,0.3,0.037459809333086014,-0.38442788297889946,-10.0,0.32409754395484924,-0.3844278830072686,-10.0,0.7789726853370667,-0.112348309625904,-10.0,-0.011888351291418076,-1.3534977576728744,-10.0,0.4291950464248657,-2.1032626871209366,-10.0,-0.07286408543586731,0.0,1.4631108355522098
0.6800000000000003,0.10874164874582985,0.28,0.3452265479344156,0.0,0.024417300138504013,0.3,0.037459809333086014,-0.38491417022435054,-10.0,0.32409754395484924,-0.38491417025192076,-10.0,0.7789726853370667,-0.11346165249887977,-10.0,-0.011888351291418076,-1.3575329987056315,-10.0,0.4291950464248657,-2.0999370878149644,-10.0,-0.07286408543586731,0.0,1.464568117260927
0.7000000000000003,0.10874164874582985,0.28,0.3452265479344156,0.0,0.024417300138504013,0.3,0.037459809333086014,-0.3853498762715938,-10.0,0.32409754395484924,-0.38534987630379475,-10.0,0.7789726853370667,-0.11445916787043192,-10.0,-0.011888351291418076,-1.3611384561108226,-10.0,0.4291950464248657,-2.0969366227828057,-10.0,-0.07286408543586731,0.0,1.4660253989696446
0.7200000000000003,0.10874164874582985,0.28,0.3452265479344156,0.0,0.024417300138504013,0.3,0.037459809333086014,-0.38574042981526546,-10.0,0.32409754395484924,-0.38574042984655227,-10.0,0.7789726853370667,-0.11535224677566777,-10.0,-0.011888351291418076,-1.364365266493088,-10.0,0.4291950464248657,-2.0942318485024076,-10.0,-0.07286408543586731,0.0,1.4674826806783619
0.7400000000000003,0.10874164874582985,0.28,0.3452265479344156,0.0,0.024417300138504013,0.3,0.037459809333086014,-0.38609065644801516,-10.0,0.32409754395484924,-0.3860906564838033,-10.0,0.7789726853370667,-0.11615136975170728,-10.0,-0.011888351291418076,-1.367257411942186,-10.0,0.4291950464248657,-2.0917952016674355,-10.0,-0.07286408543586731,0.0,1.4689399623870791
0.7600000000000003,0.10874164874582985,0.28,0.3452265479344156,0.0,0.024417300138504013,0.3,0.037459809333086014,-0.38640484848105267,-10.0,0.32409754395484924,-0.386404848521176,-10.0,0.7789726853370667,-0.11686611359573833,-10.0,-0.011888351291418076,-1.3698529289009256,-10.0,0.4291950464248657,-2.089601128650011,-10.0,-0.07286408543586731,0.0,1.4703972440957966
0.7800000000000004,0.10874164874582985,0.28,0.3452265479344156,0.0,0.024417300138504013,0.3,0.037459809333086014,-0.38668682608002825,-10.0,0.32409754395484924,-0.38668682611345034,-10.0,0.7789726853370667,-0.11750518326028567,-10.0,-0.011888351291418076,-1.3721848749495653,-10.0,0.4291950464248657,-2.087626115712836,-10.0,-0.07286408543586731,0.0,1.471854525804514
0.8000000000000004,0.10874164874582985,0.28,0.3452265479344156,0.0,0.024417300138504013,0.3,0.037459809333086014,-0.3869399909947928,-10.0,0.32409754395484924,-0.38693999102721227,-10.0,0.7789726853370667,-0.11807645892658779,-10.0,-0.011888351291418076,-1.374282108482951,-10.0,0.4291950464248657,-2.0858486518595503,-10.0,-0.07286408543586731,0.0,1.4733118075132312
0.8200000000000004,0.10874164874582985,0.28,0.3452265479344156,0.0,0.024417300138504013,0.3,0.037459809333086014,-0.38716737394439615,-10.0,0.32409754395484924,-0.3871673739705309,-10.0,0.7789726853370667,-0.11858705139164112,-10.0,-0.011888351291418076,-1.3761699226017232,-10.0,0.4291950464248657,-2.084249147792376,-10.0,-0.07286408543586731,0.0,1.4747690892219485
0.8400000000000004,0.10874164874582985,0.28,0.3452265479344156,0.0,0.024417300138504013,0.3,0.037459809333086014,-0.38737167639028264,-10.0,0.32409754395484924,-0.38737167642088444,-10.0,0.7789726853370667,-0.11904336111055207,-10.0,-0.011888351291418076,-1.3778705645755656,-10.0,0.4291950464248657,-2.082809827951034,-10.0,-0.07286408543586731,0.0,1.476226370930666
0.8600000000000004,0.10874164874582985,0.28,0.3452265479344156,0.0,0.024417300138504013,0.3,0.037459809333086014,-0.3875553075118468,-10.0,0.32409754395484924,-0.3875553075414794,-10.0,0.7789726853370667,-0.119451137794989,-10.0,-0.011888351291418076,-1.3794036648728918,-10.0,0.4291950464248657,-2.0815146077283577,-10.0,-0.07286408543586731,0.0,1.4776836526393833
0.8800000000000004,0.10874164874582985,0.28,0.3452265479344156,0.0,0.024417300138504013,0.3,0.037459809333086014,-0.3877204168495492,-10.0,0.32409754395484924,-0.38772041687817593,-10.0,0.7789726853370667,-0.11981553854272486,-10.0,-0.011888351291418076,-1.3807865939659434,-10.0,0.4291950464248657,-2.0803489644709887,-10.0,-0.07286408543586731,0.0,1.4791409343481006
0.9000000000000005,0.10874164874582985,0.28,0.3452265479344156,0.0,0.024417300138504013,0.3,0.037459809333086014,-0.3878689232382812,-10.0,0.32409754395484924,-0.38786892326070455,-10.0,0.7789726853370667,-0.12014118325831409,-10.0,-0.011888351291418076,-1.3820347612725736,-10.0,0.4291950464248657,-2.0792998080297465,-10.0,-0.07286408543586731,0.0,1.4805982160568179
0.9200000000000005,0.10874164874582985,0.28,0.3452265479344156,0.0,0.024417300138504013,0.3,0.037459809333086014,-0.3880025403903947,-10.0,0.32409754395484924,-0.38800254041215265,-10.0,0.7789726853370667,-0.12043220663255122,-10.0,-0.011888351291418076,-1.383161867148207,-10.0,0.4291950464248657,-2.0783553548302045,-10.0,-0.07286408543586731,0.0,1.4820554977655354
0.9400000000000005,0.10874164874582985,0.28,0.3452265479344156,0.0,0.024417300138504013,0.3,0.037459809333086014,-0.38812279958585105,-10.0,0.32409754395484924,-0.3881227996122815,-10.0,0.7789726853370667,-0.120692306333352,-10.0,-0.011888351291418076,-1.3841801167403769,-10.0,0.4291950464248657,-2.077505007843588,-10.0,-0.07286408543586731,0.0,1.4835127794742526
0.9600000000000005,0.10874164874582985,0.28,0.3452265479344156,0.0,0.024417300138504013,0.3,0.037459809333086014,-0.38823106976057514,-10.0,0.32409754395484924,-0.3882310697862127,-10.0,0.7789726853370667,-0.12092478728178654,-10.0,-0.011888351291418076,-1.3851004024416624,-10.0,0.4291950464248657,-2.0767392439841172,-10.0,-0.07286408543586731,0.0,1.48497006118297
0.9800000000000005,0.10874164874582985,0.28,0.3452265479344156,0.0,0.024417300138504013,0.3,0.037459809333086014,-0.38832857529830955,-10.0,0.32409754395484924,-0.3883285753231343,-10.0,0.7789726853370667,-0.12113260206174899,-10.0,-0.011888351291418076,-1.3859324604244136,-10.0,0.4291950464248657,-2.076049509645526,-10.0,-0.07286408543586731,0.0,1.4864273428916874
1.0000000000000004,0.10874164874582985,0.28,0.3452265479344156,0.0,0.024417300138504013,0.3,0.037459809333086014,-0.3884164118302914,-10.0,0.32409754395484924,-0.3884164118544296,-10.0,0.7789726853370667,-0.12131838761151388,-10.0,-0.011888351291418076,-1.3866850056243483,-10.0,0.4291950464248657,-2.0754281246089246,-10.0,-0.07286408543586731,0.0,1.4878846246004047
1.0200000000000005,0.10874164874582985,0.28,0.3452265479344156,0.0,0.024417300138504013,0.3,0.037459809333086014,-0.3884955602333221,-10.0,0.32409754395484924,-0.38849556025673615,-10.0,0.7789726853370667,-0.12148449839820136,-10.0,-0.011888351291418076,-1.3873658486146518,-10.0,0.4291950464248657,-2.0748681942812865,-10.0,-0.07286408543586731,0.0,1.489341906309122
1.0400000000000005,0.10874164874582985,0.28,0.3452265479344156,0.0,0.024417300138504013,0.3,0.037459809333086014,-0.38856689906273656,-10.0,0.32409754395484924,-0.3885668990854991,-10.0,0.7789726853370667,-0.12163303633084958,-10.0,-0.011888351291418076,-1.3879819973599168,-10.0,0.4291950464248657,-2.0743635298539482,-10.0,-0.07286408543586731,0.0,1.4907991880178393
1.0600000000000005,0.10874164874582985,0.28,0.3452265479344156,0.0,0.024417300138504013,0.3,0.037459809333086014,-0.38863121557914354,-10.0,0.32409754395484924,-0.388631215601274,-10.0,0.7789726853370667,-0.12176587764467171,-10.0,-0.011888351291418076,-1.3885397459386835,-10.0,0.4291950464248657,-2.0739085761052345,-10.0,-0.07286408543586731,0.0,1.4922564697265568
1.0800000000000005,0.10874164874582985,0.28,0.3452265479344156,0.0,0.024417300138504013,0.3,0.037459809333086014,-0.3886892155543763,-10.0,0.32409754395484924,-0.3886892155705441,-10.0,0.7789726853370667,-0.12188469703506913,-10.0,-0.011888351291418076,-1.3890447523844975,-10.0,0.4291950464248657,-2.0734983461732197,-10.0,-0.07286408543586731,0.0,1.493713751435274
1.1000000000000005,0.10874164874582985,0.28,0.3452265479344156,0.0,0.024417300138504013,0.3,0.037459809333086014,-0.3887415319711984,-10.0,0.32409754395484924,-0.3887415319868811,-10.0,0.7789726853370667,-0.12199098927897,-10.0,-0.011888351291418076,-1.3895021070811044,-10.0,0.4291950464248657,-2.07312836284043,-10.0,-0.07286408543586731,0.0,1.4951710331439914
1.1200000000000006,0.10874164874582985,0.28,0.3452265479344156,0.0,0.024417300138504013,0.3,0.037459809333086014,-0.388788732780209,-10.0,0.32409754395484924,-0.38878873279547205,-10.0,0.7789726853370667,-0.12208608857838858,-10.0,-0.011888351291418076,-1.3899163930106946,-10.0,0.4291950464248657,-2.072794605796917,-10.0,-0.07286408543586731,0.0,1.4966283148527089
1.1400000000000006,0.10874164874582985,0.28,0.3452265479344156,0.0,0.024417300138504013,0.3,0.037459809333086014,-0.3888313277826847,-10.0,0.32409754395484924,-0.38883132779755514,-10.0,0.7789726853370667,-0.12217118585958386,-10.0,-0.011888351291418076,-1.3902917390739782,-10.0,0.4291950464248657,-2.072493464264246,-10.0,-0.07286408543586731,0.0,1.4980855965614261
1.1600000000000006,0.10874164874582985,0.28,0.3452265479344156,0.0,0.024417300138504013,0.3,0.037459809333086014,-0.38886977476583656,-10.0,0.32409754395484924,-0.38886977478031165,-10.0,0.7789726853370667,-0.12224734422254149,-10.0,-0.011888351291418076,-1.3906318672826241,-10.0,0.4291950464248657,-2.0722216945498695,-10.0,-0.07286408543586731,0.0,1.4995428782701434
1.1800000000000006,0.10874164874582985,0.28,0.3452265479344156,0.0,0.024417300138504013,0.3,0.037459809333086014,-0.3889044849663721,-10.0,0.32409754395484924,-0.3889044849804637,-10.0,0.7789726853370667,-0.12231551273516075,-10.0,-0.011888351291418076,-1.3909401346678385,-10.0,0.4291950464248657,-2.0719763820129398,-10.0,-0.07286408543586731,0.0,1.5010001599788607
1.2000000000000006,0.10874164874582985,0.28,0.3452265479344156,0.0,0.024417300138504013,0.3,0.037459809333086014,-0.3889358279361778,-10.0,0.32409754395484924,-0.38893582795513365,-10.0,0.7789726853370667,-0.12237653874152168,-10.0,-0.011888351291418076,-1.3912195705455348,-10.0,0.4291950464248657,-2.071754907017496,-10.0,-0.07286408543586731,0.0,1.5024574416875782
1.2200000000000006,0.10874164874582985,0.28,0.3452265479344156,0.0,0.024417300138504013,0.3,0.037459809333086014,-0.38896413589605794,-10.0,0.32409754395484924,-0.38896413591445234,-10.0,0.7789726853370667,-0.12243117884387787,-10.0,-0.011888351291418076,-1.391472909737065,-10.0,0.4291950464248657,-2.07155491444179,-10.0,-0.07286408543586731,0.0,1.5039147233962955
1.2400000000000007,0.10874164874582985,0.28,0.3452265479344156,0.0,0.024417300138504013,0.3,0.037459809333086014,-0.38898970759488033,-10.0,0.32409754395484924,-0.38898970761277357,-10.0,0.7789726853370667,-0.12248010869669379,-10.0,-0.011888351291418076,-1.391702622218007,-10.0,0.4291950464248657,-2.0713742863918694,-10.0,-0.07286408543586731,0.0,1.5053720051050128
1.2600000000000007,0.10874164874582985,0.28,0.3452265479344156,0.0,0.024417300138504013,0.3,0.037459809333086014,-0.38901281177535807,-10.0,0.32409754395484924,-0.3890128117979978,-10.0,0.7789726853370667,-0.12252393173784136,-10.0,-0.011888351291418076,-1.3919109395885119,-10.0,0.4291950464248657,-2.071211117798298,-10.0,-0.07286408543586731,0.0,1.5068292868137303
1.2800000000000007,0.10874164874582985,0.28,0.3452265479344156,0.0,0.024417300138504013,0.3,0.037459809333086014,-0.3890336902720346,-10.0,0.32409754395484924,-0.3890336902939879,-10.0,0.7789726853370667,-0.12256318697515547,-10.0,-0.011888351291418076,-1.3920998787741956,-10.0,0.4291950464248657,-2.0710636945634833,-10.0,-0.07286408543586731,0.0,1.5082865685224476
1.3000000000000007,0.10874164874582985,0.28,0.3452265479344156,0.0,0.024417300138504013,0.3,0.037459809333086014,-0.3890525607594689,-10.0,0.32409754395484924,-0.38905256078076356,-10.0,0.7789726853370667,-0.12259835593071741,-10.0,-0.011888351291418076,-1.3922712632814436,-10.0,0.4291950464248657,-2.0709304739852796,-10.0,-0.07286408543586731,0.0,1.5097438502311649
1.3200000000000007,0.10874164874582985,0.28,0.3452265479344156,0.0,0.024417300138504013,0.3,0.037459809333086014,-0.3890696192316404,-10.0,0.32409754395484924,-0.389069619246965,-10.0,0.7789726853370667,-0.1226298688262121,-10.0,-0.011888351291418076,-1.392426742194735,-10.0,0.4291950464248657,-2.0708100672738143,-10.0,-0.07286408543586731,0.0,1.5112011319398821
1.3400000000000007,0.10874164874582985,0.28,0.3452265479344156,0.0,0.024417300138504013,0.3,0.037459809333086014,-0.3890850422014203,-10.0,0.32409754395484924,-0.3890850422164083,-10.0,0.7789726853370667,-0.12265811010361075,-10.0,-0.011888351291418076,-1.392567807299531,-10.0,0.4291950464248657,-2.0707012238494946,-10.0,-0.07286408543586731,0.0,1.5126584136485997
1.3600000000000008,0.10874164874582985,0.28,0.3452265479344156,0.0,0.024417300138504013,0.3,0.037459809333086014,-0.3890989886932304,-10.0,0.32409754395484924,-0.3890989887077687,-10.0,0.7789726853370667,-0.12268342334313138,-10.0,-0.011888351291418076,-1.3926958084089225,-10.0,0.4291950464248657,-2.070602817310464,-10.0,-0.07286408543586731,0.0,1.514115695357317
1.3800000000000008,0.10874164874582985,0.28,0.3452265479344156,0.0,0.024417300138504013,0.3,0.037459809333086014,-0.3891116020010544,-10.0,0.32409754395484924,-0.3891116020203843,-10.0,0.7789726853370667,-0.12270611564986313,-10.0,-0.011888351291418076,-1.3928119671688888,-10.0,0.4291950464248657,-2.0705138328472987,-10.0,-0.07286408543586731,0.0,1.5155729770660342
1.4000000000000008,0.2433545238256051,0.28,0.008812800270910531,0.0,0.2045549315316896,0.3,0.037459809333086014,-0.38912301128895854,-10.0,0.32409754395484924,-0.3891230113077592,-10.0,0.7789726853370667,-0.12272646156487758,-10.0,-0.011888351291418076,-1.3929173894686029,-10.0,0.4291950464248657,-2.0704333559671473,-10.0,-0.07286408543586731,0.0,1.5170302587747515
1.4200000000000008,0.2433545238256051,0.28,0.008812800270910531,0.0,0.2045549315316896,0.3,0.037459809333086014,-0.38913333300260705,-10.0,0.32409754395484924,-0.38913333301556635,-10.0,0.7789726853370667,-0.12274470655530993,-10.0,-0.011888351291418076,-1.3930130766304651,-10.0,0.4291950464248657,-2.0703605623681014,-10.0,-0.07286408543586731,0.0,1.518487540483469
1.4400000000000008,0.2433545238256051,0.28,0.008812800270910531,0.0,0.2045549315316896,0.3,0.037459809333086014,-0.38914267214302206,-10.0,0.32409754395484924,-0.38914267215559983,-10.0,0.7789726853370667,-0.12276107012303497,-10.0,-0.011888351291418076,-1.3930999354561855,-10.0,0.4291950464248657,-2.0702947088875505,-10.0,-0.07286408543586731,0.0,1.5199448221921863
1.4600000000000009,0.24375278093758299,0.28,0.00854609037229064,0.0,0.20489486248391592,0.3,0.03645121678709984,-0.3891511234260043,-10.0,0.32409754395484924,-0.38915112343820474,-10.0,0.7808671593666077,-0.12277574858077213,-10.0,-0.013230584561824799,-1.3931787873057326,-10.0,0.42991408705711365,-2.070235125358033,-10.0,-0.07286408543586731,0.0,1.5214021039009036
1.4800000000000009,0.24375278093758299,0.28,0.00854609037229064,0.0,0.20489486248391592,0.3,0.03645121678709984,-0.38915877229969065,-10.0,0.32409754395484924,-0.38915877231147444,-10.0,0.7808671593666077,-0.12278891752814028,-10.0,-0.013230584561824799,-1.3932503762869373,-10.0,0.42991408705711365,-2.0701812073011645,-10.0,-0.07286408543586731,0.0,1.522859385609621
1.5000000000000009,0.24375278093758299,0.28,0.00854609037229064,0.0,0.20489486248391592,0.3,0.03645121678709984,-0.38916569586748934,-10.0,0.32409754395484924,-0.3891656958789848,-10.0,0.7808671593666077,-0.12280073405818685,-10.0,-0.013230584561824799,-1.3933153766065454,-10.0,0.42991408705711365,-2.0701324093880595,-10.0,-0.07286408543586731,0.0,1.5243166673183384
1.520000000000001,0.24375278093758299,0.28,0.00854609037229064,0.0,0.20489486248391592,0.3,0.03645121678709984,-0.38917196372290735,-10.0,0.32409754395484924,-0.38917196372884044,-10.0,0.7808671593666077,-0.12281133873139816,-10.0,-0.013230584561824799,-1.3933743992599963,-10.0,0.42991408705711365,-2.0700882395289555,-10.0,-0.07286408543586731,0.0,1.5257739490270557
1.540000000000001,0.24375278093758299,0.28,0.00854609037229064,0.0,0.20489486248391592,0.3,0.03645121678709984,-0.38917763868071836,-10.0,0.32409754395484924,-0.389177638686582,-10.0,0.7808671593666077,-0.12282085733172707,-10.0,-0.013230584561824799,-1.393427998016353,-10.0,0.42991408705711365,-2.0700482536047096,-10.0,-0.07286408543586731,0.0,1.527231230735773
1.560000000000001,0.2481187866753123,0.28,0.005152846346360149,0.0,0.20924288455294718,0.3,0.022133424878120422,-0.3891827774647787,-10.0,0.3253362476825714,-0.38918277747051705,-10.0,0.8066322803497314,-0.1228294024386787,-10.0,-0.012463593855500221,-1.3934766748693115,-10.0,0.4541222155094147,-2.0700120506975437,-10.0,-0.08456069231033325,0.0,2.6051744282245637
1.580000000000001,0.2481187866753123,0.28,0.005152846346360149,0.0,0.20924288455294718,0.3,0.022133424878120422,-0.3891874312947477,-10.0,0.3253362476825714,-0.3891874313056464,-10.0,0.8066322803497314,-0.12283707482707354,-10.0,-0.012463593855500221,-1.3935208849249725,-10.0,0.4541222155094147,-2.0699792688303296,-10.0,-0.08456069231033325,0.0,2.6068656420707703
1.600000000000001,0.2481187866753123,0.28,0.005152846346360149,0.0,0.20924288455294718,0.3,0.022133424878120422,-0.3891916464406634,-10.0,0.3253362476825714,-0.38919164645118454,-10.0,0.8066322803497314,-0.12284396471829243,-10.0,-0.012463593855500221,-1.3935610408258436,-10.0,0.4541222155094147,-2.0699495811246775,-10.0,-0.08456069231033325,0.0,2.608556855916977
1.620000000000001,0.2481187866753123,0.28,0.005152846346360149,0.0,0.20924288455294718,0.3,0.022133424878120422,-0.3891954646980685,-10.0,0.3253362476825714,-0.38919546470300703,-10.0,0.8066322803497314,-0.12285015289852053,-10.0,-0.012463593855500221,-1.393597516783036,-10.0,0.4541222155094147,-2.0699226923363643,-10.0,-0.08456069231033325,0.0,2.6102480697631836
1.640000000000001,0.2481187866753123,0.28,0.005152846346360149,0.0,0.20924288455294718,0.3,0.022133424878120422,-0.38919892382273924,-10.0,0.3253362476825714,-0.389198923832753,-10.0,0.8066322803497314,-0.12285571171587212,-10.0,-0.012463593855500221,-1.3936306521735427,-10.0,0.4541222155094147,-2.0698983357518075,-10.0,-0.08456069231033325,0.0,2.61193928360939
1.660000000000001,0.2525418426829347,0.28,0.004295535206490103,0.0,0.21362633393674035,0.3,0.018413521349430084,-0.3892020579517938,-10.0,0.3273380696773529,-0.3892020579561827,-10.0,0.8330761790275574,-0.12286070597082645,-10.0,-0.012463593855500221,-1.393660754827921,-10.0,0.47641289234161377,-2.0698762703936517,-10.0,-0.08992962539196014,0.0,2.002063004821539
1.680000000000001,0.2525418426829347,0.28,0.004295535206490103,0.0,0.21362633393674035,0.3,0.018413521349430084,-0.3892048979225112,-10.0,0.3273380696773529,-0.3892048979267684,-10.0,0.8330761790275574,-0.12286519371378601,-10.0,-0.012463593855500221,-1.393688103994718,-10.0,0.47641289234161377,-2.069856278491819,-10.0,-0.08992962539196014,0.0,2.003861597329378
1.700000000000001,0.2525418426829347,0.28,0.004295535206490103,0.0,0.21362633393674035,0.3,0.018413521349430084,-0.3892074716175376,-10.0,0.3273380696773529,-0.3892074716269913,-10.0,0.8330761790275574,-0.1228692269543104,-10.0,-0.012463593855500221,-1.3937129530072065,-10.0,0.47641289234161377,-2.0698381632291976,-10.0,-0.08992962539196014,0.0,2.0056601898372173
1.720000000000001,0.2525418426829347,0.28,0.004295535206490103,0.0,0.21362633393674035,0.3,0.018413521349430084,-0.3892098042549094,-10.0,0.3273380696773529,-0.3892098042588567,-10.0,0.8330761790275574,-0.12287285229849135,-10.0,-0.012463593855500221,-1.393735531729626,-10.0,0.47641289234161377,-2.0698217466849806,-10.0,-0.08992962539196014,0.0,2.0074587823450565
1.740000000000001,0.2525418426829347,0.28,0.004295535206490103,0.0,0.21362633393674035,0.3,0.018413521349430084,-0.3892119186228443,-10.0,0.3273380696773529,-0.38921191862667315,-10.0,0.8330761790275574,-0.12287611151603553,-10.0,-0.012463593855500221,-1.3937560487428884,-10.0,0.47641289234161377,-2.069806868000868,-10.0,-0.08992962539196014,0.0,2.0092573748528957
1.7600000000000011,0.25586964869576967,0.28,0.004416633886790871,0.0,0.21708405968593397,0.3,0.018814275041222572,-0.38921383533998233,-10.0,0.3296582102775574,-0.3892138353436384,-10.0,0.8546113967895508,-0.12287904204706511,-10.0,-0.013422331772744656,-1.3937746933260118,-10.0,0.4971056580543518,-2.0697933817283336,-10.0,-0.09050486981868744,0.0,1.9403948186337947
1.7800000000000011,0.25586964869576967,0.28,0.004416633886790871,0.0,0.21708405968593397,0.3,0.018814275041222572,-0.38921557304861576,-10.0,0.3296582102775574,-0.3892155730628097,-10.0,0.8546113967895508,-0.12288167745702858,-10.0,-0.013422331772744656,-1.3937916372645187,-10.0,0.4971056580543518,-2.069781156326005,-10.0,-0.09050486981868744,0.0,1.9422049160301684
1.8000000000000012,0.25586964869576967,0.28,0.004416633886790871,0.0,0.21708405968593397,0.3,0.018814275041222572,-0.38921714863134305,-10.0,0.3296582102775574,-0.38921714863983814,-10.0,0.8546113967895508,-0.12288404784134785,-10.0,-0.013422331772744656,-1.3938070364803345,-10.0,0.4971056580543518,-2.069770072819048,-10.0,-0.09050486981868744,0.0,1.9440150134265424
1.8200000000000012,0.25586964869576967,0.28,0.004416633886790871,0.0,0.21708405968593397,0.3,0.018814275041222572,-0.3892185773406567,-10.0,0.3296582102775574,-0.3892185773488463,-10.0,0.8546113967895508,-0.12288618018967533,-10.0,-0.013422331772744656,-1.3938210325130962,-10.0,0.4971056580543518,-2.0697600235741533,-10.0,-0.09050486981868744,0.0,1.945825110822916
1.8400000000000012,0.25586964869576967,0.28,0.004416633886790871,0.0,0.21708405968593397,0.3,0.018814275041222572,-0.3892198729880417,-10.0,0.3296582102775574,-0.38921987300130917,-10.0,0.8546113967895508,-0.1228880987093011,-10.0,-0.013422331772744656,-1.3938337538533054,-10.0,0.4971056580543518,-2.069750911210881,-10.0,-0.09050486981868744,0.0,1.9476352082192898
1.8600000000000012,0.2598781535558371,0.28,0.003543846415929804,0.0,0.22149924800047016,0.3,0.0152132548391819,-0.3892210480776301,-10.0,0.3319975435733795,-0.3892210480904995,-10.0,0.8808501362800598,-0.12288982511467615,-10.0,-0.013230584561824799,-1.3938453171449712,-10.0,0.5219529271125793,-2.069742647617987,-10.0,-0.09069661051034927,0.0,1.9327395687252282
1.8800000000000012,0.2598781535558371,0.28,0.003543846415929804,0.0,0.22149924800047016,0.3,0.0152132548391819,-0.38922211392025485,-10.0,0.3319975435733795,-0.3892221139326803,-10.0,0.8808501362800598,-0.12289137888833696,-10.0,-0.013230584561824799,-1.3938558283036362,-10.0,0.5219529271125793,-2.069735153051482,-10.0,-0.09069661051034927,0.0,1.9345535009354353
1.9000000000000012,0.2598781535558371,0.28,0.003543846415929804,0.0,0.22149924800047016,0.3,0.0152132548391819,-0.3892230807576409,-10.0,0.3319975435733795,-0.3892230807696936,-10.0,0.8808501362800598,-0.12289277751291663,-10.0,-0.013230584561824799,-1.39386538350492,-10.0,0.5219529271125793,-2.069728355331915,-10.0,-0.09069661051034927,0.0,1.9363674331456422
1.9200000000000013,0.2598781535558371,0.28,0.003543846415929804,0.0,0.22149924800047016,0.3,0.0152132548391819,-0.38922395785851355,-10.0,0.3319975435733795,-0.38922395787559305,-10.0,0.8808501362800598,-0.12289403667767368,-10.0,-0.013230584561824799,-1.3938740700723071,-10.0,0.5219529271125793,-2.0697221891274924,-10.0,-0.09069661051034927,0.0,1.9381813653558493
1.9400000000000013,0.2598781535558371,0.28,0.003543846415929804,0.0,0.22149924800047016,0.3,0.0152132548391819,-0.38922475361630976,-10.0,0.3319975435733795,-0.3892247536486369,-10.0,0.8808501362800598,-0.12289517046621566,-10.0,-0.013230584561824799,-1.3938819673207425,-10.0,0.5219529271125793,-2.0697165952849725,-10.0,-0.09069661051034927,0.0,1.9399952975660562
1.9600000000000013,0.2628886075915832,0.28,0.0030703932018253297,0.0,0.22530700322833555,0.3,0.013385900296270847,-0.389225475646815,-10.0,0.3325440287590027,-0.3892254756782229,-10.0,0.9011638760566711,-0.12289619152182103,-10.0,-0.013997574336826801,-1.3938891472782728,-10.0,0.541766881942749,-2.0697115202468277,-10.0,-0.0908883586525917,0.0,1.9456480275839567
1.9800000000000013,0.2628886075915832,0.28,0.0030703932018253297,0.0,0.22530700322833555,0.3,0.013385900296270847,-0.3892261308275139,-10.0,0.3325440287590027,-0.38922613085792895,-10.0,0.9011638760566711,-0.1228971111967159,-10.0,-0.013997574336826801,-1.3938956753683756,-10.0,0.541766881942749,-2.0697069155138395,-10.0,-0.0908883586525917,0.0,1.9474657947570084
2.0000000000000013,0.2628886075915832,0.28,0.0030703932018253297,0.0,0.22530700322833555,0.3,0.013385900296270847,-0.389226725397838,-10.0,0.3325440287590027,-0.3892267254220536,-10.0,0.9011638760566711,-0.1228979396856974,-10.0,-0.013997574336826801,-1.3939016110171605,-10.0,0.541766881942749,-2.069702737161459,-10.0,-0.0908883586525917,0.0,1.9492835619300604
2.0200000000000014,0.2628886075915832,0.28,0.0030703932018253297,0.0,0.22530700322833555,0.3,0.013385900296270847,-0.3892272650019698,-10.0,0.3325440287590027,-0.38922726502540833,-10.0,0.9011638760566711,-0.12289868614515366,-10.0,-0.013997574336826801,-1.3939070082031044,-10.0,0.541766881942749,-2.0696989454066856,-10.0,-0.0908883586525917,0.0,1.9511013291031123
2.0400000000000014,0.2628886075915832,0.28,0.0030703932018253297,0.0,0.22530700322833555,0.3,0.013385900296270847,-0.3892277547611274,-10.0,0.3325440287590027,-0.3892277547839134,-10.0,0.9011638760566711,-0.12289935880056682,-10.0,-0.013997574336826801,-1.3939119159647368,-10.0,0.541766881942749,-2.069695504210031,-10.0,-0.0908883586525917,0.0,1.952919096276164
2.0600000000000014,0.26554077533273734,0.28,0.0027247084467129997,0.0,0.22912067514525666,0.3,0.011980390176177025,-0.3892281993098062,-10.0,0.3320665657520294,-0.389228199337181,-10.0,0.9198631048202515,-0.12289996504153165,-10.0,-0.013805827125906944,-1.3939163788454085,-10.0,0.5610215067863464,-2.0696923809258223,-10.0,-0.09108010679483414,0.0,1.9585756612569094
2.0800000000000014,0.26554077533273734,0.28,0.0027247084467129997,0.0,0.22912067514525666,0.3,0.011980390176177025,-0.3892286028563455,-10.0,0.3320665657520294,-0.38922860288289907,-10.0,0.9198631048202515,-0.12290051150911041,-10.0,-0.013805827125906944,-1.3939204373271792,-10.0,0.5610215067863464,-2.069689545968738,-10.0,-0.09108010679483414,0.0,1.960397263392806
2.1000000000000014,0.26554077533273734,0.28,0.0027247084467129997,0.0,0.22912067514525666,0.3,0.011980390176177025,-0.38922896920676353,-10.0,0.3320665657520294,-0.38922896923241923,-10.0,0.9198631048202515,-0.12290100417172559,-10.0,-0.013805827125906944,-1.3939241281868198,-10.0,0.5610215067863464,-2.069686972531317,-10.0,-0.09108010679483414,0.0,1.9622188655287027
2.1200000000000014,0.26554077533273734,0.28,0.0027247084467129997,0.0,0.22912067514525666,0.3,0.011980390176177025,-0.3892293018129548,-10.0,0.3320665657520294,-0.3892293018378987,-10.0,0.9198631048202515,-0.1229014483940709,-10.0,-0.013805827125906944,-1.393927484843098,-10.0,0.5610215067863464,-2.069684636320341,-10.0,-0.09108010679483414,0.0,1.9640404676645995
2.1400000000000015,0.26554077533273734,0.28,0.0027247084467129997,0.0,0.22912067514525666,0.3,0.011980390176177025,-0.3892296038016281,-10.0,0.3320665657520294,-0.3892296038311467,-10.0,0.9198631048202515,-0.122901848999473,-10.0,-0.013805827125906944,-1.3939305376636255,-10.0,0.5610215067863464,-2.0696825153154204,-10.0,-0.09108010679483414,0.0,1.965862069800496
2.1600000000000015,0.2677008709251592,0.28,0.0024175105085935673,0.0,0.23288641044982858,0.3,0.010711020790040493,-0.38922987801453196,-10.0,0.32998228073120117,-0.389229878043165,-10.0,0.9359372854232788,-0.12290221032435561,-10.0,-0.013230584561824799,-1.3939333142424732,-10.0,0.578838050365448,-2.069680589560145,-10.0,-0.09108010679483414,0.0,1.9471392863988823
2.1800000000000015,0.2677008709251592,0.28,0.0024175105085935673,0.0,0.23288641044982858,0.3,0.010711020790040493,-0.3892301270185002,-10.0,0.32998228073120117,-0.3892301270516479,-10.0,0.9359372854232788,-0.12290253626921564,-10.0,-0.013230584561824799,-1.393935839663233,-10.0,0.578838050365448,-2.0696788409582902,-10.0,-0.09108010679483414,0.0,1.9489608885347791
2.2000000000000015,0.2677008709251592,0.28,0.0024175105085935673,0.0,0.23288641044982858,0.3,0.010711020790040493,-0.3892303531501609,-10.0,0.32998228073120117,-0.3892303531823142,-10.0,0.9359372854232788,-0.1229028303413685,-10.0,-0.013230584561824799,-1.3939381367110162,-10.0,0.578838050365448,-2.069677253110807,-10.0,-0.09108010679483414,0.0,1.9507824906706757
2.2200000000000015,0.2677008709251592,0.28,0.0024175105085935673,0.0,0.23288641044982858,0.3,0.010711020790040493,-0.38923055851924393,-10.0,0.32998228073120117,-0.38923055855569766,-10.0,0.9359372854232788,-0.1229030956968157,-10.0,-0.013230584561824799,-1.3939402261108063,-10.0,0.578838050365448,-2.0696758111417157,-10.0,-0.09108010679483414,0.0,1.9526040928065724
2.2400000000000015,0.2677008709251592,0.28,0.0024175105085935673,0.0,0.23288641044982858,0.3,0.010711020790040493,-0.38923074504847166,-10.0,0.32998228073120117,-0.38923074508388245,-10.0,0.9359372854232788,-0.12290333517471422,-10.0,-0.013230584561824799,-1.39394212668866,-10.0,0.578838050365448,-2.0696745015653533,-10.0,-0.09108010679483414,0.0,1.954425694942469
2.2600000000000016,0.2696560705239903,0.28,0.002150616273498083,0.0,0.23697222533167048,0.3,0.009692841209471226,-0.3892309144743882,-10.0,0.3266688883304596,-0.38923091450873665,-10.0,0.9517506957054138,-0.12290355132999845,-10.0,-0.013230584561824799,-1.3939438555599204,-10.0,0.5981726050376892,-2.0696733121512096,-10.0,-0.09108010679483414,0.0,1.9562472970783658
2.2800000000000016,0.2696560705239903,0.28,0.002150616273498083,0.0,0.23697222533167048,0.3,0.009692841209471226,-0.38923106837168286,-10.0,0.3266688883304596,-0.3892310684102153,-10.0,0.9517506957054138,-0.12290374646185974,-10.0,-0.013230584561824799,-1.393945428281613,-10.0,0.5981726050376892,-2.0696722318088168,-10.0,-0.09108010679483414,0.0,1.9580688992142625
2.3000000000000016,0.2696560705239903,0.28,0.002150616273498083,0.0,0.23697222533167048,0.3,0.009692841209471226,-0.3892312081745221,-10.0,0.3266688883304596,-0.3892312082170045,-10.0,0.9517506957054138,-0.12290392264058403,-10.0,-0.013230584561824799,-1.3939468590020927,-10.0,0.5981726050376892,-2.0696712504740096,-10.0,-0.09108010679483414,0.0,1.959890501350159
2.3200000000000016,0.2696560705239903,0.28,0.002150616273498083,0.0,0.23697222533167048,0.3,0.009692841209471226,-0.3892313351857306,-10.0,0.3266688883304596,-0.3892313352216156,-10.0,0.9517506957054138,-0.12290408172921512,-10.0,-0.013230584561824799,-1.3939481605725719,-10.0,0.5981726050376892,-2.0696703590236707,-10.0,-0.09108010679483414,0.0,1.9617121034860558
2.3400000000000016,0.2696560705239903,0.28,0.002150616273498083,0.0,0.23697222533167048,0.3,0.009692841209471226,-0.38923145057512054,-10.0,0.3266688883304596,-0.3892314506099869,-10.0,0.9517506957054138,-0.12290422540570245,-10.0,-0.013230584561824799,-1.3939493446837428,-10.0,0.5981726050376892,-2.0696695491783474,-10.0,-0.09108010679483414,0.0,1.9635337056219524
2.3600000000000017,0.2710222274258193,0.28,0.001925337561610815,0.0,0.24058415073031109,0.3,0.008935438469052315,-0.38923155541506266,-10.0,0.32299691438674927,-0.38923155544888305,-10.0,0.9645805358886719,-0.12290435518199536,-10.0,-0.013805827125906944,-1.393950421973085,-10.0,0.6165484189987183,-2.069668813420212,-10.0,-0.09108010679483414,0.0,1.9653553077578492
2.3800000000000017,0.2710222274258193,0.28,0.001925337561610815,0.0,0.24058415073031109,0.3,0.008935438469052315,-0.3892316506718159,-10.0,0.32299691438674927,-0.38923165070983606,-10.0,0.9645805358886719,-0.12290447241834193,-10.0,-0.013805827125906944,-1.3939514020945076,-10.0,0.6165484189987183,-2.0696681449399135,-10.0,-0.09108010679483414,0.0,1.967176909893746
2.4000000000000017,0.2710222274258193,0.28,0.001925337561610815,0.0,0.24058415073031109,0.3,0.008935438469052315,-0.38923173723147886,-10.0,0.32299691438674927,-0.3892317372683512,-10.0,0.9645805358886719,-0.12290457834167753,-10.0,-0.013805827125906944,-1.3939522938412796,-10.0,0.6165484189987183,-2.0696675375472213,-10.0,-0.09108010679483414,0.0,1.9689985120296425
2.4200000000000017,0.2710222274258193,0.28,0.001925337561610815,0.0,0.24058415073031109,0.3,0.008935438469052315,-0.3892318158952652,-10.0,0.32299691438674927,-0.3892318159205375,-10.0,0.9645805358886719,-0.12290467405669335,-10.0,-0.013805827125906944,-1.3939531052023917,-10.0,0.6165484189987183,-2.0696669856301986,-10.0,-0.09108010679483414,0.0,1.9708201141655393
2.4400000000000017,0.2710222274258193,0.28,0.001925337561610815,0.0,0.24058415073031109,0.3,0.008935438469052315,-0.3892318873743432,-10.0,0.32299691438674927,-0.3892318874041803,-10.0,0.9645805358886719,-0.12290476055842665,-10.0,-0.013805827125906944,-1.3939538434384255,-10.0,0.6165484189987183,-2.0696664840987387,-10.0,-0.09108010679483414,0.0,1.972641716301436
2.4600000000000017,0.2725915686682124,0.28,0.0016930088282320567,0.0,0.24491701122541568,0.3,0.008051482029259205,-0.38923195233720703,-10.0,0.3177487850189209,-0.3892319523661996,-10.0,0.9786394834518433,-0.12290483874387258,-10.0,-0.013614079914987087,-1.3939545151516544,-10.0,0.6344448924064636,-2.069666028331812,-10.0,-0.09108010679483414,0.0,1.9744633184373326
2.4800000000000018,0.2725915686682124,0.28,0.0016930088282320567,0.0,0.24491701122541568,0.3,0.008051482029259205,-0.3892320113735115,-10.0,0.3177487850189209,-0.389232011412186,-10.0,0.9786394834518433,-0.12290490942207315,-10.0,-0.013614079914987087,-1.393955126353519,-10.0,0.6344448924064636,-2.0696656141311816,-10.0,-0.09108010679483414,0.0,1.9762849205732294
2.5000000000000018,0.2725915686682124,0.28,0.0016930088282320567,0.0,0.24491701122541568,0.3,0.008051482029259205,-0.3892320650364002,-10.0,0.3177487850189209,-0.38923206507391445,-10.0,0.9786394834518433,-0.12290497332239003,-10.0,-0.013614079914987087,-1.3939556825085897,-10.0,0.6344448924064636,-2.069665237686171,-10.0,-0.09108010679483414,0.0,1.9781065227091261
2.520000000000002,0.2725915686682124,0.28,0.0016930088282320567,0.0,0.24491701122541568,0.3,0.008051482029259205,-0.3892321138130424,-10.0,0.3177487850189209,-0.38923211384943124,-10.0,0.9786394834518433,-0.12290503110256307,-10.0,-0.013614079914987087,-1.3939561885890848,-10.0,0.6344448924064636,-2.069664895536668,-10.0,-0.09108010679483414,0.0,1.9799281248450227
2.540000000000002,0.2725915686682124,0.28,0.0016930088282320567,0.0,0.24491701122541568,0.3,0.008051482029259205,-0.3892321581495289,-10.0,0.3177487850189209,-0.3892321581848767,-10.0,0.9786394834518433,-0.12290508335459026,-10.0,-0.013614079914987087,-1.3939566491048303,-10.0,0.6344448924064636,-2.0696645845498494,-10.0,-0.09108010679483414,0.0,1.9817497269809194
2.560000000000002,0.2735694171259258,0.28,0.0015202305051018974,0.0,0.24844762986906135,0.3,0.007483908906579018,-0.38923219845324364,-10.0,0.31294167041778564,-0.3892321984875817,-10.0,0.9892737865447998,-0.12290513061473504,-10.0,-0.013997574336826801,-1.3939570681805702,-10.0,0.6504238247871399,-2.069664301864265,-10.0,-0.09108010679483414,0.0,1.983571329116816
2.580000000000002,0.2735694171259258,0.28,0.0015202305051018974,0.0,0.24844762986906135,0.3,0.007483908906579018,-0.38923223508871435,-10.0,0.31294167041778564,-0.38923223512724386,-10.0,0.9892737865447998,-0.12290517336381668,-10.0,-0.013997574336826801,-1.3939574495413694,-10.0,0.6504238247871399,-2.069664044903029,-10.0,-0.09108010679483414,0.0,1.9853929312527128
2.600000000000002,0.2735694171259258,0.28,0.0015202305051018974,0.0,0.24844762986906135,0.3,0.007483908906579018,-0.38923226839383945,-10.0,0.31294167041778564,-0.3892322684364274,-10.0,0.9892737865447998,-0.12290521203779284,-10.0,-0.013997574336826801,-1.3939577965894265,-10.0,0.6504238247871399,-2.069663811311036,-10.0,-0.09108010679483414,0.0,1.9872145333886095
2.620000000000002,0.2735694171259258,0.28,0.0015202305051018974,0.0,0.24844762986906135,0.3,0.007483908906579018,-0.3892322986779813,-10.0,0.31294167041778564,-0.38923229871396875,-10.0,0.9892737865447998,-0.12290524702938106,-10.0,-0.013997574336826801,-1.3939581124208833,-10.0,0.6504238247871399,-2.0696635989537184,-10.0,-0.09108010679483414,0.0,1.989036135524506
2.640000000000002,0.2735694171259258,0.28,0.0015202305051018974,0.0,0.24844762986906135,0.3,0.007483908906579018,-0.3892323262065941,-10.0,0.31294167041778564,-0.3892323262467741,-10.0,0.9892737865447998,-0.12290527869310523,-10.0,-0.013997574336826801,-1.393958399849536,-10.0,0.6504238247871399,-2.0696634058920416,-10.0,-0.09108010679483414,0.0,1.9908577376604029
2.660000000000002,0.2746988635957261,0.28,0.0013438715256291677,0.0,0.25284754019919176,0.3,0.006830049678683281,-0.3892323512412027,-10.0,0.3065967261791229,-0.38923235127491235,-10.0,1.0018984079360962,-0.12290530734894965,-10.0,-0.013805827125906944,-1.3939586614342312,-10.0,0.6687197685241699,-2.069663230365057,-10.0,-0.09108010679483414,0.0,1.9926793397962994
2.680000000000002,0.2746988635957261,0.28,0.0013438715256291677,0.0,0.25284754019919176,0.3,0.006830049678683281,-0.38923237399893656,-10.0,0.3065967261791229,-0.38923237403690714,-10.0,1.0018984079360962,-0.1229053332856134,-10.0,-0.013805827125906944,-1.3939588995043253,-10.0,0.6687197685241699,-2.0696630707742,-10.0,-0.09108010679483414,0.0,1.9945009419321962
2.700000000000002,0.2746988635957261,0.28,0.0013438715256291677,0.0,0.25284754019919176,0.3,0.006830049678683281,-0.3892323946948367,-10.0,0.3065967261791229,-0.389232394731661,-10.0,1.0018984079360962,-0.12290535676396139,-10.0,-0.013805827125906944,-1.3939591161776703,-10.0,0.6687197685241699,-2.069662925666177,-10.0,-0.09108010679483414,0.0,1.996322544068093
2.720000000000002,0.2746988635957261,0.28,0.0013438715256291677,0.0,0.25284754019919176,0.3,0.006830049678683281,-0.38923241351917065,-10.0,0.3065967261791229,-0.3892324135442951,-10.0,1.0018984079360962,-0.12290537801915602,-10.0,-0.013805827125906944,-1.393959313377328,-10.0,0.6687197685241699,-2.0696627937236522,-10.0,-0.09108010679483414,0.0,1.9981441462039895
2.740000000000002,0.2746988635957261,0.28,0.0013438715256291677,0.0,0.25284754019919176,0.3,0.006830049678683281,-0.38923243063221197,-10.0,0.3065967261791229,-0.38923243065653207,-10.0,1.0018984079360962,-0.1229053972640392,-10.0,-0.013805827125906944,-1.3939594928582113,-10.0,0.6687197685241699,-2.0696626737464965,-10.0,-0.09108010679483414,0.0,1.9999657483398863
2.760000000000002,0.27542900065960796,0.28,0.0012160104824271156,0.0,0.2564119683169104,0.3,0.006412039510905743,-0.38923244619176284,-10.0,0.3010878264904022,-0.3892324462206255,-10.0,1.0115375518798828,-0.12290541469049274,-10.0,-0.013997574336826801,-1.393959656213974,-10.0,0.6838198900222778,-2.0696625646469253,-10.0,-0.09108010679483414,0.0,2.001787350475783
2.780000000000002,0.27542900065960796,0.28,0.0012160104824271156,0.0,0.2564119683169104,0.3,0.006412039510905743,-0.3892324603476622,-10.0,0.3010878264904022,-0.38923246037034337,-10.0,1.0115375518798828,-0.12290543047297008,-10.0,-0.013997574336826801,-1.3939598049014512,-10.0,0.6838198900222778,-2.0696624654289293,-10.0,-0.09108010679483414,0.0,2.0036089526116796
2.800000000000002,0.27542900065960796,0.28,0.0012160104824271156,0.0,0.2564119683169104,0.3,0.006412039510905743,-0.38923247321902,-10.0,0.3010878264904022,-0.3892324732410207,-10.0,1.0115375518798828,-0.12290544476723993,-10.0,-0.013997574336826801,-1.3939599402334766,-10.0,0.6838198900222778,-2.069662375200559,-10.0,-0.09108010679483414,0.0,2.0054305547475764
2.820000000000002,0.27542900065960796,0.28,0.0012160104824271156,0.0,0.2564119683169104,0.3,0.006412039510905743,-0.3892324849250087,-10.0,0.3010878264904022,-0.38923248494634943,-10.0,1.0115375518798828,-0.1229054577149356,-10.0,-0.013997574336826801,-1.3939600634107965,-10.0,0.6838198900222778,-2.0696622931450985,-10.0,-0.09108010679483414,0.0,2.007252156883473
2.840000000000002,0.27542900065960796,0.28,0.0012160104824271156,0.0,0.2564119683169104,0.3,0.006412039510905743,-0.3892324955721856,-10.0,0.3010878264904022,-0.3892324955928933,-10.0,1.0115375518798828,-0.1229054694448433,-10.0,-0.013997574336826801,-1.3939601755342417,-10.0,0.6838198900222778,-2.0696622185145204,-10.0,-0.09108010679483414,0.0,2.00907375901937
2.860000000000002,0.27605896295323584,0.28,0.001098996744673992,0.0,0.260784012343539,0.3,0.005938423331826925,-0.3892325052565724,-10.0,0.29403918981552124,-0.38923250527665887,-10.0,1.0228756666183472,-0.1229054800725905,-10.0,-0.013422331772744656,-1.3939602775957547,-10.0,0.7040332555770874,-2.069662150635065,-10.0,-0.09108010679483414,0.0,2.0108953611552662
2.880000000000002,0.27605896295323584,0.28,0.001098996744673992,0.0,0.260784012343539,0.3,0.005938423331826925,-0.38923251406757237,-10.0,0.29403918981552124,-0.3892325140817334,-10.0,1.0228756666183472,-0.12290548970209879,-10.0,-0.013422331772744656,-1.393960370494422,-10.0,0.7040332555770874,-2.0696620888984922,-10.0,-0.09108010679483414,0.0,2.012716963291163
2.900000000000002,0.27605896295323584,0.28,0.001098996744673992,0.0,0.260784012343539,0.3,0.005938423331826925,-0.3892325220796651,-10.0,0.29403918981552124,-0.38923252209335063,-10.0,1.0228756666183472,-0.12290549842844559,-10.0,-0.013422331772744656,-1.3939604550562605,-10.0,0.7040332555770874,-2.069662032744174,-10.0,-0.09108010679483414,0.0,2.01453856542706
2.920000000000002,0.27605896295323584,0.28,0.001098996744673992,0.0,0.260784012343539,0.3,0.005938423331826925,-0.3892325293704996,-10.0,0.29403918981552124,-0.3892325293785024,-10.0,1.0228756666183472,-0.1229055063370932,-10.0,-0.013422331772744656,-1.3939605320340644,-10.0,0.7040332555770874,-2.0696619816656914,-10.0,-0.09108010679483414,0.0,2.0163601675629566
2.940000000000002,0.27605896295323584,0.28,0.001098996744673992,0.0,0.260784012343539,0.3,0.005938423331826925,-0.3892325360052007,-10.0,0.29403918981552124,-0.3892325360024696,-10.0,1.0228756666183472,-0.12290551350516056,-10.0,-0.013422331772744656,-1.3939606021027597,-10.0,0.7040332555770874,-2.069661935204679,-10.0,-0.09108010679483414,0.0,2.0181817696988533
2.960000000000002,0.27662438064971856,0.28,0.0010014669235031794,0.0,0.2642633201529442,0.3,0.005633544642478228,-0.38923254203586083,-10.0,0.28836920857429504,-0.38923254203321167,-10.0,1.0317113399505615,-0.12290552000289184,-10.0,-0.013614079914987087,-1.3939606658872166,-10.0,0.7176952958106995,-2.069661892940434,-10.0,-0.09108010679483414,0.0,2.0200033718347497
2.980000000000002,0.27662438064971856,0.28,0.0010014669235031794,0.0,0.2642633201529442,0.3,0.005633544642478228,-0.389232547521589,-10.0,0.28836920857429504,-0.38923254751896863,-10.0,1.0317113399505615,-0.1229055258929975,-10.0,-0.013614079914987087,-1.39396072394639,-10.0,0.7176952958106995,-2.0696618544966303,-10.0,-0.09108010679483414,0.0,2.0218249739706464
3.000000000000002,0.27662438064971856,0.28,0.0010014669235031794,0.0,0.2642633201529442,0.3,0.005633544642478228,-0.3892325525147763,-10.0,0.28836920857429504,-0.38923255250691174,-10.0,1.0317113399505615,-0.12290553123317167,-10.0,-0.013614079914987087,-1.3939607767992104,-10.0,0.7176952958106995,-2.069661819524222,-10.0,-0.09108010679483414,0.0,2.023646576106543
3.0200000000000022,0.27662438064971856,0.28,0.0010014669235031794,0.0,0.2642633201529442,0.3,0.005633544642478228,-0.38923255705971865,-10.0,0.28836920857429504,-0.38923255704154563,-10.0,1.0317113399505615,-0.12290553607479857,-10.0,-0.013614079914987087,-1.393960824908654,-10.0,0.7176952958106995,-2.0696617877118566,-10.0,-0.09108010679483414,0.0,2.02546817824244
3.0400000000000023,0.27662438064971856,0.28,0.0010014669235031794,0.0,0.2642633201529442,0.3,0.005633544642478228,-0.38923256119018074,-10.0,0.28836920857429504,-0.3892325611726108,-10.0,1.0317113399505615,-0.12290554046578131,-10.0,-0.013614079914987087,-1.39396086870998,-10.0,0.7176952958106995,-2.069661758766287,-10.0,-0.09108010679483414,0.0,2.0272897803783367
3.0600000000000023,0.27711947793351993,0.28,0.0009054439902481242,0.0,0.26854630767820153,0.3,0.005319078452885151,-0.38923256494549274,-10.0,0.28129372000694275,-0.38923256493377273,-10.0,1.0423763990402222,-0.12290554444793195,-10.0,-0.013614079914987087,-1.3939609085853433,-10.0,0.7360711097717285,-2.0696617324319755,-10.0,-0.09108010679483414,0.0,2.029111382514233
3.0800000000000023,0.27711947793351993,0.28,0.0009054439902481242,0.0,0.26854630767820153,0.3,0.005319078452885151,-0.38923256835966086,-10.0,0.28129372000694275,-0.38923256835883685,-10.0,1.0423763990402222,-0.12290554805983245,-10.0,-0.013614079914987087,-1.3939609448897343,-10.0,0.7360711097717285,-2.069661708471197,-10.0,-0.09108010679483414,0.0,2.03093298465013
3.1000000000000023,0.27711947793351993,0.28,0.0009054439902481242,0.0,0.26854630767820153,0.3,0.005319078452885151,-0.3892325714709853,-10.0,0.28129372000694275,-0.389232571470186,-10.0,1.0423763990402222,-0.12290555133600398,-10.0,-0.013614079914987087,-1.3939609779396998,-10.0,0.7360711097717285,-2.069661686670985,-10.0,-0.09108010679483414,0.0,2.0327545867860266
3.1200000000000023,0.27711947793351993,0.28,0.0009054439902481242,0.0,0.26854630767820153,0.3,0.005319078452885151,-0.3892325743042184,-10.0,0.28129372000694275,-0.3892325742980624,-10.0,1.0423763990402222,-0.1229055543075094,-10.0,-0.013614079914987087,-1.3939610080243723,-10.0,0.7360711097717285,-2.0696616668388033,-10.0,-0.09108010679483414,0.0,2.0345761889219234
3.1400000000000023,0.27711947793351993,0.28,0.0009054439902481242,0.0,0.26854630767820153,0.3,0.005319078452885151,-0.38923257687714696,-10.0,0.28129372000694275,-0.3892325768763972,-10.0,1.0423763990402222,-0.12290555700340361,-10.0,-0.013614079914987087,-1.3939610354143233,-10.0,0.7360711097717285,-2.0696616487930397,-10.0,-0.09108010679483414,0.0,2.03639779105782
3.1600000000000024,0.27757777798108135,0.28,0.0008240049660531488,0.0,0.27216415964739543,0.3,0.005077476613223553,-0.38923257921767995,-10.0,0.2753399610519409,-0.3892325792223334,-10.0,1.0513194799423218,-0.12290555944890158,-10.0,-0.013805827125906944,-1.3939610603468624,-10.0,0.7498928904533386,-2.069661632376261,-10.0,-0.09108010679483414,0.0,2.038219393193717
3.1800000000000024,0.27757777798108135,0.28,0.0008240049660531488,0.0,0.27216415964739543,0.3,0.005077476613223553,-0.38923258135021943,-10.0,0.2753399610519409,-0.3892325813548418,-10.0,1.0513194799423218,-0.12290556166814798,-10.0,-0.013805827125906944,-1.3939610830490514,-10.0,0.7498928904533386,-2.0696616174360023,-10.0,-0.09108010679483414,0.0,2.0400409953296132
3.2000000000000024,0.27757777798108135,0.28,0.0008240049660531488,0.0,0.27216415964739543,0.3,0.005077476613223553,-0.38923258329059945,-10.0,0.2753399610519409,-0.38923258329502525,-10.0,1.0513194799423218,-0.1229055636816918,-10.0,-0.013805827125906944,-1.3939611037156532,-10.0,0.7498928904533386,-2.0696616038430093,-10.0,-0.09108010679483414,0.0,2.04186259746551
3.2200000000000024,0.27757777798108135,0.28,0.0008240049660531488,0.0,0.27216415964739543,0.3,0.005077476613223553,-0.3892325850559564,-10.0,0.2753399610519409,-0.38923258506035796,-10.0,1.0513194799423218,-0.12290556550873634,-10.0,-0.013805827125906944,-1.3939611225275899,-10.0,0.7498928904533386,-2.0696615914757266,-10.0,-0.09108010679483414,0.0,2.043684199601407
3.2400000000000024,0.27757777798108135,0.28,0.0008240049660531488,0.0,0.27216415964739543,0.3,0.005077476613223553,-0.3892325866678737,-10.0,0.2753399610519409,-0.38923258666154814,-10.0,1.0513194799423218,-0.1229055671669256,-10.0,-0.013805827125906944,-1.3939611396568647,-10.0,0.7498928904533386,-2.0696615802214446,-10.0,-0.09108010679483414,0.0,2.0455058017373036
3.2600000000000025,0.2779207778114897,0.28,0.0007761652909907268,0.0,0.2762202058831336,0.3,0.004878059029579163,-0.389232588130399,-10.0,0.2687150835990906,-0.38923258812420536,-10.0,1.0613383054733276,-0.1229055686725695,-10.0,-0.013422331772744656,-1.3939611552578521,-10.0,0.7671501636505127,-2.069661569975568,-10.0,-0.09108010679483414,0.0,2.0473274038732003
3.2800000000000025,0.2779207778114897,0.28,0.0007761652909907268,0.0,0.2762202058831336,0.3,0.004878059029579163,-0.38923258946354433,-10.0,0.2687150835990906,-0.3892325894522643,-10.0,1.0613383054733276,-0.12290557003886252,-10.0,-0.013422331772744656,-1.3939611694573557,-10.0,0.7671501636505127,-2.069661560654513,-10.0,-0.09108010679483414,0.0,2.0491490060090967
3.3000000000000025,0.2779207778114897,0.28,0.0007761652909907268,0.0,0.2762202058831336,0.3,0.004878059029579163,-0.3892325906739235,-10.0,0.2687150835990906,-0.38923259066303256,-10.0,1.0613383054733276,-0.12290557127876352,-10.0,-0.013422331772744656,-1.3939611823823697,-10.0,0.7671501636505127,-2.069661552174682,-10.0,-0.09108010679483414,0.0,2.0509706081449934
3.3200000000000025,0.2779207778114897,0.28,0.0007761652909907268,0.0,0.2762202058831336,0.3,0.004878059029579163,-0.3892325917758178,-10.0,0.2687150835990906,-0.3892325917652536,-10.0,1.0613383054733276,-0.12290557240473977,-10.0,-0.013422331772744656,-1.3939611941536356,-10.0,0.7671501636505127,-2.069661544455041,-10.0,-0.09108010679483414,0.0,2.05279221028089
3.3400000000000025,0.2779207778114897,0.28,0.0007761652909907268,0.0,0.2762202058831336,0.3,0.004878059029579163,-0.38923259277898337,-10.0,0.2687150835990906,-0.38923259276879396,-10.0,1.0613383054733276,-0.12290557342732737,-10.0,-0.013422331772744656,-1.3939612048757808,-10.0,0.7671501636505127,-2.0696615374271454,-10.0,-0.09108010679483414,0.0,2.054613812416787
3.3600000000000025,0.2782348210537795,0.28,0.0007268235814218763,0.0,0.27949192155932545,0.3,0.004722743295133114,-0.3892325936916326,-10.0,0.26347461342811584,-0.38923259368164037,-10.0,1.0694780349731445,-0.12290557435543775,-10.0,-0.013422331772744656,-1.3939612146334377,-10.0,0.7799333333969116,-2.0696615310337636,-10.0,-0.09108010679483414,0.0,2.0564354145526837
3.3800000000000026,0.2782348210537795,0.28,0.0007268235814218763,0.0,0.27949192155932545,0.3,0.004722743295133114,-0.3892325945273497,-10.0,0.26347461342811584,-0.3892325945070622,-10.0,1.0694780349731445,-0.12290557519800901,-10.0,-0.013422331772744656,-1.3939612235165935,-10.0,0.7799333333969116,-2.069661525216309,-10.0,-0.09108010679483414,0.0,2.0582570166885805
3.4000000000000026,0.2782348210537795,0.28,0.0007268235814218763,0.0,0.27949192155932545,0.3,0.004722743295133114,-0.3892325952829314,-10.0,0.26347461342811584,-0.3892325952633032,-10.0,1.0694780349731445,-0.12290557596311064,-10.0,-0.013422331772744656,-1.3939612316042809,-10.0,0.7799333333969116,-2.0696615199218606,-10.0,-0.09108010679483414,0.0,2.060078618824477
3.4200000000000026,0.2782348210537795,0.28,0.0007268235814218763,0.0,0.27949192155932545,0.3,0.004722743295133114,-0.3892325959708476,-10.0,0.26347461342811584,-0.3892325959518661,-10.0,1.0694780349731445,-0.12290557665814694,-10.0,-0.013422331772744656,-1.3939612389710503,-10.0,0.7799333333969116,-2.0696615151015596,-10.0,-0.09108010679483414,0.0,2.0619002209603736
3.4400000000000026,0.2782348210537795,0.28,0.0007268235814218763,0.0,0.27949192155932545,0.3,0.004722743295133114,-0.38923259659691195,-10.0,0.26347461342811584,-0.38923259657855774,-10.0,1.0694780349731445,-0.12290557728939946,-10.0,-0.013422331772744656,-1.3939612456775456,-10.0,0.7799333333969116,-2.06966151071427,-10.0,-0.09108010679483414,0.0,2.0637218230962704
3.4600000000000026,0.27850724553249595,0.28,0.0006900048087133141,0.0,0.2826319154789443,0.3,0.004582767374813557,-0.389232597169278,-10.0,0.25870394706726074,-0.3892325971462022,-10.0,1.077564001083374,-0.12290557786262528,-10.0,-0.013230584561824799,-1.3939612517827005,-10.0,0.7928763031959534,-2.069661506721921,-10.0,-0.09108010679483414,0.0,2.065543425232167
3.4800000000000026,0.27850724553249595,0.28,0.0006900048087133141,0.0,0.2826319154789443,0.3,0.004582767374813557,-0.38923259769032353,-10.0,0.25870394706726074,-0.3892325976626099,-10.0,1.077564001083374,-0.12290557838318691,-10.0,-0.013230584561824799,-1.3939612573410678,-10.0,0.7928763031959534,-2.0696615030888945,-10.0,-0.09108010679483414,0.0,2.067365027368064
3.5000000000000027,0.27850724553249595,0.28,0.0006900048087133141,0.0,0.2826319154789443,0.3,0.004582767374813557,-0.3892325981622315,-10.0,0.25870394706726074,-0.38923259813529143,-10.0,1.077564001083374,-0.12290557885616078,-10.0,-0.013230584561824799,-1.3939612624036763,-10.0,0.7928763031959534,-2.0696614997812417,-10.0,-0.09108010679483414,0.0,2.0691866295039603
3.5200000000000027,0.27850724553249595,0.28,0.0006900048087133141,0.0,0.2826319154789443,0.3,0.004582767374813557,-0.3892325985911485,-10.0,0.25870394706726074,-0.3892325985649588,-10.0,1.077564001083374,-0.12290557928523642,-10.0,-0.013230584561824799,-1.3939612670071422,-10.0,0.7928763031959534,-2.069661496774826,-10.0,-0.09108010679483414,0.0,2.071008231639857
3.5400000000000027,0.27850724553249595,0.28,0.0006900048087133141,0.0,0.2826319154789443,0.3,0.004582767374813557,-0.38923259898207846,-10.0,0.25870394706726074,-0.3892325989566238,-10.0,1.077564001083374,-0.12290557967553678,-10.0,-0.013230584561824799,-1.39396127120469,-10.0,0.7928763031959534,-2.0696614940346403,-10.0,-0.09108010679483414,0.0,2.072829833775754
3.5600000000000027,0.2786634126467451,0.28,0.0006502943331086128,0.0,0.28507040001207173,0.3,0.0044293696992099285,-0.3892325993376862,-10.0,0.25513550639152527,-0.3892325993131037,-10.0,1.0839836597442627,-0.12290558003002401,-10.0,-0.013038836419582367,-1.3939612750251655,-10.0,0.8038219213485718,-2.0696614915411886,-10.0,-0.09108010679483414,0.0,2.0746514359116506
3.5800000000000027,0.2786634126467451,0.28,0.0006502943331086128,0.0,0.28507040001207173,0.3,0.0044293696992099285,-0.38923259966423557,-10.0,0.25513550639152527,-0.3892325996351256,-10.0,1.0839836597442627,-0.12290558035230362,-10.0,-0.013038836419582367,-1.3939612785055726,-10.0,0.8038219213485718,-2.069661489270119,-10.0,-0.09108010679483414,0.0,2.0764730380475473
3.6000000000000028,0.2786634126467451,0.28,0.0006502943331086128,0.0,0.28507040001207173,0.3,0.0044293696992099285,-0.3892325999613105,-10.0,0.25513550639152527,-0.38923259992780884,-10.0,1.0839836597442627,-0.12290558064488526,-10.0,-0.013038836419582367,-1.393961281671015,-10.0,0.8038219213485718,-2.0696614872047636,-10.0,-0.09108010679483414,0.0,2.0782946401834437
3.6200000000000028,0.2786634126467451,0.28,0.0006502943331086128,0.0,0.28507040001207173,0.3,0.0044293696992099285,-0.38923260022984124,-10.0,0.25513550639152527,-0.3892326001973446,-10.0,1.0839836597442627,-0.12290558091126814,-10.0,-0.013038836419582367,-1.3939612845604357,-10.0,0.8038219213485718,-2.069661485320719,-10.0,-0.09108010679483414,0.0,2.0801162423193404
3.640000000000003,0.2786634126467451,0.28,0.0006502943331086128,0.0,0.28507040001207173,0.3,0.0044293696992099285,-0.3892326004739994,-10.0,0.25513550639152527,-0.38923260044247765,-10.0,1.0839836597442627,-0.12290558115307976,-10.0,-0.013038836419582367,-1.3939612871890183,-10.0,0.8038219213485718,-2.0696614836075478,-10.0,-0.09108010679483414,0.0,2.081937844455237
3.660000000000003,0.27894570699157095,0.28,0.000643491210661038,0.0,0.28730976744046216,0.3,0.004291311372071505,-0.38923260069632415,-10.0,0.25193333625793457,-0.3892326006657481,-10.0,1.0899298191070557,-0.12290558137294204,-10.0,-0.012271846644580364,-1.3939612895830795,-10.0,0.8114917874336243,-2.0696614820472625,-10.0,-0.09108010679483414,0.0,2.0837594465911335
3.680000000000003,0.27894570699157095,0.28,0.000643491210661038,0.0,0.28730976744046216,0.3,0.004291311372071505,-0.38923260089330797,-10.0,0.25193333625793457,-0.3892326008742949,-10.0,1.0899298191070557,-0.12290558157267455,-10.0,-0.012271846644580364,-1.3939612917630761,-10.0,0.8114917874336243,-2.0696614806274622,-10.0,-0.09108010679483414,0.0,2.0855810487270303
3.700000000000003,0.27894570699157095,0.28,0.000643491210661038,0.0,0.28730976744046216,0.3,0.004291311372071505,-0.38923260108018504,-10.0,0.25193333625793457,-0.38923260105641955,-10.0,1.0899298191070557,-0.12290558175416073,-10.0,-0.012271846644580364,-1.393961293746453,-10.0,0.8114917874336243,-2.069661479335332,-10.0,-0.09108010679483414,0.0,2.087402650862927
3.720000000000003,0.27894570699157095,0.28,0.000643491210661038,0.0,0.28730976744046216,0.3,0.004291311372071505,-0.38923260124533765,-10.0,0.25193333625793457,-0.3892326012275067,-10.0,1.0899298191070557,-0.12290558191926947,-10.0,-0.012271846644580364,-1.3939612955546536,-10.0,0.8114917874336243,-2.069661478157942,-10.0,-0.09108010679483414,0.0,2.089224252998824
3.740000000000003,0.27894570699157095,0.28,0.000643491210661038,0.0,0.28730976744046216,0.3,0.004291311372071505,-0.3892326013977738,-10.0,0.25193333625793457,-0.38923260138047777,-10.0,1.0899298191070557,-0.12290558206899944,-10.0,-0.012271846644580364,-1.393961297197336,-10.0,0.8114917874336243,-2.0696614770886343,-10.0,-0.09108010679483414,0.0,2.0910458551347206
3.760000000000003,0.2791651244780063,0.28,0.0005943277265440303,0.0,0.28906853322963794,0.3,0.004155170638114214,-0.38923260153422257,-10.0,0.24957866966724396,-0.3892326015226091,-10.0,1.094779133796692,-0.12290558220527822,-10.0,-0.012463593855500221,-1.393961298697367,-10.0,0.8178834319114685,-2.0696614761137027,-10.0,-0.09108010679483414,0.0,2.092867457270617
3.780000000000003,0.2791651244780063,0.28,0.0005943277265440303,0.0,0.28906853322963794,0.3,0.004155170638114214,-0.38923260165794427,-10.0,0.24957866966724396,-0.3892326016520093,-10.0,1.094779133796692,-0.1229055823290073,-10.0,-0.012463593855500221,-1.3939613000593278,-10.0,0.8178834319114685,-2.069661475227453,-10.0,-0.09108010679483414,0.0,2.0946890594065137
3.800000000000003,0.2791651244780063,0.28,0.0005943277265440303,0.0,0.28906853322963794,0.3,0.004155170638114214,-0.38923260177338853,-10.0,0.24957866966724396,-0.3892326017676822,-10.0,1.094779133796692,-0.12290558244180665,-10.0,-0.012463593855500221,-1.3939613013034613,-10.0,0.8178834319114685,-2.0696614744182065,-10.0,-0.09108010679483414,0.0,2.0965106615424105
3.820000000000003,0.2791651244780063,0.28,0.0005943277265440303,0.0,0.28906853322963794,0.3,0.004155170638114214,-0.389232601878425,-10.0,0.24957866966724396,-0.3892326018728899,-10.0,1.094779133796692,-0.12290558254423217,-10.0,-0.012463593855500221,-1.3939613024361854,-10.0,0.8178834319114685,-2.069661473682305,-10.0,-0.09108010679483414,0.0,2.098332263678307
3.840000000000003,0.2791651244780063,0.28,0.0005943277265440303,0.0,0.28906853322963794,0.3,0.004155170638114214,-0.38923260197362886,-10.0,0.24957866966724396,-0.3892326019683104,-10.0,1.094779133796692,-0.12290558263695384,-10.0,-0.012463593855500221,-1.3939613034632625,-10.0,0.8178834319114685,-2.069661473015213,-10.0,-0.09108010679483414,0.0,2.1001538658142036
3.860000000000003,0.27931891763572836,0.28,0.0005546445218158849,0.0,0.29074470946870856,0.3,0.003992184996604919,-0.38923260205730287,-10.0,0.24733905494213104,-0.3892326020574668,-10.0,1.0993982553482056,-0.12290558272095224,-10.0,-0.012271846644580364,-1.3939613043943622,-10.0,0.8246744871139526,-2.0696614724102025,-10.0,-0.09108010679483414,0.0,2.1019754679501004
3.880000000000003,0.27931891763572836,0.28,0.0005546445218158849,0.0,0.29074470946870856,0.3,0.003992184996604919,-0.38923260213653693,-10.0,0.24733905494213104,-0.38923260213669597,-10.0,1.0993982553482056,-0.12290558279786903,-10.0,-0.012271846644580364,-1.3939613052482422,-10.0,0.8246744871139526,-2.069661471855416,-10.0,-0.09108010679483414,0.0,2.103797070085997
3.900000000000003,0.27931891763572836,0.28,0.0005546445218158849,0.0,0.29074470946870856,0.3,0.003992184996604919,-0.38923260220881045,-10.0,0.24733905494213104,-0.38923260220901534,-10.0,1.0993982553482056,-0.12290558286794817,-10.0,-0.012271846644580364,-1.393961306027467,-10.0,0.8246744871139526,-2.0696614713492423,-10.0,-0.09108010679483414,0.0,2.105618672221894
3.920000000000003,0.27931891763572836,0.28,0.0005546445218158849,0.0,0.29074470946870856,0.3,0.003992184996604919,-0.38923260227433576,-10.0,0.24733905494213104,-0.38923260227454176,-10.0,1.0993982553482056,-0.12290558293136314,-10.0,-0.012271846644580364,-1.3939613067343,-10.0,0.8246744871139526,-2.069661470890587,-10.0,-0.09108010679483414,0.0,2.1074402743577902
3.940000000000003,0.27931891763572836,0.28,0.0005546445218158849,0.0,0.29074470946870856,0.3,0.003992184996604919,-0.3892326023341086,-10.0,0.24733905494213104,-0.38923260233431567,-10.0,1.0993982553482056,-0.12290558298919783,-10.0,-0.012271846644580364,-1.3939613073783739,-10.0,0.8246744871139526,-2.0696614704718987,-10.0,-0.09108010679483414,0.0,2.109261876493687
3.960000000000003,0.2793828673508781,0.28,0.0004898045893819129,0.0,0.29198581692511894,0.3,0.0038330345414578915,-0.38923260238567947,-10.0,0.2456708550453186,-0.38923260239109464,-10.0,1.10280179977417,-0.12290558304154296,-10.0,-0.012655341066420078,-1.393961307962535,-10.0,0.8303470015525818,-2.0696614700925253,-10.0,-0.09108010679483414,0.0,2.111083478629584
3.980000000000003,0.2793828673508781,0.28,0.0004898045893819129,0.0,0.29198581692511894,0.3,0.0038330345414578915,-0.38923260243312563,-10.0,0.2456708550453186,-0.38923260244370117,-10.0,1.10280179977417,-0.12290558308980536,-10.0,-0.012655341066420078,-1.3939613085021358,-10.0,0.8303470015525818,-2.0696614697422073,-10.0,-0.09108010679483414,0.0,2.11290508076548
4.000000000000003,0.2793828673508781,0.28,0.0004898045893819129,0.0,0.29198581692511894,0.3,0.0038330345414578915,-0.38923260248360253,-10.0,0.2456708550453186,-0.3892326024832585,-10.0,1.10280179977417,-0.12290558313314895,-10.0,-0.012655341066420078,-1.39396130898822,-10.0,0.8303470015525818,-2.0696614694272406,-10.0,-0.09108010679483414,0.0,2.114726682901377
4.020000000000002,0.2793828673508781,0.28,0.0004898045893819129,3.940240000000001e-07,0.29198581692511894,0.3,0.0038330345414578915,-0.3892326025221307,-10.0,0.2456708550453186,-0.38923260252701136,-10.0,1.10280179977417,-0.12290558317275269,-10.0,-0.012655341066420078,-1.3939613094321193,-10.0,0.8303470015525818,-2.069661469139139,-10.0,-0.09108010679483414,0.0,2.1165482850372737
4.040000000000002,0.2793828673508781,0.28,0.0004898045893819129,3.1047680000000007e-06,0.29198581692511894,0.3,0.0038330345414578915,-0.3892303507030801,-10.0,0.2456708550453186,-0.38923035070776374,-10.0,1.10280179977417,-0.12290561570401866,-10.0,-0.012655341066420078,-1.3939615827182807,-10.0,0.8303470015525818,-2.069661237678269,-10.0,-0.09108010679483414,0.0,2.1183698871731704
4.060000000000001,0.2795618737774584,0.28,0.00044923852652999286,1.0319831999999998e-05,0.2932424567076456,0.3,0.003693058853968978,-0.3892213836541303,-10.0,0.24404484033584595,-0.3892213836639457,-10.0,1.1063050031661987,-0.12290574210456655,-10.0,-0.012655341066420078,-1.3939626552030897,-10.0,0.8343417644500732,-2.069660337688155,-10.0,-0.09108010679483414,0.0,2.120191489309067
4.080000000000001,0.2795618737774584,0.28,0.00044923852652999286,2.408857600000001e-05,0.2932424567076456,0.3,0.003693058853968978,-0.38920164709916005,-10.0,0.24404484033584595,-0.38920164709814364,-10.0,1.1063050031661987,-0.12290601278069149,-10.0,-0.012655341066420078,-1.3939649736619093,-10.0,0.8343417644500732,-2.069658409005365,-10.0,-0.09108010679483414,0.0,2.1220130914449635
4.1000000000000005,0.2795618737774584,0.28,0.00044923852652999286,4.6325e-05,0.2932424567076456,0.3,0.003693058853968978,-0.3891674449591079,-10.0,0.24404484033584595,-0.3891674449528569,-10.0,1.1063050031661987,-0.12290647041154903,-10.0,-0.012655341066420078,-1.39396891061891,-10.0,0.8343417644500732,-2.0696551466817943,-10.0,-0.09108010679483414,0.0,2.1238346935808603
4.12,0.2795618737774584,0.28,0.00044923852652999286,7.881062399999999e-05,0.2932424567076456,0.3,0.003693058853968978,-0.3891154015071154,-10.0,0.24404484033584595,-0.3891154015010519,-10.0,1.1063050031661987,-0.12290715299981998,-10.0,-0.012655341066420078,-1.3939747654060644,-10.0,0.8343417644500732,-2.0696502805066004,-10.0,-0.09108010679483414,0.0,2.125656295716757
4.14,0.2795618737774584,0.28,0.00044923852652999286,0.00012319736800000004,0.2932424567076456,0.3,0.003693058853968978,-0.3890424328292751,-10.0,0.24404484033584595,-0.3890424328233935,-10.0,1.1063050031661987,-0.12290809674047712,-10.0,-0.012655341066420078,-1.393982762042141,-10.0,0.8343417644500732,-2.0696435559008672,-10.0,-0.09108010679483414,0.0,2.1274778978526534
4.159999999999999,0.2796623914072901,0.28,0.0004257204557219058,0.00018101043200000004,0.2941185708158438,0.3,0.003581845201551914,-0.38894572499607327,-10.0,0.24293461441993713,-0.38894572499037544,-10.0,1.1087747812271118,-0.12290933869601386,-10.0,-0.012463593855500221,-1.3939930446916518,-10.0,0.8375375270843506,-2.0696347162275224,-10.0,-0.09108010679483414,0.0,2.12929949998855
4.179999999999999,0.2796623914072901,0.28,0.0004257204557219058,0.00025365117600000003,0.2941185708158438,0.3,0.003581845201551914,-0.38882271705417043,-10.0,0.24293461441993713,-0.38882271704337823,-10.0,1.1087747812271118,-0.12291091926994228,-10.0,-0.012463593855500221,-1.3940056713775504,-10.0,0.8375375270843506,-2.0696234865395526,-10.0,-0.09108010679483414,0.0,2.131121102124447
4.199999999999998,0.2796623914072901,0.28,0.0004257204557219058,0.0003424000000000001,0.2941185708158438,0.3,0.003581845201551914,-0.38867108743959516,-10.0,0.24293461441993713,-0.38867108742918594,-10.0,1.1087747812271118,-0.12291288446199768,-10.0,-0.012463593855500221,-1.3940206065140934,-10.0,0.8375375270843506,-2.0696095588491197,-10.0,-0.09108010679483414,0.0,2.1329427042603437
4.219999999999998,0.2796623914072901,0.28,0.0004257204557219058,0.0004484192239999999,0.2941185708158438,0.3,0.003581845201551914,-0.3884887428670491,-10.0,0.24293461441993713,-0.38848874285701207,-10.0,1.1087747812271118,-0.12291528789055473,-10.0,-0.012463593855500221,-1.3940377127456451,-10.0,0.8375375270843506,-2.069592578989526,-10.0,-0.09108010679483414,0.0,2.1347643063962405
4.2399999999999975,0.2796623914072901,0.28,0.0004257204557219058,0.0005727559679999999,0.2941185708158438,0.3,0.003581845201551914,-0.38827380892733965,-10.0,0.24293461441993713,-0.38827380892288393,-10.0,1.1087747812271118,-0.12291819256568402,-10.0,-0.012463593855500221,-1.3940567425438282,-10.0,0.8375375270843506,-2.069572135156623,-10.0,-0.09108010679483414,0.0,2.136585908532137
4.259999999999997,0.27978546572718804,0.28,0.00040968893823043026,0.0007163450320000002,0.29503966464953085,0.3,0.003528155852109194,-0.3880246219316353,-10.0,0.2417074292898178,-0.38802462192725934,-10.0,1.111290454864502,-0.12292167239476892,-10.0,-0.012463593855500221,-1.3940773298729756,-10.0,0.840333878993988,-2.0695477482343234,-10.0,-0.09108010679483414,0.0,2.1384075106680336
4.279999999999997,0.27978546572718804,0.28,0.00040968893823043026,0.0008800117760000002,0.29503966464953085,0.3,0.003528155852109194,-0.3877397215884561,-10.0,0.2417074292898178,-0.38773972157899395,-10.0,1.111290454864502,-0.12292581341410835,-10.0,-0.012463593855500221,-1.394098982351721,-10.0,0.840333878993988,-2.0695188639227022,-10.0,-0.09108010679483414,0.0,2.1402291128039304
4.299999999999996,0.27978546572718804,0.28,0.00040968893823043026,0.0010644749999999998,0.29503966464953085,0.3,0.003528155852109194,-0.38741784428217585,-10.0,0.2417074292898178,-0.3874178442729976,-10.0,1.111290454864502,-0.12293071473001882,-10.0,-0.012463593855500221,-1.3941210741064696,-10.0,0.840333878993988,-2.069484846768184,-10.0,-0.09108010679483414,0.0,2.1420507149398267
4.319999999999996,0.27978546572718804,0.28,0.00040968893823043026,0.0012703498240000004,0.29503966464953085,0.3,0.003528155852109194,-0.387057916772273,-10.0,0.2417074292898178,-0.38705791676342743,-10.0,1.111290454864502,-0.12293648917170288,-10.0,-0.012463593855500221,-1.3941428396553666,-10.0,0.840333878993988,-2.0694449760604545,-10.0,-0.09108010679483414,0.0,2.1438723170757235
4.339999999999995,0.27978546572718804,0.28,0.00040968893823043026,0.001498150568,0.29503966464953085,0.3,0.003528155852109194,-0.3866590501337519,-10.0,0.2417074292898178,-0.3866590501252389,-10.0,1.111290454864502,-0.1229432636432195,-10.0,-0.012463593855500221,-1.3941633689369703,-10.0,0.840333878993988,-2.069398443672931,-10.0,-0.09108010679483414,0.0,2.1456939192116202
4.359999999999995,0.27986205383692025,0.28,0.00042873942056712223,0.001748293632,0.2957035085055834,0.3,0.0035991023760288954,-0.38622053389471483,-10.0,0.24079664051532745,-0.38622053388645716,-10.0,1.1130698919296265,-0.12295117918838609,-10.0,-0.012463593855500221,-1.3941816037985186,-10.0,0.8424111008644104,-2.0693443537357603,-10.0,-0.09108010679483414,0.0,2.147515521347517
4.379999999999995,0.27986205383692025,0.28,0.00042873942056712223,0.0020211003760000003,0.2957035085055834,0.3,0.0035991023760288954,-0.3857418302788352,-10.0,0.24079664051532745,-0.3857418302708163,-10.0,1.1130698919296265,-0.12296039076307393,-10.0,-0.012463593855500221,-1.394196335963253,-10.0,0.8424111008644104,-2.0692817241772845,-10.0,-0.09108010679483414,0.0,2.1493371234834138
4.399999999999994,0.27986205383692025,0.28,0.00042873942056712223,0.0023168000000000004,0.2957035085055834,0.3,0.0035991023760288954,-0.3852225685225977,-10.0,0.24079664051532745,-0.38522256850946773,-10.0,1.1130698919296265,-0.12297106673131458,-10.0,-0.012463593855500221,-1.3942062066920358,-10.0,0.8424111008644104,-2.069209490011214,-10.0,-0.09108010679483414,0.0,2.15115872561931
4.419999999999994,0.27986205383692025,0.28,0.00042873942056712223,0.0026355324239999995,0.2957035085055834,0.3,0.0035991023760288954,-0.38466253921756144,-10.0,0.24079664051532745,-0.384662539204759,-10.0,1.1130698919296265,-0.12298338809292633,-10.0,-0.012463593855500221,-1.3942097081835967,-10.0,0.8424111008644104,-2.0691265083168617,-10.0,-0.09108010679483414,0.0,2.152980327755207
4.439999999999993,0.27986205383692025,0.28,0.00042873942056712223,0.002977351168,0.2957035085055834,0.3,0.0035991023760288954,-0.38406168869544266,-10.0,0.24079664051532745,-0.3840616886830243,-10.0,1.1130698919296265,-0.12299754745426189,-10.0,-0.012463593855500221,-1.3942051867220642,-10.0,0.8424111008644104,-2.0690315648361772,-10.0,-0.09108010679483414,0.0,2.1548019298911036
4.459999999999993,0.2799556524405538,0.28,0.0007648338556636499,0.003342226232,0.2963472095215595,0.3,0.004801359958946705,-0.3834201134036047,-10.0,0.23989734053611755,-0.3834201133915691,-10.0,1.1147706508636475,-0.12301374777181484,-10.0,-0.012463593855500221,-1.3941908477366365,-10.0,0.8440090417861938,-2.068923381982301,-10.0,-0.09108010679483414,0.0,2.156623532027
4.479999999999992,0.2799556524405538,0.28,0.0007648338556636499,0.0037300469759999995,0.2963472095215595,0.3,0.004801359958946705,-0.3827380542897104,-10.0,0.23989734053611755,-0.3827380542780359,-10.0,1.1147706508636475,-0.12303220087236015,-10.0,-0.012463593855500221,-1.3941647626252884,-10.0,0.8440090417861938,-2.0688006282477613,-10.0,-0.09108010679483414,0.0,2.1584451341628967
4.499999999999992,0.2799556524405538,0.28,0.0007648338556636499,0.004140625,0.2963472095215595,0.3,0.004801359958946705,-0.38201589118869955,-10.0,0.23989734053611755,-0.3820158911722016,-10.0,1.1147706508636475,-0.12305312578151865,-10.0,-0.012463593855500221,-1.3941248773928332,-10.0,0.8440090417861938,-2.068661928801791,-10.0,-0.09108010679483414,0.0,2.1602667362987935
4.519999999999992,0.2799556524405538,0.28,0.0007648338556636499,0.004573697024000001,0.2963472095215595,0.3,0.004801359958946705,-0.3812541371995693,-10.0,0.23989734053611755,-0.38125413718365775,-10.0,1.1147706508636475,-0.1230767468841291,-10.0,-0.012463593855500221,-1.3940690230774015,-10.0,0.8440090417861938,-2.068505877129256,-10.0,-0.09108010679483414,0.0,2.1620883384346903
4.539999999999991,0.2799556524405538,0.28,0.0007648338556636499,0.005028927768000001,0.2963472095215595,0.3,0.004801359958946705,-0.38045343308074847,-10.0,0.23989734053611755,-0.3804534330705594,-10.0,1.1147706508636475,-0.12310329193135303,-10.0,-0.012463593855500221,-1.3939949277960286,-10.0,0.8440090417861938,-2.0683310476284498,-10.0,-0.09108010679483414,0.0,2.163909940570587
4.559999999999991,0.28003733286519933,0.28,0.0015168336983030868,0.005505912832000001,0.29684412347462197,0.3,0.0074551464058458805,-0.37961454164123865,-10.0,0.23920896649360657,-0.3796145416313553,-10.0,1.1160880327224731,-0.12313298993341772,-10.0,-0.012271846644580364,-1.3939002304384265,-10.0,0.845047652721405,-2.06813600891618,-10.0,-0.09108010679483414,0.0,2.1657315427064834
4.57999999999999,0.28003733286519933,0.28,0.0015168336983030868,0.0060041815759999985,0.29684412347462197,0.3,0.0074551464058458805,-0.37873834211615376,-10.0,0.23920896649360657,-0.3787383421119086,-10.0,1.1160880327224731,-0.12316606895113891,-10.0,-0.012271846644580364,-1.3937824957795513,-10.0,0.845047652721405,-2.0679193377746934,-10.0,-0.09108010679483414,0.0,2.16755314484238
4.59999999999999,0.28003733286519933,0.28,0.0015168336983030868,0.006523199999999998,0.29684412347462197,0.3,0.0074551464058458805,-0.37782582458978464,-10.0,0.23920896649360657,-0.3778258245855726,-10.0,1.1160880327224731,-0.12320275382118966,-10.0,-0.012271846644580364,-1.3936392309630175,-10.0,0.845047652721405,-2.067679633520459,-10.0,-0.09108010679483414,0.0,2.169374746978277
4.6199999999999894,0.28003733286519933,0.28,0.0015168336983030868,0.007062373624,0.29684412347462197,0.3,0.0074551464058458805,-0.37687808439503845,-10.0,0.23920896649360657,-0.37687808438035153,-10.0,1.1160880327224731,-0.12324326384018086,-10.0,-0.012271846644580364,-1.3934679031952368,-10.0,0.845047652721405,-2.06741553264727,-10.0,-0.09108010679483414,0.0,2.1711963491141733
4.639999999999989,0.28003733286519933,0.28,0.0015168336983030868,0.0076210503680000045,0.29684412347462197,0.3,0.0074551464058458805,-0.3758963165189982,-10.0,0.23920896649360657,-0.3758963165101094,-10.0,1.1160880327224731,-0.12328781042526964,-10.0,-0.012271846644580364,-1.3932659584065417,-10.0,0.845047652721405,-2.067125723649091,-10.0,-0.09108010679483414,0.0,2.17301795125007
4.659999999999989,0.2801146867343979,0.28,0.0025024727156862923,0.008198523432000001,0.2973379625717971,0.3,0.010973715223371983,-0.37488181008248334,-10.0,0.23857620358467102,-0.3748818100739829,-10.0,1.1174589395523071,-0.1233365947907477,-10.0,-0.012271846644580364,-1.3930308408519907,-10.0,0.846246063709259,-2.0668089617714966,-10.0,-0.09031312167644501,0.0,2.077306969165801
4.679999999999988,0.2801146867343979,0.28,0.0025024727156862923,0.008794034176,0.2973379625717971,0.3,0.010973715223371983,-0.37383594275077386,-10.0,0.23857620358467102,-0.37383594274252846,-10.0,1.1174589395523071,-0.12338980565215595,-10.0,-0.012271846644580364,-1.3927600133351263,-10.0,0.846246063709259,-2.0664640836402683,-10.0,-0.09031312167644501,0.0,2.07911323159933
4.699999999999988,0.2801146867343979,0.28,0.0025024727156862923,0.009406775000000001,0.2973379625717971,0.3,0.010973715223371983,-0.37276017521862786,-10.0,0.23857620358467102,-0.37276017521076177,-10.0,1.1174589395523071,-0.12344761699134041,-10.0,-0.012271846644580364,-1.3924509779776704,-10.0,0.846246063709259,-2.066090021555557,-10.0,-0.09031312167644501,0.0,2.080919494032859
4.719999999999987,0.2801146867343979,0.28,0.0025024727156862923,0.010035892224,0.2973379625717971,0.3,0.010973715223371983,-0.37165604568893096,-10.0,0.23857620358467102,-0.3716560456814381,-10.0,1.1174589395523071,-0.12351018589705204,-10.0,-0.012271846644580364,-1.3921012972361864,-10.0,0.846246063709259,-2.065685817376744,-10.0,-0.09031312167644501,0.0,2.0827257564663877
4.739999999999987,0.2801146867343979,0.28,0.0025024727156862923,0.010680488968,0.2973379625717971,0.3,0.010973715223371983,-0.37052516437206334,-10.0,0.23857620358467102,-0.3705251643701554,-10.0,1.1174589395523071,-0.1235776505089136,-10.0,-0.012271846644580364,-1.3917086150770854,-10.0,0.846246063709259,-2.065250635818553,-10.0,-0.09031312167644501,0.0,2.0845320188999166
4.7599999999999865,0.28020657417558625,0.28,0.003989661446048068,0.011339628032000004,0.29769119011077816,0.3,0.016277452930808067,-0.36936920801482825,-10.0,0.23821954429149628,-0.36936920801297757,-10.0,1.1185500621795654,-0.1236501280802083,-10.0,-0.012271846644580364,-1.3912706780389945,-10.0,0.8466455340385437,-2.0647837770710398,-10.0,-0.08686166256666183,0.0,1.9145181366801252
4.779999999999986,0.28020657417558625,0.28,0.003989661446048068,0.012012334775999998,0.29769119011077816,0.3,0.016277452930808067,-0.36818991442184323,-10.0,0.23821954429149628,-0.36818991442004806,-10.0,1.1185500621795654,-0.12372771317937353,-10.0,-0.012271846644580364,-1.390785356026722,-10.0,0.8466455340385437,-2.064284688615547,-10.0,-0.08686166256666183,0.0,1.9162553699314584
4.799999999999986,0.28020657417558625,0.28,0.003989661446048068,0.012697600000000003,0.29769119011077816,0.3,0.016277452930808067,-0.3669890770225776,-10.0,0.23821954429149628,-0.3669890770208363,-10.0,1.1185500621795654,-0.12381047604521701,-10.0,-0.012271846644580364,-1.3902506626307474,-10.0,0.8466455340385437,-2.063752976141497,-10.0,-0.08686166256666183,0.0,1.9179926031827916
4.819999999999985,0.28020657417558625,0.28,0.003989661446048068,0.013394382823999998,0.29769119011077816,0.3,0.016277452930808067,-0.36576853944073284,-10.0,0.23821954429149628,-0.365768539449411,-10.0,1.1185500621795654,-0.12389846111185475,-10.0,-0.012271846644580364,-1.3896647748081057,-10.0,0.8466455340385437,-2.063188413455652,-10.0,-0.08686166256666183,0.0,1.9197298364341249
4.839999999999985,0.28020657417558625,0.28,0.003989661446048068,0.014101613567999995,0.29769119011077816,0.3,0.016277452930808067,-0.3645301901141961,-10.0,0.23821954429149628,-0.3645301901227644,-10.0,1.1185500621795654,-0.12399168571619416,-10.0,-0.012271846644580364,-1.3890260517355872,-10.0,0.8466455340385437,-2.0625909512951197,-10.0,-0.08686166256666183,0.0,1.921467069685458
4.859999999999984,0.28027920851286003,0.28,0.005698508810198754,0.014818196632,0.2980404759880182,0.3,0.022369274869561195,-0.36327595688531156,-10.0,0.23791083693504333,-0.3632759568934669,-10.0,1.1196832656860352,-0.12409013899703553,-10.0,-0.012271846644580364,-1.3883330526647266,-10.0,0.8472846746444702,-2.0619607249764114,-10.0,-0.08206797391176224,0.0,1.6628795829415313
4.879999999999984,0.28027920851286003,0.28,0.005698508810198754,0.015543013375999996,0.2980404759880182,0.3,0.022369274869561195,-0.362007801670408,-10.0,0.23791083693504333,-0.36200780167829566,-10.0,1.1196832656860352,-0.1241937809987917,-10.0,-0.012271846644580364,-1.3875845536449742,-10.0,0.8472846746444702,-2.0612980607794693,-10.0,-0.08206797391176224,0.0,1.6645209424197664
4.8999999999999835,0.28027920851286003,0.28,0.005698508810198754,0.016274925000000006,0.2980404759880182,0.3,0.022369274869561195,-0.3607277151317854,-10.0,0.23791083693504333,-0.360727715134102,-10.0,1.1196832656860352,-0.12430254198114636,-10.0,-0.012271846644580364,-1.3867795629271598,-10.0,0.8472846746444702,-2.060603481046274,-10.0,-0.08206797391176224,0.0,1.6661623018980016
4.919999999999983,0.28027920851286003,0.28,0.005698508810198754,0.017012775424,0.2980404759880182,0.3,0.022369274869561195,-0.35943771137220504,-10.0,0.23791083693504333,-0.35943771137978514,-10.0,1.1196832656860352,-0.12441632194739613,-10.0,-0.012271846644580364,-1.38591733496534,-10.0,0.8472846746444702,-2.059877707885406,-10.0,-0.08206797391176224,0.0,1.667803661376237
4.939999999999983,0.28027920851286003,0.28,0.005698508810198754,0.017755394168000007,0.2980404759880182,0.3,0.022369274869561195,-0.3581398227069206,-10.0,0.23791083693504333,-0.3581398227090942,-10.0,1.1196832656860352,-0.12453499039095313,-10.0,-0.012271846644580364,-1.3849973828720137,-10.0,0.8472846746444702,-2.059121665466627,-10.0,-0.08206797391176224,0.0,1.6694450208544722
4.959999999999982,0.2803723550734779,0.28,0.007788168154105146,0.018501599231999996,0.29832336820425726,0.3,0.02977840229868889,-0.3568360944049485,-10.0,0.23781496286392212,-0.35683609440705694,-10.0,1.1207820177078247,-0.12465838626121285,-10.0,-0.012080098502337933,-1.3840194891891613,-10.0,0.847364604473114,-2.0583364808751217,-10.0,-0.07612379640340805,0.0,1.531539544314145
4.979999999999982,0.2803723550734779,0.28,0.007788168154105146,0.019250199975999995,0.29832336820425726,0.3,0.02977840229868889,-0.3555285795440826,-10.0,0.23781496286392212,-0.3555285795512674,-10.0,1.1207820177078247,-0.12478631815662244,-10.0,-0.012080098502337933,-1.3829837149848299,-10.0,0.847364604473114,-2.0575234834385903,-10.0,-0.07612379640340805,0.0,1.5330620202422132
4.999999999999981,0.2803723550734779,0.28,0.007788168154105146,0.02,0.29832336820425726,0.3,0.02977840229868889,-0.3542193338795444,-10.0,0.23781496286392212,-0.3542193338811585,-10.0,1.1207820177078247,-0.12491856473276912,-10.0,-0.012080098502337933,-1.3818904070376115,-10.0,0.847364604473114,-2.0566842025928227,-10.0,-0.07612379640340805,0.0,1.5345844961702815
5.019999999999981,0.2803723550734779,0.28,0.007788168154105146,0.020749800024000013,0.29832336820425726,0.3,0.02977840229868889,-0.35291041075057056,-10.0,0.23781496286392212,-0.35291041075213625,-10.0,1.1207820177078247,-0.12505487533591192,-10.0,-0.012080098502337933,-1.3807402032319658,-10.0,0.847364604473114,-2.0558203641735604,-10.0,-0.07612379640340805,0.0,1.5361069720983496
5.0399999999999805,0.2803723550734779,0.28,0.007788168154105146,0.021498400768000005,0.29832336820425726,0.3,0.02977840229868889,-0.3516038560926213,-10.0,0.23781496286392212,-0.35160385608878597,-10.0,1.1207820177078247,-0.1251949708468071,-10.0,-0.012080098502337933,-1.3795340359419501,-10.0,0.847364604473114,-2.0549338852189223,-10.0,-0.07612379640340805,0.0,1.5376294480264177
5.05999999999998,0.2804682674148042,0.28,0.010302574945523162,0.022244605832,0.2986352300137549,0.3,0.038723427802324295,-0.35030170346759265,-10.0,0.23779386281967163,-0.350301703464326,-10.0,1.1220935583114624,-0.12533854474137332,-10.0,-0.012080098502337933,-1.3782731335428087,-10.0,0.847444474697113,-2.0540268671981923,-10.0,-0.06845389306545258,0.0,1.282878537029027
5.07999999999998,0.2804682674148042,0.28,0.010302574945523162,0.02298722457600001,0.2986352300137549,0.3,0.038723427802324295,-0.34900596919807686,-10.0,0.23779386281967163,-0.3490059691946909,-10.0,1.1220935583114624,-0.12548526434739837,-10.0,-0.012080098502337933,-1.3769590198176724,-10.0,0.847444474697113,-2.0531015877951795,-10.0,-0.06845389306545258,0.0,1.2842476148903361
5.099999999999979,0.2804682674148042,0.28,0.010302574945523162,0.023725075000000012,0.2986352300137549,0.3,0.038723427802324295,-0.3477186475557727,-10.0,0.23779386281967163,-0.34771864755245646,-10.0,1.1220935583114624,-0.12563477230909562,-10.0,-0.012080098502337933,-1.3755935115128795,-10.0,0.847444474697113,-2.0521604911202855,-10.0,-0.06845389306545258,0.0,1.285616692751645
5.119999999999979,0.2804682674148042,0.28,0.010302574945523162,0.024456986623999994,0.2986352300137549,0.3,0.038723427802324295,-0.34644170603676144,-10.0,0.23779386281967163,-0.3464417060333163,-10.0,1.1220935583114624,-0.12578668823253927,-10.0,-0.012080098502337933,-1.3741787138040757,-10.0,0.847444474697113,-2.051206176531255,-10.0,-0.06845389306545258,0.0,1.2869857706129542
5.139999999999978,0.2804682674148042,0.28,0.010302574945523162,0.025181803367999994,0.2986352300137549,0.3,0.038723427802324295,-0.34517708072203745,-10.0,0.23779386281967163,-0.34517708071892955,-10.0,1.1220935583114624,-0.12594061051760802,-10.0,-0.012080098502337933,-1.3727170138769202,-10.0,0.847444474697113,-2.050241385987558,-10.0,-0.06845389306545258,0.0,1.2883548484742633
5.159999999999978,0.28053198950941277,0.28,0.01276984454690611,0.025898386431999994,0.29891200808730595,0.3,0.047493964433670044,-0.3439266717159643,-10.0,0.23779386281967163,-0.3439266717231101,-10.0,1.1232784986495972,-0.12609611835436974,-10.0,-0.012080098502337933,-1.3712110725129019,-10.0,0.847444474697113,-2.049268990086685,-10.0,-0.06040049344301224,0.0,1.0668617260456077
5.1799999999999775,0.28053198950941277,0.28,0.01276984454690611,0.026605617176000008,0.29891200808730595,0.3,0.047493964433670044,-0.3426923387005683,-10.0,0.23779386281967163,-0.3426923387123296,-10.0,1.1232784986495972,-0.12625277388415987,-10.0,-0.012080098502337933,-1.3696638138464687,-10.0,0.847444474697113,-2.048291972756349,-10.0,-0.06040049344301224,0.0,1.068069735914468
5.199999999999977,0.28053198950941277,0.28,0.01276984454690611,0.027302399999999984,0.29891200808730595,0.3,0.047493964433670044,-0.341475896541187,-10.0,0.23779386281967163,-0.3414758965523454,-10.0,1.1232784986495972,-0.12641012450629127,-10.0,-0.012080098502337933,-1.36807841327394,-10.0,0.847444474697113,-2.047313414734183,-10.0,-0.06040049344301224,0.0,1.0692777457833282
5.219999999999977,0.28053198950941277,0.28,0.01276984454690611,0.027987665224000004,0.29891200808730595,0.3,0.047493964433670044,-0.340279111006953,-10.0,0.23779386281967163,-0.34027911101752134,-10.0,1.1232784986495972,-0.1265677053192223,-10.0,-0.012080098502337933,-1.36645828355866,-10.0,0.847444474697113,-2.046336475910701,-10.0,-0.06040049344301224,0.0,1.0704857556521885
5.239999999999976,0.28053198950941277,0.28,0.01276984454690611,0.028660371968000007,0.29891200808730595,0.3,0.047493964433670044,-0.33910369458558254,-10.0,0.23779386281967163,-0.3391036945958338,-10.0,1.1232784986495972,-0.1267250416892818,-10.0,-0.012080098502337933,-1.364807059296629,-10.0,0.847444474697113,-2.0453643765817886,-10.0,-0.06040049344301224,0.0,1.0716937655210488
5.259999999999976,0.2805911663930247,0.28,0.015682022092474806,0.029319511031999996,0.29920554639375196,0.3,0.05783491209149361,-0.3379513023735427,-10.0,0.23793767392635345,-0.33795130238333465,-10.0,1.1247071027755737,-0.12688165192474832,-10.0,-0.012080098502337933,-1.3631285797128816,-10.0,0.847444474697113,-2.0444003777825093,-10.0,-0.050813112407922745,0.0,0.8809624070674174
5.279999999999975,0.2805911663930247,0.28,0.015682022092474806,0.029964107776000035,0.29920554639375196,0.3,0.05783491209149361,-0.336823528055059,-10.0,0.23793767392635345,-0.3368235280645572,-10.0,1.1247071027755737,-0.12703705005053234,-10.0,-0.012080098502337933,-1.3614268699635503,-10.0,0.847444474697113,-2.043447760744976,-10.0,-0.050813112407922745,0.0,0.8819786693155758
5.299999999999975,0.2805911663930247,0.28,0.015682022092474806,0.030593224999999974,0.29920554639375196,0.3,0.05783491209149361,-0.33572189995624424,-10.0,0.23793767392635345,-0.3357218999654575,-10.0,1.1247071027755737,-0.1271907486626731,-10.0,-0.012080098502337933,-1.3597061209561063,-10.0,0.847444474697113,-2.0425098056600706,-10.0,-0.050813112407922745,0.0,0.8829949315637342
5.3199999999999745,0.2805911663930247,0.28,0.015682022092474806,0.031205965824000002,0.29920554639375196,0.3,0.05783491209149361,-0.3346478771701846,-10.0,0.23793767392635345,-0.33464787718384725,-10.0,1.1247071027755737,-0.12734226185367237,-10.0,-0.012080098502337933,-1.3579706678741221,-10.0,0.847444474697113,-2.0415897698213805,-10.0,-0.050813112407922745,0.0,0.8840111938118926
5.339999999999974,0.2805911663930247,0.28,0.015682022092474806,0.031801476568,0.29920554639375196,0.3,0.05783491209149361,-0.33360284575269966,-10.0,0.23793767392635345,-0.3336028457653823,-10.0,1.1247071027755737,-0.1274911081905302,-10.0,-0.012080098502337933,-1.3562249674154947,-10.0,0.847444474697113,-2.0406908653304803,-10.0,-0.050813112407922745,0.0,0.8850274560600511
5.359999999999974,0.28064005793396474,0.28,0.018330592610485103,0.03237894963199998,0.29940108006070826,0.3,0.06722670793533325,-0.3325881149482092,-10.0,0.23835568130016327,-0.3325881149603459,-10.0,1.1260454654693604,-0.1276368137356361,-10.0,-0.012080098502337933,-1.3544735739480591,-10.0,0.847444474697113,-2.039816236463553,-10.0,-0.041609227657318115,0.0,0.6196043810993423
5.379999999999973,0.28064005793396474,0.28,0.018330592610485103,0.03293762637600003,0.29940108006070826,0.3,0.06722670793533325,-0.33160491347798676,-10.0,0.23835568130016327,-0.33160491348942317,-10.0,1.1260454654693604,-0.12777891508965433,-10.0,-0.012080098502337933,-1.3527211146034348,-10.0,0.847444474697113,-2.0389689369013757,-10.0,-0.041609227657318115,0.0,0.6204365656524888
5.399999999999973,0.28064005793396474,0.28,0.018330592610485103,0.03347679999999999,0.29940108006070826,0.3,0.06722670793533325,-0.33065438584128687,-10.0,0.23835568130016327,-0.3306543858523802,-10.0,1.1260454654693604,-0.1279169624468529,-10.0,-0.012080098502337933,-1.3509722634833112,-10.0,0.847444474697113,-2.038151906942608,-10.0,-0.041609227657318115,0.0,0.6212687502056351
5.419999999999972,0.28064005793396474,0.28,0.018330592610485103,0.033995818423999985,0.29940108006070826,0.3,0.06722670793533325,-0.32973758863145297,-10.0,0.23835568130016327,-0.32973758864290564,-10.0,1.1260454654693604,-0.1280505226460112,-10.0,-0.012080098502337933,-1.3492317150552586,-10.0,0.847444474697113,-2.037367950875706,-10.0,-0.041609227657318115,0.0,0.6221009347587816
5.439999999999972,0.28064005793396474,0.28,0.018330592610485103,0.034494087168000016,0.29940108006070826,0.3,0.06722670793533325,-0.3288554868458063,-10.0,0.23835568130016327,-0.3288554868672576,-10.0,1.1260454654693604,-0.12817918220359006,-10.0,-0.012080098502337933,-1.347504156921389,-10.0,0.847444474697113,-2.0366197146592815,-10.0,-0.041609227657318115,0.0,0.6229331193119279
5.4599999999999715,0.28069175427488025,0.28,0.021200485140763878,0.03497107223200001,0.2996068364639377,0.3,0.07735481858253479,-0.3280089501968297,-10.0,0.23894627392292023,-0.3280089502125972,-10.0,1.1276350021362305,-0.12830255031069387,-10.0,-0.011888351291418076,-1.3457942419865072,-10.0,0.847444474697113,-2.0359096641118364,-10.0,-0.03298058733344078,0.0,0.5331974890828124
5.479999999999971,0.28069175427488025,0.28,0.021200485140763878,0.035426302975999996,0.2996068364639377,0.3,0.07735481858253479,-0.32719874932549825,-10.0,0.23894627392292023,-0.3271987493404329,-10.0,1.1276350021362305,-0.12842026178209323,-10.0,-0.011888351291418076,-1.3441065602205986,-10.0,0.847444474697113,-2.0352400637495283,-10.0,-0.03298058733344078,0.0,0.5338571008294812
5.499999999999971,0.28069175427488025,0.28,0.021200485140763878,0.035859375,0.2996068364639377,0.3,0.07735481858253479,-0.3264255520367655,-10.0,0.23894627392292023,-0.32642555205107004,-10.0,1.1276350021362305,-0.12853197994310697,-10.0,-0.011888351291418076,-1.342445610146722,-10.0,0.847444474697113,-2.034612956428472,-10.0,-0.03298058733344078,0.0,0.5345167125761501
5.51999999999997,0.28069175427488025,0.28,0.021200485140763878,0.03626995302400003,0.2996068364639377,0.3,0.07735481858253479,-0.3256899194045279,-10.0,0.23894627392292023,-0.32568991942308034,-10.0,1.1276350021362305,-0.12863739943374872,-10.0,-0.011888351291418076,-1.3408157701115448,-10.0,0.847444474697113,-2.034030144003375,-10.0,-0.03298058733344078,0.0,0.5351763243228189
5.53999999999997,0.28069175427488025,0.28,0.021200485140763878,0.036657773767999995,0.2996068364639377,0.3,0.07735481858253479,-0.32499230182015143,-10.0,0.23894627392292023,-0.3249923018374029,-10.0,1.1276350021362305,-0.12873624892255775,-10.0,-0.011888351291418076,-1.339221269581365,-10.0,0.847444474697113,-2.0334931690947387,-10.0,-0.03298058733344078,0.0,0.5358359360694878
5.559999999999969,0.2807250818605701,0.28,0.023590235628981375,0.03702264883199996,0.2997290999393508,0.3,0.08580321818590164,-0.3243330348992967,-10.0,0.23962505161762238,-0.32433303491574866,-10.0,1.1289734840393066,-0.1288282937074553,-10.0,-0.011888351291418076,-1.3376661604642612,-10.0,0.847444474697113,-2.033003298184074,-10.0,-0.024351945146918297,0.0,0.30211694668978384
