armandomm09/Control-Challenge-4.1/trials/trial_pid_pert.csv
time,p_x,p_des_x,p_y,p_des_y,p_z,p_des_z,q_1,q_des_1,tau_1,q_2,q_des_2,tau_2,q_3,q_des_3,tau_3,q_4,q_des_4,tau_4,q_5,q_des_5,tau_5,q_6,q_des_6,tau_6
0.0,0.1743620196681375,0.28,0.3298604189797988,0.0,0.04455750727060838,0.3,-0.03344077989459038,0.0,-10.0,0.24992573261260986,0.0,-10.0,0.6906901597976685,0.0,-10.0,-0.0024927188642323017,0.0,-2.9805860693230537,0.4188086986541748,0.0,-10.0,-0.08954612910747528,0.0,1.792713504731646
0.02,0.1743620196681375,0.28,0.3298604189797988,0.0,0.04455750727060838,0.3,-0.03344077989459038,-0.13361776130836275,-10.0,0.24992573261260986,-0.13361776130836275,-10.0,0.6906901597976685,-0.020173437687047664,-10.0,-0.0024927188642323017,-0.006111034396763756,-2.109739309312778,0.4188086986541748,-1.2033842279538352,-10.0,-0.08954612910747528,0.0,1.7945044273137956
0.04,0.1743620196681375,0.28,0.3298604189797988,0.0,0.04455750727060838,0.3,-0.03344077989459038,-0.1799897576251413,-10.0,0.24992573261260986,-0.1799897576251413,-10.0,0.6906901597976685,-0.04616063653101965,-10.0,-0.0024927188642323017,-0.010113279011837232,-2.1660649441476245,0.4188086986541748,-1.66065160390536,-10.0,-0.08954612910747528,0.0,1.796295349895945
0.06,0.1743620196681375,0.28,0.3298604189797988,0.0,0.04455750727060838,0.3,-0.03344077989459038,-0.2031832543436036,-10.0,0.24992573261260986,-0.20318325431187723,-10.0,0.6906901597976685,-0.06812890471138416,-10.0,-0.0024927188642323017,-0.01398712575245828,-4.607146813593192,0.4188086986541748,-2.02192212318762,-10.0,-0.08954612910747528,0.0,1.7980862724780946
0.08,0.1743620196681375,0.28,0.3298604189797988,0.0,0.04455750727060838,0.3,-0.03344077989459038,-0.21052214750714887,-10.0,0.24992573261260986,-0.21052214749133405,-10.0,0.6906901597976685,-0.08364293547502274,-10.0,-0.0024927188642323017,-0.022509326098706612,-10.0,0.4188086986541748,-2.346535218504122,10.0,-0.08954612910747528,0.0,1.7998771950602441
0.1,0.1743620196681375,0.28,0.3298604189797988,0.0,0.04455750727060838,0.3,-0.03344077989459038,-0.2683206598642297,-10.0,0.24992573261260986,-0.2683206598488893,-10.0,0.6906901597976685,-0.10203466186858298,-10.0,-0.0024927188642323017,-0.04267748084374999,-10.0,0.4188086986541748,-2.0712094881984764,-10.0,-0.08954612910747528,0.0,1.8016681176423937
0.12000000000000001,0.1743620196681375,0.28,0.3298604189797988,0.0,0.04455750727060838,0.3,-0.03344077989459038,-0.2691998734985833,-10.0,0.24992573261260986,-0.26919987348753566,-10.0,0.6906901597976685,-0.11084756112249433,-10.0,-0.0024927188642323017,-0.06240375877062617,-10.0,0.4188086986541748,-2.284611772672461,-9.01823862001653,-0.08954612910747528,0.0,1.803459040224543
0.14,0.1743620196681375,0.28,0.3298604189797988,0.0,0.04455750727060838,0.3,-0.03344077989459038,-0.30127202554647625,-10.0,0.24992573261260986,-0.30127202554437754,-10.0,0.6906901597976685,-0.12120297152311013,-10.0,-0.0024927188642323017,-0.10704091806242347,-10.0,0.4188086986541748,-2.1367415922320876,-10.0,-0.08954612910747528,0.0,1.8052499628066925
0.16,0.1743620196681375,0.28,0.3298604189797988,0.0,0.04455750727060838,0.3,-0.03344077989459038,-0.30127143123075684,-10.0,0.24992573261260986,-0.30127143129303835,-10.0,0.6906901597976685,-0.12165633621439788,-10.0,-0.0024927188642323017,-0.16071131179531362,-10.0,0.4188086986541748,-2.2608937755952176,-10.0,-0.08954612910747528,0.0,1.807040885388842
0.18,0.1743620196681375,0.28,0.3298604189797988,0.0,0.04455750727060838,0.3,-0.03344077989459038,-0.3205431653115587,-10.0,0.24992573261260986,-0.3205431653698094,-10.0,0.6906901597976685,-0.12143341913485546,-10.0,-0.0024927188642323017,-0.2559661381800407,-10.0,0.4188086986541748,-2.1706661904065863,-10.0,-0.08954612910747528,0.0,1.8088318079709915
0.19999999999999998,0.17437538954134285,0.28,0.3298633594358762,0.0,0.0445741580191093,0.3,-0.03344077989459038,-0.32208718341104325,-10.0,0.24992573261260986,-0.32208718346677623,-10.0,0.6906901597976685,-0.11127012585309687,-10.0,-0.0026844663079828024,-0.3706387540836987,-10.0,0.4188086986541748,-2.233951159898192,-10.0,-0.08954612910747528,0.0,1.810622730553141
0.21999999999999997,0.17437538954134285,0.28,0.3298633594358762,0.0,0.0445741580191093,0.3,-0.03344077989459038,-0.3317459378943768,-10.0,0.24992573261260986,-0.3317459379505969,-10.0,0.6906901597976685,-0.10002891568214087,-10.0,-0.0026844663079828024,-0.5198528444430173,-10.0,0.4188086986541748,-2.210740429610156,-10.0,-0.08954612910747528,0.0,1.8124136531352906
0.23999999999999996,0.17437538954134285,0.28,0.3298633594358762,0.0,0.0445741580191093,0.3,-0.03344077989459038,-0.3373815291618149,-10.0,0.24992573261260986,-0.33738152921634845,-10.0,0.6906901597976685,-0.08778127340100078,-10.0,-0.0026844663079828024,-0.664597266483998,-10.0,0.4188086986541748,-2.2209346854743957,-10.0,-0.08954612910747528,0.0,1.81420457571744
0.25999999999999995,0.17437538954134285,0.28,0.3298633594358762,0.0,0.0445741580191093,0.3,-0.03344077989459038,-0.34317333330446215,-10.0,0.24992573261260986,-0.34317333335767347,-10.0,0.6906901597976685,-0.0790395639301489,-10.0,-0.0026844663079828024,-0.7921379103903836,-10.0,0.4188086986541748,-2.2238239280694176,-10.0,-0.08954612910747528,0.0,1.8159954982995896
0.27999999999999997,0.22654864170349168,0.28,-0.00764546351947186,0.0,0.20625410119559345,0.3,-0.03344077989459038,-0.3484259628460559,-10.0,0.24992573261260986,-0.34842596289747496,-10.0,0.6906901597976685,-0.07400079745697553,-10.0,-0.0026844663079828024,-0.8964684408291094,-10.0,0.4188086986541748,-2.2242436588705927,-10.0,-0.08954612910747528,0.0,1.8177864208817391
0.3,0.22654864170349168,0.28,-0.00764546351947186,0.0,0.20625410119559345,0.3,-0.03344077989459038,-0.3530965810651999,-10.0,0.24992573261260986,-0.353096581099718,-10.0,0.6906901597976685,-0.07198391659572376,-10.0,-0.0026844663079828024,-0.979854140028648,-10.0,0.4188086986541748,-2.22206656112055,-10.0,-0.08954612910747528,0.0,1.8195773434638887
0.32,0.22654864170349168,0.28,-0.00764546351947186,0.0,0.20625410119559345,0.3,-0.03344077989459038,-0.3572072927950845,-10.0,0.24992573261260986,-0.35720729284118213,-10.0,0.6906901597976685,-0.07213097180225228,-10.0,-0.0026844663079828024,-1.0463010801484014,-10.0,0.4188086986541748,-2.217597290149736,-10.0,-0.08954612910747528,0.0,1.8213682660460382
0.34,0.22654864170349168,0.28,-0.00764546351947186,0.0,0.20625410119559345,0.3,-0.03344077989459038,-0.3608112162912538,-10.0,0.24992573261260986,-0.3608112163359751,-10.0,0.6906901597976685,-0.07371868170899583,-10.0,-0.0026844663079828024,-1.0995341388239532,-10.0,0.4188086986541748,-2.211331301658702,-10.0,-0.08954612910747528,0.0,1.8231591886281877
0.36000000000000004,0.22654864170349168,0.28,-0.00764546351947186,0.0,0.20625410119559345,0.3,-0.03344077989459038,-0.36397043231105064,-10.0,0.24992573261260986,-0.36397043237295146,-10.0,0.6906901597976685,-0.07620467296573559,-10.0,-0.0026844663079828024,-1.1425539755934557,-10.0,0.4188086986541748,-2.2037913856782354,-10.0,-0.08954612910747528,0.0,1.824950111210337
0.38000000000000006,0.22651299673633984,0.28,-0.007633836140050874,0.0,0.20618586609444595,0.3,-0.03339476138353348,-0.36674479282881717,-10.0,0.25013092160224915,-0.36674479288046563,-10.0,0.6905674934387207,-0.07920153365234103,-10.0,-0.0026844663079828024,-1.1776674510805778,-10.0,0.4188086986541748,-2.1954507541645683,-10.0,-0.08954612910747528,0.0,1.8267410337924865
0.4000000000000001,0.22651299673633984,0.28,-0.007633836140050874,0.0,0.20618586609444595,0.3,-0.03339476138353348,-0.36918747008778746,-10.0,0.25013092160224915,-0.3691874701379439,-10.0,0.6905674934387207,-0.08244026655815345,-10.0,-0.0026844663079828024,-1.2066210920887184,-10.0,0.4188086986541748,-2.18670382564568,-10.0,-0.08954612910747528,0.0,1.828531956374636
0.4200000000000001,0.22651299673633984,0.28,-0.007633836140050874,0.0,0.20618586609444595,0.3,-0.03339476138353348,-0.37134395088861955,-10.0,0.25013092160224915,-0.3713439509228379,-10.0,0.6905674934387207,-0.08573861688054116,-10.0,-0.0026844663079828024,-1.2307334554328733,-10.0,0.4188086986541748,-2.177861033477424,-10.0,-0.08954612910747528,0.0,1.8303228789567856
0.4400000000000001,0.22651299673633984,0.28,-0.007633836140050874,0.0,0.20618586609444595,0.3,-0.03339476138353348,-0.3732525466605186,-10.0,0.25013092160224915,-0.37325254669371044,-10.0,0.6905674934387207,-0.08897661731733161,-10.0,-0.0026844663079828024,-1.2510029152689404,-10.0,0.4188086986541748,-2.169155056293256,-10.0,-0.08954612910747528,0.0,1.832113801538935
0.46000000000000013,0.22651299673633984,0.28,-0.007633836140050874,0.0,0.20618586609444595,0.3,-0.03339476138353348,-0.3749454226903369,-10.0,0.25013092160224915,-0.3749454227225916,-10.0,0.6905674934387207,-0.09207845359710143,-10.0,-0.0026844663079828024,-1.2681899513480837,-10.0,0.4188086986541748,-2.1607518056403316,-10.0,-0.08954612910747528,0.0,1.8339047241210846
0.48000000000000015,0.22698826164586705,0.28,-0.00669759527782273,0.0,0.2052615875696689,0.3,-0.02903633937239647,-0.37644968297764025,-10.0,0.25571075081825256,-0.3764496830088701,-10.0,0.6924734711647034,-0.09499924376029813,-10.0,-0.004218447022140026,-1.2828783782396684,-10.0,0.4153732359409332,-2.152762644977946,-10.0,-0.08954612910747528,0.0,1.8356956467032342
0.5000000000000001,0.22698826164586705,0.28,-0.00669759527782273,0.0,0.2052615875696689,0.3,-0.02903633937239647,-0.3777883273535624,-10.0,0.25571075081825256,-0.3777883273776941,-10.0,0.6924734711647034,-0.09771548794025871,-10.0,-0.004218447022140026,-1.295520424307072,-10.0,0.4153732359409332,-2.1452560364114253,-10.0,-0.08954612910747528,0.0,1.8374865692853837
0.5200000000000001,0.22698826164586705,0.28,-0.00669759527782273,0.0,0.2052615875696689,0.3,-0.02903633937239647,-0.3789810323309514,-10.0,0.25571075081825256,-0.378981032354296,-10.0,0.6924734711647034,-0.10021821751976887,-10.0,-0.004218447022140026,-1.3064698009646738,-10.0,0.4153732359409332,-2.1382677851427037,-10.0,-0.08954612910747528,0.0,1.8392774918675332
0.5400000000000001,0.22698826164586705,0.28,-0.00669759527782273,0.0,0.2052615875696689,0.3,-0.02903633937239647,-0.3800447650510106,-10.0,0.25571075081825256,-0.38004476507366264,-10.0,0.6924734711647034,-0.10250811450262715,-10.0,-0.004218447022140026,-1.3160059677324485,-10.0,0.4153732359409332,-2.131809601741912,-10.0,-0.08954612910747528,0.0,1.8410684144496827
0.5600000000000002,0.22698826164586705,0.28,-0.00669759527782273,0.0,0.2052615875696689,0.3,-0.02903633937239647,-0.38099425906246187,-10.0,0.25571075081825256,-0.38099425909597356,-10.0,0.6924734711647034,-0.10459206143123842,-10.0,-0.004218447022140026,-1.3243519852997807,-10.0,0.4153732359409332,-2.1258760008373314,-10.0,-0.08954612910747528,0.0,1.8428593370318322
0.5800000000000002,0.2329829393506095,0.28,-0.005541583610047761,0.0,0.21146797493556535,0.3,-0.02365398406982422,-0.38184238303843354,-10.0,0.2563377916812897,-0.3818423830766851,-10.0,0.7281365990638733,-0.10648072496556715,-10.0,-0.0011504855938255787,-1.3316877092827415,-10.0,0.450207382440567,-2.1204497021974036,-10.0,-0.08686166256666183,0.0,1.6060077640414239
0.6000000000000002,0.2329829393506095,0.28,-0.005541583610047761,0.0,0.21146797493556535,0.3,-0.02365398406982422,-0.3826004291044722,-10.0,0.2563377916812897,-0.38260042914157616,-10.0,0.7281365990638733,-0.1081868826013051,-10.0,-0.0011504855938255787,-1.3381595967159268,-10.0,0.450207382440567,-2.1155057576771776,-10.0,-0.08686166256666183,0.0,1.607744997292757
0.6200000000000002,0.2329829393506095,0.28,-0.005541583610047761,0.0,0.21146797493556535,0.3,-0.02365398406982422,-0.3832783417338192,-10.0,0.2563377916812897,-0.38327834176975717,-10.0,0.7281365990638733,-0.1097242807368725,-10.0,-0.0011504855938255787,-1.3438880438042706,-10.0,0.450207382440567,-2.111014635214899,-10.0,-0.08686166256666183,0.0,1.6094822305440903
0.6400000000000002,0.2329829393506095,0.28,-0.005541583610047761,0.0,0.21146797493556535,0.3,-0.02365398406982422,-0.38388490266863634,-10.0,0.2563377916812897,-0.38388490269788283,-10.0,0.7281365990638733,-0.11110687040568787,-10.0,-0.0011504855938255787,-1.348972917345841,-10.0,0.450207382440567,-2.1069444728787605,-10.0,-0.08686166256666183,0.0,1.6112194637954236
0.6600000000000003,0.2329829393506095,0.28,-0.005541583610047761,0.0,0.21146797493556535,0.3,-0.02365398406982422,-0.38442788297889946,-10.0,0.2563377916812897,-0.3844278830072686,-10.0,0.7281365990638733,-0.112348309625904,-10.0,-0.0011504855938255787,-1.3534977576728744,-10.0,0.450207382440567,-2.1032626871209366,-10.0,-0.08686166256666183,0.0,1.6129566970467568
0.6800000000000003,0.2370157386298917,0.28,-0.004865236138640848,0.0,0.2157066231169301,0.3,-0.02018718793988228,-0.38491417022435054,-10.0,0.25704148411750793,-0.38491417025192076,-10.0,0.7522047162055969,-0.11346165249887977,-10.0,-0.0028762139845639467,-1.3575329987056315,-10.0,0.4716990888118744,-2.0999370878149644,-10.0,-0.08647816628217697,0.0,1.7508270390331744
0.7000000000000003,0.2370157386298917,0.28,-0.004865236138640848,0.0,0.2157066231169301,0.3,-0.02018718793988228,-0.3853498762715938,-10.0,0.25704148411750793,-0.38534987630379475,-10.0,0.7522047162055969,-0.11445916787043192,-10.0,-0.0028762139845639467,-1.3611384561108226,-10.0,0.4716990888118744,-2.0969366227828057,-10.0,-0.08647816628217697,0.0,1.752556602358818
0.7200000000000003,0.2370157386298917,0.28,-0.004865236138640848,0.0,0.2157066231169301,0.3,-0.02018718793988228,-0.38574042981526546,-10.0,0.25704148411750793,-0.38574042984655227,-10.0,0.7522047162055969,-0.11535224677566777,-10.0,-0.0028762139845639467,-1.364365266493088,-10.0,0.4716990888118744,-2.0942318485024076,-10.0,-0.08647816628217697,0.0,1.7542861656844615
0.7400000000000003,0.2370157386298917,0.28,-0.004865236138640848,0.0,0.2157066231169301,0.3,-0.02018718793988228,-0.38609065644801516,-10.0,0.25704148411750793,-0.3860906564838033,-10.0,0.7522047162055969,-0.11615136975170728,-10.0,-0.0028762139845639467,-1.367257411942186,-10.0,0.4716990888118744,-2.0917952016674355,-10.0,-0.08647816628217697,0.0,1.756015729010105
0.7600000000000003,0.2370157386298917,0.28,-0.004865236138640848,0.0,0.2157066231169301,0.3,-0.02018718793988228,-0.38640484848105267,-10.0,0.25704148411750793,-0.386404848521176,-10.0,0.7522047162055969,-0.11686611359573833,-10.0,-0.0028762139845639467,-1.3698529289009256,-10.0,0.4716990888118744,-2.089601128650011,-10.0,-0.08647816628217697,0.0,1.7577452923357486
0.7800000000000004,0.2383955559590158,0.28,-0.0049629446482392274,0.0,0.21659394692006595,0.3,-0.020522745326161385,-0.38668682608002825,-10.0,0.25962433218955994,-0.38668682611345034,-10.0,0.760292649269104,-0.11750518326028567,-10.0,-0.0024927188642323017,-1.3721848749495653,-10.0,0.4770520329475403,-2.087626115712836,-10.0,-0.08590292185544968,0.0,1.7479584622383117
0.8000000000000004,0.2383955559590158,0.28,-0.0049629446482392274,0.0,0.21659394692006595,0.3,-0.020522745326161385,-0.3869399909947928,-10.0,0.25962433218955994,-0.38693999102721227,-10.0,0.760292649269104,-0.11807645892658779,-10.0,-0.0024927188642323017,-1.374282108482951,-10.0,0.4770520329475403,-2.0858486518595503,-10.0,-0.08590292185544968,0.0,1.7496765206754208
0.8200000000000004,0.2383955559590158,0.28,-0.0049629446482392274,0.0,0.21659394692006595,0.3,-0.020522745326161385,-0.38716737394439615,-10.0,0.25962433218955994,-0.3871673739705309,-10.0,0.760292649269104,-0.11858705139164112,-10.0,-0.0024927188642323017,-1.3761699226017232,-10.0,0.4770520329475403,-2.084249147792376,-10.0,-0.08590292185544968,0.0,1.7513945791125298
0.8400000000000004,0.2383955559590158,0.28,-0.0049629446482392274,0.0,0.21659394692006595,0.3,-0.020522745326161385,-0.38737167639028264,-10.0,0.25962433218955994,-0.38737167642088444,-10.0,0.760292649269104,-0.11904336111055207,-10.0,-0.0024927188642323017,-1.3778705645755656,-10.0,0.4770520329475403,-2.082809827951034,-10.0,-0.08590292185544968,0.0,1.7531126375496386
0.8600000000000004,0.2383955559590158,0.28,-0.0049629446482392274,0.0,0.21659394692006595,0.3,-0.020522745326161385,-0.3875553075118468,-10.0,0.25962433218955994,-0.3875553075414794,-10.0,0.760292649269104,-0.119451137794989,-10.0,-0.0024927188642323017,-1.3794036648728918,-10.0,0.4770520329475403,-2.0815146077283577,-10.0,-0.08590292185544968,0.0,1.7548306959867477
0.8800000000000004,0.23907900886012606,0.28,-0.0062166209489007895,0.0,0.21729729103972334,0.3,-0.02537587657570839,-0.3877204168495492,-10.0,0.26059266924858093,-0.38772041687817593,-10.0,0.7653260231018066,-0.11981553854272486,-10.0,-0.0051771849393844604,-1.3807865939659434,-10.0,0.48296427726745605,-2.0803489644709887,-10.0,-0.08590292185544968,0.0,1.8181819110363722
0.9000000000000005,0.23907900886012606,0.28,-0.0062166209489007895,0.0,0.21729729103972334,0.3,-0.02537587657570839,-0.3878689232382812,-10.0,0.26059266924858093,-0.38786892326070455,-10.0,0.7653260231018066,-0.12014118325831409,-10.0,-0.0051771849393844604,-1.3820347612725736,-10.0,0.48296427726745605,-2.0792998080297465,-10.0,-0.08590292185544968,0.0,1.8198999694734812
0.9200000000000005,0.23907900886012606,0.28,-0.0062166209489007895,0.0,0.21729729103972334,0.3,-0.02537587657570839,-0.3880025403903947,-10.0,0.26059266924858093,-0.38800254041215265,-10.0,0.7653260231018066,-0.12043220663255122,-10.0,-0.0051771849393844604,-1.383161867148207,-10.0,0.48296427726745605,-2.0783553548302045,-10.0,-0.08590292185544968,0.0,1.8216180279105902
0.9400000000000005,0.23907900886012606,0.28,-0.0062166209489007895,0.0,0.21729729103972334,0.3,-0.02537587657570839,-0.38812279958585105,-10.0,0.26059266924858093,-0.3881227996122815,-10.0,0.7653260231018066,-0.120692306333352,-10.0,-0.0051771849393844604,-1.3841801167403769,-10.0,0.48296427726745605,-2.077505007843588,-10.0,-0.08590292185544968,0.0,1.823336086347699
0.9600000000000005,0.23907900886012606,0.28,-0.0062166209489007895,0.0,0.21729729103972334,0.3,-0.02537587657570839,-0.38823106976057514,-10.0,0.26059266924858093,-0.3882310697862127,-10.0,0.7653260231018066,-0.12092478728178654,-10.0,-0.0051771849393844604,-1.3851004024416624,-10.0,0.48296427726745605,-2.0767392439841172,-10.0,-0.08590292185544968,0.0,1.825054144784808
0.9800000000000005,0.2419351358601485,0.28,-0.00553845796564,0.0,0.2200865782393672,0.3,-0.022472819313406944,-0.38832857529830955,-10.0,0.26193487644195557,-0.3883285753231343,-10.0,0.7818968296051025,-0.12113260206174899,-10.0,-0.003451456781476736,-1.3859324604244136,-10.0,0.49486860632896423,-2.076049509645526,-10.0,-0.08628641813993454,0.0,1.834449798837304
1.0000000000000004,0.2419351358601485,0.28,-0.00553845796564,0.0,0.2200865782393672,0.3,-0.022472819313406944,-0.3884164118302914,-10.0,0.26193487644195557,-0.3884164118544296,-10.0,0.7818968296051025,-0.12131838761151388,-10.0,-0.003451456781476736,-1.3866850056243483,-10.0,0.49486860632896423,-2.0754281246089246,-10.0,-0.08628641813993454,0.0,1.8361755272001028
1.0200000000000005,0.2419351358601485,0.28,-0.00553845796564,0.0,0.2200865782393672,0.3,-0.022472819313406944,-0.3884955602333221,-10.0,0.26193487644195557,-0.38849556025673615,-10.0,0.7818968296051025,-0.12148449839820136,-10.0,-0.003451456781476736,-1.3873658486146518,-10.0,0.49486860632896423,-2.0748681942812865,-10.0,-0.08628641813993454,0.0,1.8379012555629015
1.0400000000000005,0.2419351358601485,0.28,-0.00553845796564,0.0,0.2200865782393672,0.3,-0.022472819313406944,-0.38856689906273656,-10.0,0.26193487644195557,-0.3885668990854991,-10.0,0.7818968296051025,-0.12163303633084958,-10.0,-0.003451456781476736,-1.3879819973599168,-10.0,0.49486860632896423,-2.0743635298539482,-10.0,-0.08628641813993454,0.0,1.8396269839257002
1.0600000000000005,0.2419351358601485,0.28,-0.00553845796564,0.0,0.2200865782393672,0.3,-0.022472819313406944,-0.38863121557914354,-10.0,0.26193487644195557,-0.388631215601274,-10.0,0.7818968296051025,-0.12176587764467171,-10.0,-0.003451456781476736,-1.3885397459386835,-10.0,0.49486860632896423,-2.0739085761052345,-10.0,-0.08628641813993454,0.0,1.841352712288499
1.0800000000000005,0.24455367273095527,0.28,-0.00496251686740997,0.0,0.22286642408200205,0.3,-0.01952565833926201,-0.3886892155543763,-10.0,0.2646174430847168,-0.3886892155705441,-10.0,0.7999958992004395,-0.12188469703506913,-10.0,-0.006135923322290182,-1.3890447523844975,-10.0,0.5146026015281677,-2.0734983461732197,-10.0,-0.08686166256666183,0.0,1.8751392196118832
1.1000000000000005,0.24455367273095527,0.28,-0.00496251686740997,0.0,0.22286642408200205,0.3,-0.01952565833926201,-0.3887415319711984,-10.0,0.2646174430847168,-0.3887415319868811,-10.0,0.7999958992004395,-0.12199098927897,-10.0,-0.006135923322290182,-1.3895021070811044,-10.0,0.5146026015281677,-2.07312836284043,-10.0,-0.08686166256666183,0.0,1.8768764528632165
1.1200000000000006,0.24455367273095527,0.28,-0.00496251686740997,0.0,0.22286642408200205,0.3,-0.01952565833926201,-0.388788732780209,-10.0,0.2646174430847168,-0.38878873279547205,-10.0,0.7999958992004395,-0.12208608857838858,-10.0,-0.006135923322290182,-1.3899163930106946,-10.0,0.5146026015281677,-2.072794605796917,-10.0,-0.08686166256666183,0.0,1.8786136861145497
1.1400000000000006,0.24455367273095527,0.28,-0.00496251686740997,0.0,0.22286642408200205,0.3,-0.01952565833926201,-0.3888313277826847,-10.0,0.2646174430847168,-0.38883132779755514,-10.0,0.7999958992004395,-0.12217118585958386,-10.0,-0.006135923322290182,-1.3902917390739782,-10.0,0.5146026015281677,-2.072493464264246,-10.0,-0.08686166256666183,0.0,1.880350919365883
1.1600000000000006,0.24455367273095527,0.28,-0.00496251686740997,0.0,0.22286642408200205,0.3,-0.01952565833926201,-0.38886977476583656,-10.0,0.2646174430847168,-0.38886977478031165,-10.0,0.7999958992004395,-0.12224734422254149,-10.0,-0.006135923322290182,-1.3906318672826241,-10.0,0.5146026015281677,-2.0722216945498695,-10.0,-0.08686166256666183,0.0,1.8820881526172162
1.1800000000000006,0.24691747167901767,0.28,-0.004682716083956962,0.0,0.22575202210222275,0.3,-0.01853048801422119,-0.3889044849663721,-10.0,0.26462894678115845,-0.3889044849804637,-10.0,0.8150231838226318,-0.12231551273516075,-10.0,-0.003451456781476736,-1.3909401346678385,-10.0,0.5279450416564941,-2.0719763820129398,-10.0,-0.08686166256666183,0.0,1.84273661479353
1.2000000000000006,0.24691747167901767,0.28,-0.004682716083956962,0.0,0.22575202210222275,0.3,-0.01853048801422119,-0.3889358279361778,-10.0,0.26462894678115845,-0.38893582795513365,-10.0,0.8150231838226318,-0.12237653874152168,-10.0,-0.003451456781476736,-1.3912195705455348,-10.0,0.5279450416564941,-2.071754907017496,-10.0,-0.08686166256666183,0.0,1.8444738480448633
1.2200000000000006,0.24691747167901767,0.28,-0.004682716083956962,0.0,0.22575202210222275,0.3,-0.01853048801422119,-0.38896413589605794,-10.0,0.26462894678115845,-0.38896413591445234,-10.0,0.8150231838226318,-0.12243117884387787,-10.0,-0.003451456781476736,-1.391472909737065,-10.0,0.5279450416564941,-2.07155491444179,-10.0,-0.08686166256666183,0.0,1.8462110812961965
1.2400000000000007,0.24691747167901767,0.28,-0.004682716083956962,0.0,0.22575202210222275,0.3,-0.01853048801422119,-0.38898970759488033,-10.0,0.26462894678115845,-0.38898970761277357,-10.0,0.8150231838226318,-0.12248010869669379,-10.0,-0.003451456781476736,-1.391702622218007,-10.0,0.5279450416564941,-2.0713742863918694,-10.0,-0.08686166256666183,0.0,1.8479483145475297
1.2600000000000007,0.24691747167901767,0.28,-0.004682716083956962,0.0,0.22575202210222275,0.3,-0.01853048801422119,-0.38901281177535807,-10.0,0.26462894678115845,-0.3890128117979978,-10.0,0.8150231838226318,-0.12252393173784136,-10.0,-0.003451456781476736,-1.3919109395885119,-10.0,0.5279450416564941,-2.071211117798298,-10.0,-0.08686166256666183,0.0,1.849685547798863
1.2800000000000007,0.2495995324156143,0.28,-0.004732390316334889,0.0,0.2289526529570975,0.3,-0.01814315840601921,-0.3890336902720346,-10.0,0.26610156893730164,-0.3890336902939879,-10.0,0.8333619236946106,-0.12256318697515547,-10.0,-0.006327670533210039,-1.3920998787741956,-10.0,0.5460811853408813,-2.0710636945634833,-10.0,-0.08647816628217697,0.0,1.802656414359808
1.3000000000000007,0.2495995324156143,0.28,-0.004732390316334889,0.0,0.2289526529570975,0.3,-0.01814315840601921,-0.3890525607594689,-10.0,0.26610156893730164,-0.38905256078076356,-10.0,0.8333619236946106,-0.12259835593071741,-10.0,-0.006327670533210039,-1.3922712632814436,-10.0,0.5460811853408813,-2.0709304739852796,-10.0,-0.08647816628217697,0.0,1.8043859776854516
1.3200000000000007,0.2495995324156143,0.28,-0.004732390316334889,0.0,0.2289526529570975,0.3,-0.01814315840601921,-0.3890696192316404,-10.0,0.26610156893730164,-0.389069619246965,-10.0,0.8333619236946106,-0.1226298688262121,-10.0,-0.006327670533210039,-1.392426742194735,-10.0,0.5460811853408813,-2.0708100672738143,-10.0,-0.08647816628217697,0.0,1.8061155410110952
1.3400000000000007,0.2495995324156143,0.28,-0.004732390316334889,0.0,0.2289526529570975,0.3,-0.01814315840601921,-0.3890850422014203,-10.0,0.26610156893730164,-0.3890850422164083,-10.0,0.8333619236946106,-0.12265811010361075,-10.0,-0.006327670533210039,-1.392567807299531,-10.0,0.5460811853408813,-2.0707012238494946,-10.0,-0.08647816628217697,0.0,1.8078451043367385
1.3600000000000008,0.2495995324156143,0.28,-0.004732390316334889,0.0,0.2289526529570975,0.3,-0.01814315840601921,-0.3890989886932304,-10.0,0.26610156893730164,-0.3890989887077687,-10.0,0.8333619236946106,-0.12268342334313138,-10.0,-0.006327670533210039,-1.3926958084089225,-10.0,0.5460811853408813,-2.070602817310464,-10.0,-0.08647816628217697,0.0,1.809574667662382
1.3800000000000008,0.2523201237345545,0.28,-0.0032682860197602447,0.0,0.22981125871173957,0.3,-0.01251153089106083,-0.3891116020010544,-10.0,0.27502357959747314,-0.3891116020203843,-10.0,0.8490967154502869,-0.12270611564986313,-10.0,-0.003451456781476736,-1.3928119671688888,-10.0,0.5530320405960083,-2.0705138328472987,-10.0,-0.08609466999769211,0.0,1.8241710209101438
1.4000000000000008,0.2523201237345545,0.28,-0.0032682860197602447,0.0,0.22981125871173957,0.3,-0.01251153089106083,-0.38912301128895854,-10.0,0.27502357959747314,-0.3891230113077592,-10.0,0.8490967154502869,-0.12272646156487758,-10.0,-0.003451456781476736,-1.3929173894686029,-10.0,0.5530320405960083,-2.0704333559671473,-10.0,-0.08609466999769211,0.0,1.8258929143100977
1.4200000000000008,0.2523201237345545,0.28,-0.0032682860197602447,0.0,0.22981125871173957,0.3,-0.01251153089106083,-0.38913333300260705,-10.0,0.27502357959747314,-0.38913333301556635,-10.0,0.8490967154502869,-0.12274470655530993,-10.0,-0.003451456781476736,-1.3930130766304651,-10.0,0.5530320405960083,-2.0703605623681014,-10.0,-0.08609466999769211,0.0,1.8276148077100516
1.4400000000000008,0.2523201237345545,0.28,-0.0032682860197602447,0.0,0.22981125871173957,0.3,-0.01251153089106083,-0.38914267214302206,-10.0,0.27502357959747314,-0.38914267215559983,-10.0,0.8490967154502869,-0.12276107012303497,-10.0,-0.003451456781476736,-1.3930999354561855,-10.0,0.5530320405960083,-2.0702947088875505,-10.0,-0.08609466999769211,0.0,1.8293367011100055
1.4600000000000009,0.2523201237345545,0.28,-0.0032682860197602447,0.0,0.22981125871173957,0.3,-0.01251153089106083,-0.3891511234260043,-10.0,0.27502357959747314,-0.38915112343820474,-10.0,0.8490967154502869,-0.12277574858077213,-10.0,-0.003451456781476736,-1.3931787873057326,-10.0,0.5530320405960083,-2.070235125358033,-10.0,-0.08609466999769211,0.0,1.8310585945099593
1.4800000000000009,0.2551979645504571,0.28,-0.002696244495302432,0.0,0.23213882558371657,0.3,-0.009740778245031834,-0.38915877229969065,-10.0,0.2804059386253357,-0.38915877231147444,-10.0,0.8677576184272766,-0.12278891752814028,-10.0,-0.006327670533210039,-1.3932503762869373,-10.0,0.5672532916069031,-2.0701812073011645,-10.0,-0.08551942557096481,0.0,1.8212640944868326
1.5000000000000009,0.2551979645504571,0.28,-0.002696244495302432,0.0,0.23213882558371657,0.3,-0.009740778245031834,-0.38916569586748934,-10.0,0.2804059386253357,-0.3891656958789848,-10.0,0.8677576184272766,-0.12280073405818685,-10.0,-0.006327670533210039,-1.3933153766065454,-10.0,0.5672532916069031,-2.0701324093880595,-10.0,-0.08551942557096481,0.0,1.822974482998252
1.520000000000001,0.2551979645504571,0.28,-0.002696244495302432,0.0,0.23213882558371657,0.3,-0.009740778245031834,-0.38917196372290735,-10.0,0.2804059386253357,-0.38917196372884044,-10.0,0.8677576184272766,-0.12281133873139816,-10.0,-0.006327670533210039,-1.3933743992599963,-10.0,0.5672532916069031,-2.0700882395289555,-10.0,-0.08551942557096481,0.0,1.8246848715096713
1.540000000000001,0.25479154275307264,0.28,-0.006061589130796762,0.0,0.23433961211388407,0.3,-0.023590706288814545,-0.38917763868071836,-10.0,0.2712154686450958,-0.389177638686582,-10.0,0.8670787811279297,-0.12282085733172707,-10.0,-0.0015339808305725455,-1.393427998016353,-10.0,0.5721269249916077,-2.0700482536047096,-10.0,-0.09817477315664291,0.0,2.2235660174489023
1.560000000000001,0.25479154275307264,0.28,-0.006061589130796762,0.0,0.23433961211388407,0.3,-0.023590706288814545,-0.3891827774647787,-10.0,0.2712154686450958,-0.38918277747051705,-10.0,0.8670787811279297,-0.1228294024386787,-10.0,-0.0015339808305725455,-1.3934766748693115,-10.0,0.5721269249916077,-2.0700120506975437,-10.0,-0.09817477315664291,0.0,2.225529512912035
1.580000000000001,0.2548075649438478,0.28,-0.005824671174633564,0.0,0.23370725137363357,0.3,-0.022710585966706276,-0.3891874312947477,-10.0,0.2741108536720276,-0.3891874313056464,-10.0,0.8676118850708008,-0.12283707482707354,-10.0,-0.0011504855938255787,-1.3935208849249725,-10.0,0.5732454061508179,-2.0699792688303296,-10.0,-0.09855826199054718,0.0,2.1324485271424054
1.600000000000001,0.2548075649438478,0.28,-0.005824671174633564,0.0,0.23370725137363357,0.3,-0.022710585966706276,-0.3891916464406634,-10.0,0.2741108536720276,-0.38919164645118454,-10.0,0.8676118850708008,-0.12284396471829243,-10.0,-0.0011504855938255787,-1.3935610408258436,-10.0,0.5732454061508179,-2.0699495811246775,-10.0,-0.09855826199054718,0.0,2.1344196923822163
1.620000000000001,0.2548075649438478,0.28,-0.005824671174633564,0.0,0.23370725137363357,0.3,-0.022710585966706276,-0.3891954646980685,-10.0,0.2741108536720276,-0.38919546470300703,-10.0,0.8676118850708008,-0.12285015289852053,-10.0,-0.0011504855938255787,-1.393597516783036,-10.0,0.5732454061508179,-2.0699226923363643,-10.0,-0.09855826199054718,0.0,2.1363908576220276
1.640000000000001,0.2548075649438478,0.28,-0.005824671174633564,0.0,0.23370725137363357,0.3,-0.022710585966706276,-0.38919892382273924,-10.0,0.2741108536720276,-0.389198923832753,-10.0,0.8676118850708008,-0.12285571171587212,-10.0,-0.0011504855938255787,-1.3936306521735427,-10.0,0.5732454061508179,-2.0698983357518075,-10.0,-0.09855826199054718,0.0,2.1383620228618385
1.660000000000001,0.2548075649438478,0.28,-0.005824671174633564,0.0,0.23370725137363357,0.3,-0.022710585966706276,-0.3892020579517938,-10.0,0.2741108536720276,-0.3892020579561827,-10.0,0.8676118850708008,-0.12286070597082645,-10.0,-0.0011504855938255787,-1.393660754827921,-10.0,0.5732454061508179,-2.0698762703936517,-10.0,-0.09855826199054718,0.0,2.1403331881016494
1.680000000000001,0.25630402400559965,0.28,-0.005910559978334237,0.0,0.23382121139904774,0.3,-0.022584032267332077,-0.3892048979225112,-10.0,0.27951815724372864,-0.3892048979267684,-10.0,0.8750535845756531,-0.12286519371378601,-10.0,-0.0036432044580578804,-1.393688103994718,-10.0,0.5725263953208923,-2.069856278491819,-10.0,-0.09894175827503204,0.0,2.1294375634193328
1.700000000000001,0.25630402400559965,0.28,-0.005910559978334237,0.0,0.23382121139904774,0.3,-0.022584032267332077,-0.3892074716175376,-10.0,0.27951815724372864,-0.3892074716269913,-10.0,0.8750535845756531,-0.1228692269543104,-10.0,-0.0036432044580578804,-1.3937129530072065,-10.0,0.5725263953208923,-2.0698381632291976,-10.0,-0.09894175827503204,0.0,2.1314163985848333
1.720000000000001,0.25630402400559965,0.28,-0.005910559978334237,0.0,0.23382121139904774,0.3,-0.022584032267332077,-0.3892098042549094,-10.0,0.27951815724372864,-0.3892098042588567,-10.0,0.8750535845756531,-0.12287285229849135,-10.0,-0.0036432044580578804,-1.393735531729626,-10.0,0.5725263953208923,-2.0698217466849806,-10.0,-0.09894175827503204,0.0,2.133395233750334
1.740000000000001,0.25630402400559965,0.28,-0.005910559978334237,0.0,0.23382121139904774,0.3,-0.022584032267332077,-0.3892119186228443,-10.0,0.27951815724372864,-0.38921191862667315,-10.0,0.8750535845756531,-0.12287611151603553,-10.0,-0.0036432044580578804,-1.3937560487428884,-10.0,0.5725263953208923,-2.069806868000868,-10.0,-0.09894175827503204,0.0,2.135374068915835
1.7600000000000011,0.25630402400559965,0.28,-0.005910559978334237,0.0,0.23382121139904774,0.3,-0.022584032267332077,-0.38921383533998233,-10.0,0.27951815724372864,-0.3892138353436384,-10.0,0.8750535845756531,-0.12287904204706511,-10.0,-0.0036432044580578804,-1.3937746933260118,-10.0,0.5725263953208923,-2.0697933817283336,-10.0,-0.09894175827503204,0.0,2.1373529040813355
1.7800000000000011,0.26132191175316916,0.28,-0.004710558574122202,0.0,0.2405852210198463,0.3,-0.017849784344434738,-0.38921557304861576,-10.0,0.28138959407806396,-0.3892155730628097,-10.0,0.9109180569648743,-0.12288167745702858,-10.0,-0.0013422331539914012,-1.3937916372645187,-10.0,0.606481671333313,-2.069781156326005,-10.0,-0.09894175827503204,0.0,2.139331739246836
1.8000000000000012,0.26132191175316916,0.28,-0.004710558574122202,0.0,0.2405852210198463,0.3,-0.017849784344434738,-0.38921714863134305,-10.0,0.28138959407806396,-0.38921714863983814,-10.0,0.9109180569648743,-0.12288404784134785,-10.0,-0.0013422331539914012,-1.3938070364803345,-10.0,0.606481671333313,-2.069770072819048,-10.0,-0.09894175827503204,0.0,2.1413105744123366
1.8200000000000012,0.26132191175316916,0.28,-0.004710558574122202,0.0,0.2405852210198463,0.3,-0.017849784344434738,-0.3892185773406567,-10.0,0.28138959407806396,-0.3892185773488463,-10.0,0.9109180569648743,-0.12288618018967533,-10.0,-0.0013422331539914012,-1.3938210325130962,-10.0,0.606481671333313,-2.0697600235741533,-10.0,-0.09894175827503204,0.0,2.143289409577837
1.8400000000000012,0.26132191175316916,0.28,-0.004710558574122202,0.0,0.2405852210198463,0.3,-0.017849784344434738,-0.3892198729880417,-10.0,0.28138959407806396,-0.38921987300130917,-10.0,0.9109180569648743,-0.1228880987093011,-10.0,-0.0013422331539914012,-1.3938337538533054,-10.0,0.606481671333313,-2.069750911210881,-10.0,-0.09894175827503204,0.0,2.145268244743338
1.8600000000000012,0.26132191175316916,0.28,-0.004710558574122202,0.0,0.2405852210198463,0.3,-0.017849784344434738,-0.3892210480776301,-10.0,0.28138959407806396,-0.3892210480904995,-10.0,0.9109180569648743,-0.12288982511467615,-10.0,-0.0013422331539914012,-1.3938453171449712,-10.0,0.606481671333313,-2.069742647617987,-10.0,-0.09894175827503204,0.0,2.147247079908839
1.8800000000000012,0.2639303499256109,0.28,-0.004231026269113724,0.0,0.24340554844139703,0.3,-0.015510463155806065,-0.38922211392025485,-10.0,0.28470683097839355,-0.3892221139326803,-10.0,0.9288713932037354,-0.12289137888833696,-10.0,-0.003834951901808381,-1.3938558283036362,-10.0,0.6204632520675659,-2.069735153051482,-10.0,-0.09894175827503204,0.0,2.1492259150743394
1.9000000000000012,0.2639303499256109,0.28,-0.004231026269113724,0.0,0.24340554844139703,0.3,-0.015510463155806065,-0.3892230807576409,-10.0,0.28470683097839355,-0.3892230807696936,-10.0,0.9288713932037354,-0.12289277751291663,-10.0,-0.003834951901808381,-1.39386538350492,-10.0,0.6204632520675659,-2.069728355331915,-10.0,-0.09894175827503204,0.0,2.15120475023984
1.9200000000000013,0.2639303499256109,0.28,-0.004231026269113724,0.0,0.24340554844139703,0.3,-0.015510463155806065,-0.38922395785851355,-10.0,0.28470683097839355,-0.38922395787559305,-10.0,0.9288713932037354,-0.12289403667767368,-10.0,-0.003834951901808381,-1.3938740700723071,-10.0,0.6204632520675659,-2.0697221891274924,-10.0,-0.09894175827503204,0.0,2.1531835854053405
1.9400000000000013,0.2639303499256109,0.28,-0.004231026269113724,0.0,0.24340554844139703,0.3,-0.015510463155806065,-0.38922475361630976,-10.0,0.28470683097839355,-0.3892247536486369,-10.0,0.9288713932037354,-0.12289517046621566,-10.0,-0.003834951901808381,-1.3938819673207425,-10.0,0.6204632520675659,-2.0697165952849725,-10.0,-0.09894175827503204,0.0,2.155162420570841
1.9600000000000013,0.2639303499256109,0.28,-0.004231026269113724,0.0,0.24340554844139703,0.3,-0.015510463155806065,-0.389225475646815,-10.0,0.28470683097839355,-0.3892254756782229,-10.0,0.9288713932037354,-0.12289619152182103,-10.0,-0.003834951901808381,-1.3938891472782728,-10.0,0.6204632520675659,-2.0697115202468277,-10.0,-0.09894175827503204,0.0,2.157141255736342
1.9800000000000013,0.2654951387640485,0.28,-0.0037230621989216145,0.0,0.245692849282982,0.3,-0.013658181764185429,-0.3892261308275139,-10.0,0.28523796796798706,-0.38922613085792895,-10.0,0.9405967593193054,-0.1228971111967159,-10.0,-0.0026844663079828024,-1.3938956753683756,-10.0,0.6314088702201843,-2.0697069155138395,-10.0,-0.09855826199054718,0.0,2.1103537242114547
2.0000000000000013,0.2654951387640485,0.28,-0.0037230621989216145,0.0,0.245692849282982,0.3,-0.013658181764185429,-0.389226725397838,-10.0,0.28523796796798706,-0.3892267254220536,-10.0,0.9405967593193054,-0.1228979396856974,-10.0,-0.0026844663079828024,-1.3939016110171605,-10.0,0.6314088702201843,-2.069702737161459,-10.0,-0.09855826199054718,0.0,2.1123248894512656
2.0200000000000014,0.2654951387640485,0.28,-0.0037230621989216145,0.0,0.245692849282982,0.3,-0.013658181764185429,-0.3892272650019698,-10.0,0.28523796796798706,-0.38922726502540833,-10.0,0.9405967593193054,-0.12289868614515366,-10.0,-0.0026844663079828024,-1.3939070082031044,-10.0,0.6314088702201843,-2.0696989454066856,-10.0,-0.09855826199054718,0.0,2.1142960546910765
2.0400000000000014,0.2654951387640485,0.28,-0.0037230621989216145,0.0,0.245692849282982,0.3,-0.013658181764185429,-0.3892277547611274,-10.0,0.28523796796798706,-0.3892277547839134,-10.0,0.9405967593193054,-0.12289935880056682,-10.0,-0.0026844663079828024,-1.3939119159647368,-10.0,0.6314088702201843,-2.069695504210031,-10.0,-0.09855826199054718,0.0,2.1162672199308874
2.0600000000000014,0.2654951387640485,0.28,-0.0037230621989216145,0.0,0.245692849282982,0.3,-0.013658181764185429,-0.3892281993098062,-10.0,0.28523796796798706,-0.389228199337181,-10.0,0.9405967593193054,-0.12289996504153165,-10.0,-0.0026844663079828024,-1.3939163788454085,-10.0,0.6314088702201843,-2.0696923809258223,-10.0,-0.09855826199054718,0.0,2.1182383851706983
2.0800000000000014,0.2654951387640485,0.28,-0.0037230621989216145,0.0,0.245692849282982,0.3,-0.013658181764185429,-0.3892286028563455,-10.0,0.28523796796798706,-0.38922860288289907,-10.0,0.9405967593193054,-0.12290051150911041,-10.0,-0.0026844663079828024,-1.3939204373271792,-10.0,0.6314088702201843,-2.069689545968738,-10.0,-0.09855826199054718,0.0,2.120209550410509
2.1000000000000014,0.2654951387640485,0.28,-0.0037230621989216145,0.0,0.245692849282982,0.3,-0.013658181764185429,-0.38922896920676353,-10.0,0.28523796796798706,-0.38922896923241923,-10.0,0.9405967593193054,-0.12290100417172559,-10.0,-0.0026844663079828024,-1.3939241281868198,-10.0,0.6314088702201843,-2.069686972531317,-10.0,-0.09855826199054718,0.0,2.1221807156503205
2.1200000000000014,0.2654951387640485,0.28,-0.0037230621989216145,0.0,0.245692849282982,0.3,-0.013658181764185429,-0.3892293018129548,-10.0,0.28523796796798706,-0.3892293018378987,-10.0,0.9405967593193054,-0.1229014483940709,-10.0,-0.0026844663079828024,-1.393927484843098,-10.0,0.6314088702201843,-2.069684636320341,-10.0,-0.09855826199054718,0.0,2.1241518808901314
2.1400000000000015,0.2654951387640485,0.28,-0.0037230621989216145,0.0,0.245692849282982,0.3,-0.013658181764185429,-0.3892296038016281,-10.0,0.28523796796798706,-0.3892296038311467,-10.0,0.9405967593193054,-0.122901848999473,-10.0,-0.0026844663079828024,-1.3939305376636255,-10.0,0.6314088702201843,-2.0696825153154204,-10.0,-0.09855826199054718,0.0,2.1261230461299423
2.1600000000000015,0.2654951387640485,0.28,-0.0037230621989216145,0.0,0.245692849282982,0.3,-0.013658181764185429,-0.38922987801453196,-10.0,0.28523796796798706,-0.389229878043165,-10.0,0.9405967593193054,-0.12290221032435561,-10.0,-0.0026844663079828024,-1.3939333142424732,-10.0,0.6314088702201843,-2.069680589560145,-10.0,-0.09855826199054718,0.0,2.128094211369753
2.1800000000000015,0.2654951387640485,0.28,-0.0037230621989216145,0.0,0.245692849282982,0.3,-0.013658181764185429,-0.3892301270185002,-10.0,0.28523796796798706,-0.3892301270516479,-10.0,0.9405967593193054,-0.12290253626921564,-10.0,-0.0026844663079828024,-1.393935839663233,-10.0,0.6314088702201843,-2.0696788409582902,-10.0,-0.09855826199054718,0.0,2.130065376609564
2.2000000000000015,0.2654951387640485,0.28,-0.0037230621989216145,0.0,0.245692849282982,0.3,-0.013658181764185429,-0.3892303531501609,-10.0,0.28523796796798706,-0.3892303531823142,-10.0,0.9405967593193054,-0.1229028303413685,-10.0,-0.0026844663079828024,-1.3939381367110162,-10.0,0.6314088702201843,-2.069677253110807,-10.0,-0.09855826199054718,0.0,2.132036541849375
2.2200000000000015,0.2654951387640485,0.28,-0.0037230621989216145,0.0,0.245692849282982,0.3,-0.013658181764185429,-0.38923055851924393,-10.0,0.28523796796798706,-0.38923055855569766,-10.0,0.9405967593193054,-0.1229030956968157,-10.0,-0.0026844663079828024,-1.3939402261108063,-10.0,0.6314088702201843,-2.0696758111417157,-10.0,-0.09855826199054718,0.0,2.134007707089186
2.2400000000000015,0.2654951387640485,0.28,-0.0037230621989216145,0.0,0.245692849282982,0.3,-0.013658181764185429,-0.38923074504847166,-10.0,0.28523796796798706,-0.38923074508388245,-10.0,0.9405967593193054,-0.12290333517471422,-10.0,-0.0026844663079828024,-1.39394212668866,-10.0,0.6314088702201843,-2.0696745015653533,-10.0,-0.09855826199054718,0.0,2.1359788723289967
2.2600000000000016,0.2654951387640485,0.28,-0.0037230621989216145,0.0,0.245692849282982,0.3,-0.013658181764185429,-0.3892309144743882,-10.0,0.28523796796798706,-0.38923091450873665,-10.0,0.9405967593193054,-0.12290355132999845,-10.0,-0.0026844663079828024,-1.3939438555599204,-10.0,0.6314088702201843,-2.0696733121512096,-10.0,-0.09855826199054718,0.0,2.1379500375688076
2.2800000000000016,0.2654951387640485,0.28,-0.0037230621989216145,0.0,0.245692849282982,0.3,-0.013658181764185429,-0.38923106837168286,-10.0,0.28523796796798706,-0.3892310684102153,-10.0,0.9405967593193054,-0.12290374646185974,-10.0,-0.0026844663079828024,-1.393945428281613,-10.0,0.6314088702201843,-2.0696722318088168,-10.0,-0.09855826199054718,0.0,2.139921202808619
2.3000000000000016,0.2654951387640485,0.28,-0.0037230621989216145,0.0,0.245692849282982,0.3,-0.013658181764185429,-0.3892312081745221,-10.0,0.28523796796798706,-0.3892312082170045,-10.0,0.9405967593193054,-0.12290392264058403,-10.0,-0.0026844663079828024,-1.3939468590020927,-10.0,0.6314088702201843,-2.0696712504740096,-10.0,-0.09855826199054718,0.0,2.14189236804843
2.3200000000000016,0.2654951387640485,0.28,-0.0037230621989216145,0.0,0.245692849282982,0.3,-0.013658181764185429,-0.3892313351857306,-10.0,0.28523796796798706,-0.3892313352216156,-10.0,0.9405967593193054,-0.12290408172921512,-10.0,-0.0026844663079828024,-1.3939481605725719,-10.0,0.6314088702201843,-2.0696703590236707,-10.0,-0.09855826199054718,0.0,2.1438635332882408
2.3400000000000016,0.2654951387640485,0.28,-0.0037230621989216145,0.0,0.245692849282982,0.3,-0.013658181764185429,-0.38923145057512054,-10.0,0.28523796796798706,-0.3892314506099869,-10.0,0.9405967593193054,-0.12290422540570245,-10.0,-0.0026844663079828024,-1.3939493446837428,-10.0,0.6314088702201843,-2.0696695491783474,-10.0,-0.09855826199054718,0.0,2.1458346985280516
2.3600000000000017,0.2654951387640485,0.28,-0.0037230621989216145,0.0,0.245692849282982,0.3,-0.013658181764185429,-0.38923155541506266,-10.0,0.28523796796798706,-0.38923155544888305,-10.0,0.9405967593193054,-0.12290435518199536,-10.0,-0.0026844663079828024,-1.393950421973085,-10.0,0.6314088702201843,-2.069668813420212,-10.0,-0.09855826199054718,0.0,2.1478058637678625
2.3800000000000017,0.26578589441979555,0.28,-0.0033093098086539683,0.0,0.24686458485572849,0.3,-0.011976554989814758,-0.3892316506718159,-10.0,0.2835199236869812,-0.38923165070983606,-10.0,0.9440520405769348,-0.12290447241834193,-10.0,-0.003451456781476736,-1.3939514020945076,-10.0,0.6372411847114563,-2.0696681449399135,-10.0,-0.09836652129888535,0.0,2.1664827658981087
2.4000000000000017,0.26578589441979555,0.28,-0.0033093098086539683,0.0,0.24686458485572849,0.3,-0.011976554989814758,-0.38923173723147886,-10.0,0.2835199236869812,-0.3892317372683512,-10.0,0.9440520405769348,-0.12290457834167753,-10.0,-0.003451456781476736,-1.3939522938412796,-10.0,0.6372411847114563,-2.0696675375472213,-10.0,-0.09836652129888535,0.0,2.1684500963240865
2.4200000000000017,0.26578589441979555,0.28,-0.0033093098086539683,0.0,0.24686458485572849,0.3,-0.011976554989814758,-0.3892318158952652,-10.0,0.2835199236869812,-0.3892318159205375,-10.0,0.9440520405769348,-0.12290467405669335,-10.0,-0.003451456781476736,-1.3939531052023917,-10.0,0.6372411847114563,-2.0696669856301986,-10.0,-0.09836652129888535,0.0,2.170417426750064
2.4400000000000017,0.26578589441979555,0.28,-0.0033093098086539683,0.0,0.24686458485572849,0.3,-0.011976554989814758,-0.3892318873743432,-10.0,0.2835199236869812,-0.3892318874041803,-10.0,0.9440520405769348,-0.12290476055842665,-10.0,-0.003451456781476736,-1.3939538434384255,-10.0,0.6372411847114563,-2.0696664840987387,-10.0,-0.09836652129888535,0.0,2.172384757176042
2.4600000000000017,0.26578589441979555,0.28,-0.0033093098086539683,0.0,0.24686458485572849,0.3,-0.011976554989814758,-0.38923195233720703,-10.0,0.2835199236869812,-0.3892319523661996,-10.0,0.9440520405769348,-0.12290483874387258,-10.0,-0.003451456781476736,-1.3939545151516544,-10.0,0.6372411847114563,-2.069666028331812,-10.0,-0.09836652129888535,0.0,2.1743520876020197
2.4800000000000018,0.26906676389701195,0.28,-0.001290881169023718,0.0,0.2511853508469945,0.3,-0.004369927570223808,-0.3892320113735115,-10.0,0.28694644570350647,-0.389232011412186,-10.0,0.9690118432044983,-0.12290490942207315,-10.0,-0.003067961661145091,-1.393955126353519,-10.0,0.6598514318466187,-2.0696656141311816,-10.0,-0.09433981776237488,0.0,1.9108053322136405
2.5000000000000018,0.26906676389701195,0.28,-0.001290881169023718,0.0,0.2511853508469945,0.3,-0.004369927570223808,-0.3892320650364002,-10.0,0.28694644570350647,-0.38923206507391445,-10.0,0.9690118432044983,-0.12290497332239003,-10.0,-0.003067961661145091,-1.3939556825085897,-10.0,0.6598514318466187,-2.069665237686171,-10.0,-0.09433981776237488,0.0,1.912692128568888
2.520000000000002,0.26906676389701195,0.28,-0.001290881169023718,0.0,0.2511853508469945,0.3,-0.004369927570223808,-0.3892321138130424,-10.0,0.28694644570350647,-0.38923211384943124,-10.0,0.9690118432044983,-0.12290503110256307,-10.0,-0.003067961661145091,-1.3939561885890848,-10.0,0.6598514318466187,-2.069664895536668,-10.0,-0.09433981776237488,0.0,1.9145789249241356
2.540000000000002,0.26906676389701195,0.28,-0.001290881169023718,0.0,0.2511853508469945,0.3,-0.004369927570223808,-0.3892321581495289,-10.0,0.28694644570350647,-0.3892321581848767,-10.0,0.9690118432044983,-0.12290508335459026,-10.0,-0.003067961661145091,-1.3939566491048303,-10.0,0.6598514318466187,-2.0696645845498494,-10.0,-0.09433981776237488,0.0,1.916465721279383
2.560000000000002,0.26906676389701195,0.28,-0.001290881169023718,0.0,0.2511853508469945,0.3,-0.004369927570223808,-0.38923219845324364,-10.0,0.28694644570350647,-0.3892321984875817,-10.0,0.9690118432044983,-0.12290513061473504,-10.0,-0.003067961661145091,-1.3939570681805702,-10.0,0.6598514318466187,-2.069664301864265,-10.0,-0.09433981776237488,0.0,1.9183525176346305
2.580000000000002,0.269732836402418,0.28,-0.001243739401669943,0.0,0.25336960238536105,0.3,-0.004400607198476791,-0.38923223508871435,-10.0,0.2834470570087433,-0.38923223512724386,-10.0,0.9748812317848206,-0.12290517336381668,-10.0,-0.0015339808305725455,-1.3939574495413694,-10.0,0.6659234166145325,-2.069664044903029,-10.0,-0.09357282519340515,0.0,2.0692392182350163
2.600000000000002,0.269732836402418,0.28,-0.001243739401669943,0.0,0.25336960238536105,0.3,-0.004400607198476791,-0.38923226839383945,-10.0,0.2834470570087433,-0.3892322684364274,-10.0,0.9748812317848206,-0.12290521203779284,-10.0,-0.0015339808305725455,-1.3939577965894265,-10.0,0.6659234166145325,-2.069663811311036,-10.0,-0.09357282519340515,0.0,2.0711106747388843
2.620000000000002,0.269732836402418,0.28,-0.001243739401669943,0.0,0.25336960238536105,0.3,-0.004400607198476791,-0.3892322986779813,-10.0,0.2834470570087433,-0.38923229871396875,-10.0,0.9748812317848206,-0.12290524702938106,-10.0,-0.0015339808305725455,-1.3939581124208833,-10.0,0.6659234166145325,-2.0696635989537184,-10.0,-0.09357282519340515,0.0,2.0729821312427523
2.640000000000002,0.269732836402418,0.28,-0.001243739401669943,0.0,0.25336960238536105,0.3,-0.004400607198476791,-0.3892323262065941,-10.0,0.2834470570087433,-0.3892323262467741,-10.0,0.9748812317848206,-0.12290527869310523,-10.0,-0.0015339808305725455,-1.393958399849536,-10.0,0.6659234166145325,-2.0696634058920416,-10.0,-0.09357282519340515,0.0,2.0748535877466203
2.660000000000002,0.269732836402418,0.28,-0.001243739401669943,0.0,0.25336960238536105,0.3,-0.004400607198476791,-0.3892323512412027,-10.0,0.2834470570087433,-0.38923235127491235,-10.0,0.9748812317848206,-0.12290530734894965,-10.0,-0.0015339808305725455,-1.3939586614342312,-10.0,0.6659234166145325,-2.069663230365057,-10.0,-0.09357282519340515,0.0,2.0767250442504888
2.680000000000002,0.2694052309733742,0.28,-0.00041692890942390543,0.0,0.2544805805285011,0.3,-0.0011408982099965215,-0.38923237399893656,-10.0,0.2799227237701416,-0.38923237403690714,-10.0,0.9756827354431152,-0.1229053332856134,-10.0,-0.0028762139845639467,-1.3939588995043253,-10.0,0.6729542016983032,-2.0696630707742,-10.0,-0.09357282519340515,0.0,2.1196852718293577
2.700000000000002,0.2694052309733742,0.28,-0.00041692890942390543,0.0,0.2544805805285011,0.3,-0.0011408982099965215,-0.3892323946948367,-10.0,0.2799227237701416,-0.389232394731661,-10.0,0.9756827354431152,-0.12290535676396139,-10.0,-0.0028762139845639467,-1.3939591161776703,-10.0,0.6729542016983032,-2.069662925666177,-10.0,-0.09357282519340515,0.0,2.121556728333226
2.720000000000002,0.2694052309733742,0.28,-0.00041692890942390543,0.0,0.2544805805285011,0.3,-0.0011408982099965215,-0.38923241351917065,-10.0,0.2799227237701416,-0.3892324135442951,-10.0,0.9756827354431152,-0.12290537801915602,-10.0,-0.0028762139845639467,-1.393959313377328,-10.0,0.6729542016983032,-2.0696627937236522,-10.0,-0.09357282519340515,0.0,2.123428184837094
2.740000000000002,0.2694052309733742,0.28,-0.00041692890942390543,0.0,0.2544805805285011,0.3,-0.0011408982099965215,-0.38923243063221197,-10.0,0.2799227237701416,-0.38923243065653207,-10.0,0.9756827354431152,-0.1229053972640392,-10.0,-0.0028762139845639467,-1.3939594928582113,-10.0,0.6729542016983032,-2.0696626737464965,-10.0,-0.09357282519340515,0.0,2.125299641340962
2.760000000000002,0.2694052309733742,0.28,-0.00041692890942390543,0.0,0.2544805805285011,0.3,-0.0011408982099965215,-0.38923244619176284,-10.0,0.2799227237701416,-0.3892324462206255,-10.0,0.9756827354431152,-0.12290541469049274,-10.0,-0.0028762139845639467,-1.393959656213974,-10.0,0.6729542016983032,-2.0696625646469253,-10.0,-0.09357282519340515,0.0,2.12717109784483
2.780000000000002,0.2710418871171411,0.28,-0.0002717556712922157,0.0,0.2583815210015344,0.3,-0.0008149272762238979,-0.3892324603476622,-10.0,0.2775067090988159,-0.38923246037034337,-10.0,0.990894079208374,-0.12290543047297008,-10.0,-0.0013422331539914012,-1.3939598049014512,-10.0,0.6899718046188354,-2.0696624654289293,-10.0,-0.09357282519340515,0.0,2.1290425543486986
2.800000000000002,0.2710418871171411,0.28,-0.0002717556712922157,0.0,0.2583815210015344,0.3,-0.0008149272762238979,-0.38923247321902,-10.0,0.2775067090988159,-0.3892324732410207,-10.0,0.990894079208374,-0.12290544476723993,-10.0,-0.0013422331539914012,-1.3939599402334766,-10.0,0.6899718046188354,-2.069662375200559,-10.0,-0.09357282519340515,0.0,2.1309140108525666
2.820000000000002,0.2710418871171411,0.28,-0.0002717556712922157,0.0,0.2583815210015344,0.3,-0.0008149272762238979,-0.3892324849250087,-10.0,0.2775067090988159,-0.38923248494634943,-10.0,0.990894079208374,-0.1229054577149356,-10.0,-0.0013422331539914012,-1.3939600634107965,-10.0,0.6899718046188354,-2.0696622931450985,-10.0,-0.09357282519340515,0.0,2.1327854673564346
2.840000000000002,0.2710418871171411,0.28,-0.0002717556712922157,0.0,0.2583815210015344,0.3,-0.0008149272762238979,-0.3892324955721856,-10.0,0.2775067090988159,-0.3892324955928933,-10.0,0.990894079208374,-0.1229054694448433,-10.0,-0.0013422331539914012,-1.3939601755342417,-10.0,0.6899718046188354,-2.0696622185145204,-10.0,-0.09357282519340515,0.0,2.1346569238603026
2.860000000000002,0.2710418871171411,0.28,-0.0002717556712922157,0.0,0.2583815210015344,0.3,-0.0008149272762238979,-0.3892325052565724,-10.0,0.2775067090988159,-0.38923250527665887,-10.0,0.990894079208374,-0.1229054800725905,-10.0,-0.0013422331539914012,-1.3939602775957547,-10.0,0.6899718046188354,-2.069662150635065,-10.0,-0.09357282519340515,0.0,2.136528380364171
2.880000000000002,0.2707020411032107,0.28,0.00022914549113496916,0.0,0.2586319848274369,0.3,0.0012885438045486808,-0.38923251406757237,-10.0,0.27543583512306213,-0.3892325140817334,-10.0,0.9894636273384094,-0.12290548970209879,-10.0,-0.003067961661145091,-1.393960370494422,-10.0,0.6908506155014038,-2.0696620888984922,-10.0,-0.09357282519340515,0.0,2.138399836868039
2.900000000000002,0.2707020411032107,0.28,0.00022914549113496916,0.0,0.2586319848274369,0.3,0.0012885438045486808,-0.3892325220796651,-10.0,0.27543583512306213,-0.38923252209335063,-10.0,0.9894636273384094,-0.12290549842844559,-10.0,-0.003067961661145091,-1.3939604550562605,-10.0,0.6908506155014038,-2.069662032744174,-10.0,-0.09357282519340515,0.0,2.140271293371907
2.920000000000002,0.2707020411032107,0.28,0.00022914549113496916,0.0,0.2586319848274369,0.3,0.0012885438045486808,-0.3892325293704996,-10.0,0.27543583512306213,-0.3892325293785024,-10.0,0.9894636273384094,-0.1229055063370932,-10.0,-0.003067961661145091,-1.3939605320340644,-10.0,0.6908506155014038,-2.0696619816656914,-10.0,-0.09357282519340515,0.0,2.142142749875775
2.940000000000002,0.2707020411032107,0.28,0.00022914549113496916,0.0,0.2586319848274369,0.3,0.0012885438045486808,-0.3892325360052007,-10.0,0.27543583512306213,-0.3892325360024696,-10.0,0.9894636273384094,-0.12290551350516056,-10.0,-0.003067961661145091,-1.3939606021027597,-10.0,0.6908506155014038,-2.069661935204679,-10.0,-0.09357282519340515,0.0,2.1440142063796435
2.960000000000002,0.2707020411032107,0.28,0.00022914549113496916,0.0,0.2586319848274369,0.3,0.0012885438045486808,-0.38923254203586083,-10.0,0.27543583512306213,-0.38923254203321167,-10.0,0.9894636273384094,-0.12290552000289184,-10.0,-0.003067961661145091,-1.3939606658872166,-10.0,0.6908506155014038,-2.069661892940434,-10.0,-0.09357282519340515,0.0,2.1458856628835115
2.980000000000002,0.2724739322803541,0.28,0.00026601640005910704,0.0,0.2638472308613392,0.3,0.0013134710025042295,-0.389232547521589,-10.0,0.27179455757141113,-0.38923254751896863,-10.0,1.0090564489364624,-0.1229055258929975,-10.0,-0.0023009711876511574,-1.39396072394639,-10.0,0.7163370847702026,-2.0696618544966303,-10.0,-0.09338107705116272,0.0,2.12337393604219
3.000000000000002,0.2724739322803541,0.28,0.00026601640005910704,0.0,0.2638472308613392,0.3,0.0013134710025042295,-0.3892325525147763,-10.0,0.27179455757141113,-0.38923255250691174,-10.0,1.0090564489364624,-0.12290553123317167,-10.0,-0.0023009711876511574,-1.3939607767992104,-10.0,0.7163370847702026,-2.069661819524222,-10.0,-0.09338107705116272,0.0,2.1252415575832133
3.0200000000000022,0.2724739322803541,0.28,0.00026601640005910704,0.0,0.2638472308613392,0.3,0.0013134710025042295,-0.38923255705971865,-10.0,0.27179455757141113,-0.38923255704154563,-10.0,1.0090564489364624,-0.12290553607479857,-10.0,-0.0023009711876511574,-1.393960824908654,-10.0,0.7163370847702026,-2.0696617877118566,-10.0,-0.09338107705116272,0.0,2.1271091791242367
3.0400000000000023,0.2724739322803541,0.28,0.00026601640005910704,0.0,0.2638472308613392,0.3,0.0013134710025042295,-0.38923256119018074,-10.0,0.27179455757141113,-0.3892325611726108,-10.0,1.0090564489364624,-0.12290554046578131,-10.0,-0.0023009711876511574,-1.39396086870998,-10.0,0.7163370847702026,-2.069661758766287,-10.0,-0.09338107705116272,0.0,2.1289768006652596
3.0600000000000023,0.2724739322803541,0.28,0.00026601640005910704,0.0,0.2638472308613392,0.3,0.0013134710025042295,-0.38923256494549274,-10.0,0.27179455757141113,-0.38923256493377273,-10.0,1.0090564489364624,-0.12290554444793195,-10.0,-0.0023009711876511574,-1.3939609085853433,-10.0,0.7163370847702026,-2.0696617324319755,-10.0,-0.09338107705116272,0.0,2.130844422206283
3.0800000000000023,0.27354443082198665,0.28,0.00024591243974672573,0.0,0.2673088948201044,0.3,0.0012693691533058882,-0.38923256835966086,-10.0,0.26847347617149353,-0.38923256835883685,-10.0,1.0207760334014893,-0.12290554805983245,-10.0,-0.0024927188642323017,-1.3939609448897343,-10.0,0.7300789952278137,-2.069661708471197,-10.0,-0.09338107705116272,0.0,2.153256429284802
3.1000000000000023,0.27354443082198665,0.28,0.00024591243974672573,0.0,0.2673088948201044,0.3,0.0012693691533058882,-0.3892325714709853,-10.0,0.26847347617149353,-0.389232571470186,-10.0,1.0207760334014893,-0.12290555133600398,-10.0,-0.0024927188642323017,-1.3939609779396998,-10.0,0.7300789952278137,-2.069661686670985,-10.0,-0.09338107705116272,0.0,2.1551240508258256
3.1200000000000023,0.27354443082198665,0.28,0.00024591243974672573,0.0,0.2673088948201044,0.3,0.0012693691533058882,-0.3892325743042184,-10.0,0.26847347617149353,-0.3892325742980624,-10.0,1.0207760334014893,-0.1229055543075094,-10.0,-0.0024927188642323017,-1.3939610080243723,-10.0,0.7300789952278137,-2.0696616668388033,-10.0,-0.09338107705116272,0.0,2.156991672366849
3.1400000000000023,0.27354443082198665,0.28,0.00024591243974672573,0.0,0.2673088948201044,0.3,0.0012693691533058882,-0.38923257687714696,-10.0,0.26847347617149353,-0.3892325768763972,-10.0,1.0207760334014893,-0.12290555700340361,-10.0,-0.0024927188642323017,-1.3939610354143233,-10.0,0.7300789952278137,-2.0696616487930397,-10.0,-0.09338107705116272,0.0,2.1588592939078723
3.1600000000000024,0.27354443082198665,0.28,0.00024591243974672573,0.0,0.2673088948201044,0.3,0.0012693691533058882,-0.38923257921767995,-10.0,0.26847347617149353,-0.3892325792223334,-10.0,1.0207760334014893,-0.12290555944890158,-10.0,-0.0024927188642323017,-1.3939610603468624,-10.0,0.7300789952278137,-2.069661632376261,-10.0,-0.09338107705116272,0.0,2.1607269154488953
3.1800000000000024,0.2735284154114252,0.28,-0.0007091908819014995,0.0,0.268217900338518,0.3,-0.0021034711971879005,-0.38923258135021943,-10.0,0.26637575030326843,-0.3892325813548418,-10.0,1.02231764793396,-0.12290556166814798,-10.0,-0.0032597091048955917,-1.3939610830490514,-10.0,0.7336742281913757,-2.0696616174360023,-10.0,-0.09338107705116272,0.0,2.1625945369899187
3.2000000000000024,0.2735284154114252,0.28,-0.0007091908819014995,0.0,0.268217900338518,0.3,-0.0021034711971879005,-0.38923258329059945,-10.0,0.26637575030326843,-0.38923258329502525,-10.0,1.02231764793396,-0.1229055636816918,-10.0,-0.0032597091048955917,-1.3939611037156532,-10.0,0.7336742281913757,-2.0696616038430093,-10.0,-0.09338107705116272,0.0,2.164462158530942
3.2200000000000024,0.2735284154114252,0.28,-0.0007091908819014995,0.0,0.268217900338518,0.3,-0.0021034711971879005,-0.3892325850559564,-10.0,0.26637575030326843,-0.38923258506035796,-10.0,1.02231764793396,-0.12290556550873634,-10.0,-0.0032597091048955917,-1.3939611225275899,-10.0,0.7336742281913757,-2.0696615914757266,-10.0,-0.09338107705116272,0.0,2.1663297800719654
3.2400000000000024,0.2735284154114252,0.28,-0.0007091908819014995,0.0,0.268217900338518,0.3,-0.0021034711971879005,-0.3892325866678737,-10.0,0.26637575030326843,-0.38923258666154814,-10.0,1.02231764793396,-0.1229055671669256,-10.0,-0.0032597091048955917,-1.3939611396568647,-10.0,0.7336742281913757,-2.0696615802214446,-10.0,-0.09338107705116272,0.0,2.1681974016129884
3.2600000000000025,0.2735284154114252,0.28,-0.0007091908819014995,0.0,0.268217900338518,0.3,-0.0021034711971879005,-0.389232588130399,-10.0,0.26637575030326843,-0.38923258812420536,-10.0,1.02231764793396,-0.1229055686725695,-10.0,-0.0032597091048955917,-1.3939611552578521,-10.0,0.7336742281913757,-2.069661569975568,-10.0,-0.09338107705116272,0.0,2.1700650231540117
3.2800000000000025,0.27464733936690483,0.28,-0.0008243407261838565,0.0,0.2728420953256235,0.3,-0.0024141022004187107,-0.38923258946354433,-10.0,0.2614363431930542,-0.3892325894522643,-10.0,1.0371800661087036,-0.12290557003886252,-10.0,-0.003834951901808381,-1.3939611694573557,-10.0,0.7531685829162598,-2.069661560654513,-10.0,-0.09338107705116272,0.0,2.171932644695035
3.3000000000000025,0.27464733936690483,0.28,-0.0008243407261838565,0.0,0.2728420953256235,0.3,-0.0024141022004187107,-0.3892325906739235,-10.0,0.2614363431930542,-0.38923259066303256,-10.0,1.0371800661087036,-0.12290557127876352,-10.0,-0.003834951901808381,-1.3939611823823697,-10.0,0.7531685829162598,-2.069661552174682,-10.0,-0.09338107705116272,0.0,2.1738002662360585
3.3200000000000025,0.27464733936690483,0.28,-0.0008243407261838565,0.0,0.2728420953256235,0.3,-0.0024141022004187107,-0.3892325917758178,-10.0,0.2614363431930542,-0.3892325917652536,-10.0,1.0371800661087036,-0.12290557240473977,-10.0,-0.003834951901808381,-1.3939611941536356,-10.0,0.7531685829162598,-2.069661544455041,-10.0,-0.09338107705116272,0.0,2.1756678877770814
3.3400000000000025,0.27464733936690483,0.28,-0.0008243407261838565,0.0,0.2728420953256235,0.3,-0.0024141022004187107,-0.38923259277898337,-10.0,0.2614363431930542,-0.38923259276879396,-10.0,1.0371800661087036,-0.12290557342732737,-10.0,-0.003834951901808381,-1.3939612048757808,-10.0,0.7531685829162598,-2.0696615374271454,-10.0,-0.09338107705116272,0.0,2.177535509318105
3.3600000000000025,0.27464733936690483,0.28,-0.0008243407261838565,0.0,0.2728420953256235,0.3,-0.0024141022004187107,-0.3892325936916326,-10.0,0.2614363431930542,-0.38923259368164037,-10.0,1.0371800661087036,-0.12290557435543775,-10.0,-0.003834951901808381,-1.3939612146334377,-10.0,0.7531685829162598,-2.0696615310337636,-10.0,-0.09338107705116272,0.0,2.179403130859128
3.3800000000000026,0.2748923452399431,0.28,-0.0007591457687912331,0.0,0.27441944151177733,0.3,-0.0022012623958289623,-0.3892325945273497,-10.0,0.2589896321296692,-0.3892325945070622,-10.0,1.0412700176239014,-0.12290557519800901,-10.0,-0.0036432044580578804,-1.3939612235165935,-10.0,0.7587612271308899,-2.069661525216309,-10.0,-0.09338107705116272,0.0,2.1812707524001516
3.4000000000000026,0.2748923452399431,0.28,-0.0007591457687912331,0.0,0.27441944151177733,0.3,-0.0022012623958289623,-0.3892325952829314,-10.0,0.2589896321296692,-0.3892325952633032,-10.0,1.0412700176239014,-0.12290557596311064,-10.0,-0.0036432044580578804,-1.3939612316042809,-10.0,0.7587612271308899,-2.0696615199218606,-10.0,-0.09338107705116272,0.0,2.1831383739411745
3.4200000000000026,0.2748923452399431,0.28,-0.0007591457687912331,0.0,0.27441944151177733,0.3,-0.0022012623958289623,-0.3892325959708476,-10.0,0.2589896321296692,-0.3892325959518661,-10.0,1.0412700176239014,-0.12290557665814694,-10.0,-0.0036432044580578804,-1.3939612389710503,-10.0,0.7587612271308899,-2.0696615151015596,-10.0,-0.09338107705116272,0.0,2.185005995482198
3.4400000000000026,0.2748923452399431,0.28,-0.0007591457687912331,0.0,0.27441944151177733,0.3,-0.0022012623958289623,-0.38923259659691195,-10.0,0.2589896321296692,-0.38923259657855774,-10.0,1.0412700176239014,-0.12290557728939946,-10.0,-0.0036432044580578804,-1.3939612456775456,-10.0,0.7587612271308899,-2.06966151071427,-10.0,-0.09338107705116272,0.0,2.1868736170232213
3.4600000000000026,0.2748923452399431,0.28,-0.0007591457687912331,0.0,0.27441944151177733,0.3,-0.0022012623958289623,-0.389232597169278,-10.0,0.2589896321296692,-0.3892325971462022,-10.0,1.0412700176239014,-0.12290557786262528,-10.0,-0.0036432044580578804,-1.3939612517827005,-10.0,0.7587612271308899,-2.069661506721921,-10.0,-0.09338107705116272,0.0,2.1887412385642446
3.4800000000000026,0.27569741178889506,0.28,-0.0007646461986243071,0.0,0.27802196920559846,0.3,-0.0022357769776135683,-0.38923259769032353,-10.0,0.25552859902381897,-0.3892325976626099,-10.0,1.0531833171844482,-0.12290557838318691,-10.0,-0.003451456781476736,-1.3939612573410678,-10.0,0.7747402191162109,-2.0696615030888945,-10.0,-0.09338107705116272,0.0,2.1906088601052676
3.5000000000000027,0.27569741178889506,0.28,-0.0007646461986243071,0.0,0.27802196920559846,0.3,-0.0022357769776135683,-0.3892325981622315,-10.0,0.25552859902381897,-0.38923259813529143,-10.0,1.0531833171844482,-0.12290557885616078,-10.0,-0.003451456781476736,-1.3939612624036763,-10.0,0.7747402191162109,-2.0696614997812417,-10.0,-0.09338107705116272,0.0,2.192476481646291
3.5200000000000027,0.27569741178889506,0.28,-0.0007646461986243071,0.0,0.27802196920559846,0.3,-0.0022357769776135683,-0.3892325985911485,-10.0,0.25552859902381897,-0.3892325985649588,-10.0,1.0531833171844482,-0.12290557928523642,-10.0,-0.003451456781476736,-1.3939612670071422,-10.0,0.7747402191162109,-2.069661496774826,-10.0,-0.09338107705116272,0.0,2.1943441031873143
3.5400000000000027,0.27569741178889506,0.28,-0.0007646461986243071,0.0,0.27802196920559846,0.3,-0.0022357769776135683,-0.38923259898207846,-10.0,0.25552859902381897,-0.3892325989566238,-10.0,1.0531833171844482,-0.12290557967553678,-10.0,-0.003451456781476736,-1.39396127120469,-10.0,0.7747402191162109,-2.0696614940346403,-10.0,-0.09338107705116272,0.0,2.1962117247283377
3.5600000000000027,0.27569741178889506,0.28,-0.0007646461986243071,0.0,0.27802196920559846,0.3,-0.0022357769776135683,-0.3892325993376862,-10.0,0.25552859902381897,-0.3892325993131037,-10.0,1.0531833171844482,-0.12290558003002401,-10.0,-0.003451456781476736,-1.3939612750251655,-10.0,0.7747402191162109,-2.0696614915411886,-10.0,-0.09338107705116272,0.0,2.1980793462693606
3.5800000000000027,0.2777040235462375,0.28,-0.0007590279672916138,0.0,0.2792120169485181,0.3,-0.0021974274422973394,-0.38923259966423557,-10.0,0.26165494322776794,-0.3892325996351256,-10.0,1.0660035610198975,-0.12290558035230362,-10.0,-0.003451456781476736,-1.3939612785055726,-10.0,0.7785751223564148,-2.069661489270119,-10.0,-0.09338107705116272,0.0,2.199946967810384
3.6000000000000028,0.2777040235462375,0.28,-0.0007590279672916138,0.0,0.2792120169485181,0.3,-0.0021974274422973394,-0.3892325999613105,-10.0,0.26165494322776794,-0.38923259992780884,-10.0,1.0660035610198975,-0.12290558064488526,-10.0,-0.003451456781476736,-1.393961281671015,-10.0,0.7785751223564148,-2.0696614872047636,-10.0,-0.09338107705116272,0.0,2.2018145893514074
3.6200000000000028,0.2777040235462375,0.28,-0.0007590279672916138,0.0,0.2792120169485181,0.3,-0.0021974274422973394,-0.38923260022984124,-10.0,0.26165494322776794,-0.3892326001973446,-10.0,1.0660035610198975,-0.12290558091126814,-10.0,-0.003451456781476736,-1.3939612845604357,-10.0,0.7785751223564148,-2.069661485320719,-10.0,-0.09338107705116272,0.0,2.2036822108924308
3.640000000000003,0.2777040235462375,0.28,-0.0007590279672916138,0.0,0.2792120169485181,0.3,-0.0021974274422973394,-0.3892326004739994,-10.0,0.26165494322776794,-0.38923260044247765,-10.0,1.0660035610198975,-0.12290558115307976,-10.0,-0.003451456781476736,-1.3939612871890183,-10.0,0.7785751223564148,-2.0696614836075478,-10.0,-0.09338107705116272,0.0,2.2055498324334537
3.660000000000003,0.2777040235462375,0.28,-0.0007590279672916138,0.0,0.2792120169485181,0.3,-0.0021974274422973394,-0.38923260069632415,-10.0,0.26165494322776794,-0.3892326006657481,-10.0,1.0660035610198975,-0.12290558137294204,-10.0,-0.003451456781476736,-1.3939612895830795,-10.0,0.7785751223564148,-2.0696614820472625,-10.0,-0.09338107705116272,0.0,2.207417453974477
3.680000000000003,0.27795408110253006,0.28,-0.0007334011668529105,0.0,0.2817658036713049,0.3,-0.0020037624053657055,-0.38923260089330797,-10.0,0.25868093967437744,-0.3892326008742949,-10.0,1.0737271308898926,-0.12290558157267455,-10.0,-0.004026699345558882,-1.3939612917630761,-10.0,0.7921572923660278,-2.0696614806274622,-10.0,-0.09338107705116272,0.0,2.2092850755155005
3.700000000000003,0.27795408110253006,0.28,-0.0007334011668529105,0.0,0.2817658036713049,0.3,-0.0020037624053657055,-0.38923260108018504,-10.0,0.25868093967437744,-0.38923260105641955,-10.0,1.0737271308898926,-0.12290558175416073,-10.0,-0.004026699345558882,-1.393961293746453,-10.0,0.7921572923660278,-2.069661479335332,-10.0,-0.09338107705116272,0.0,2.211152697056524
3.720000000000003,0.27795408110253006,0.28,-0.0007334011668529105,0.0,0.2817658036713049,0.3,-0.0020037624053657055,-0.38923260124533765,-10.0,0.25868093967437744,-0.3892326012275067,-10.0,1.0737271308898926,-0.12290558191926947,-10.0,-0.004026699345558882,-1.3939612955546536,-10.0,0.7921572923660278,-2.069661478157942,-10.0,-0.09338107705116272,0.0,2.2130203185975468
3.740000000000003,0.27795408110253006,0.28,-0.0007334011668529105,0.0,0.2817658036713049,0.3,-0.0020037624053657055,-0.3892326013977738,-10.0,0.25868093967437744,-0.38923260138047777,-10.0,1.0737271308898926,-0.12290558206899944,-10.0,-0.004026699345558882,-1.393961297197336,-10.0,0.7921572923660278,-2.0696614770886343,-10.0,-0.09338107705116272,0.0,2.21488794013857
3.760000000000003,0.27795408110253006,0.28,-0.0007334011668529105,0.0,0.2817658036713049,0.3,-0.0020037624053657055,-0.38923260153422257,-10.0,0.25868093967437744,-0.3892326015226091,-10.0,1.0737271308898926,-0.12290558220527822,-10.0,-0.004026699345558882,-1.393961298697367,-10.0,0.7921572923660278,-2.0696614761137027,-10.0,-0.09338107705116272,0.0,2.2167555616795935
3.780000000000003,0.2772429408304573,0.28,-0.000634531261472797,0.0,0.28388025038888803,0.3,-0.0017103885766118765,-0.38923260165794427,-10.0,0.2508518695831299,-0.3892326016520093,-10.0,1.0735065937042236,-0.1229055823290073,-10.0,-0.0036432044580578804,-1.3939613000593278,-10.0,0.7980694770812988,-2.069661475227453,-10.0,-0.09338107705116272,0.0,2.218623183220617
3.800000000000003,0.2772429408304573,0.28,-0.000634531261472797,0.0,0.28388025038888803,0.3,-0.0017103885766118765,-0.38923260177338853,-10.0,0.2508518695831299,-0.3892326017676822,-10.0,1.0735065937042236,-0.12290558244180665,-10.0,-0.0036432044580578804,-1.3939613013034613,-10.0,0.7980694770812988,-2.0696614744182065,-10.0,-0.09338107705116272,0.0,2.22049080476164
3.820000000000003,0.2772429408304573,0.28,-0.000634531261472797,0.0,0.28388025038888803,0.3,-0.0017103885766118765,-0.389232601878425,-10.0,0.2508518695831299,-0.3892326018728899,-10.0,1.0735065937042236,-0.12290558254423217,-10.0,-0.0036432044580578804,-1.3939613024361854,-10.0,0.7980694770812988,-2.069661473682305,-10.0,-0.09338107705116272,0.0,2.2223584263026632
3.840000000000003,0.2772429408304573,0.28,-0.000634531261472797,0.0,0.28388025038888803,0.3,-0.0017103885766118765,-0.38923260197362886,-10.0,0.2508518695831299,-0.3892326019683104,-10.0,1.0735065937042236,-0.12290558263695384,-10.0,-0.0036432044580578804,-1.3939613034632625,-10.0,0.7980694770812988,-2.069661473015213,-10.0,-0.09338107705116272,0.0,2.2242260478436866
3.860000000000003,0.2772429408304573,0.28,-0.000634531261472797,0.0,0.28388025038888803,0.3,-0.0017103885766118765,-0.38923260205730287,-10.0,0.2508518695831299,-0.3892326020574668,-10.0,1.0735065937042236,-0.12290558272095224,-10.0,-0.0036432044580578804,-1.3939613043943622,-10.0,0.7980694770812988,-2.0696614724102025,-10.0,-0.09338107705116272,0.0,2.22609366938471
3.880000000000003,0.27766845882689856,0.28,-0.0006307107555144147,0.0,0.28580484483078616,0.3,-0.0015953399706631899,-0.38923260213653693,-10.0,0.24951539933681488,-0.38923260213669597,-10.0,1.080384612083435,-0.12290558279786903,-10.0,-0.004218447022140026,-1.3939613052482422,-10.0,0.8071774840354919,-2.069661471855416,-10.0,-0.09338107705116272,0.0,2.227961290925733
3.900000000000003,0.27766845882689856,0.28,-0.0006307107555144147,0.0,0.28580484483078616,0.3,-0.0015953399706631899,-0.38923260220881045,-10.0,0.24951539933681488,-0.38923260220901534,-10.0,1.080384612083435,-0.12290558286794817,-10.0,-0.004218447022140026,-1.393961306027467,-10.0,0.8071774840354919,-2.0696614713492423,-10.0,-0.09338107705116272,0.0,2.2298289124667563
3.920000000000003,0.27766845882689856,0.28,-0.0006307107555144147,0.0,0.28580484483078616,0.3,-0.0015953399706631899,-0.38923260227433576,-10.0,0.24951539933681488,-0.38923260227454176,-10.0,1.080384612083435,-0.12290558293136314,-10.0,-0.004218447022140026,-1.3939613067343,-10.0,0.8071774840354919,-2.069661470890587,-10.0,-0.09338107705116272,0.0,2.2316965340077797
3.940000000000003,0.27766845882689856,0.28,-0.0006307107555144147,0.0,0.28580484483078616,0.3,-0.0015953399706631899,-0.3892326023341086,-10.0,0.24951539933681488,-0.38923260233431567,-10.0,1.080384612083435,-0.12290558298919783,-10.0,-0.004218447022140026,-1.3939613073783739,-10.0,0.8071774840354919,-2.0696614704718987,-10.0,-0.09338107705116272,0.0,2.233564155548803
3.960000000000003,0.27766845882689856,0.28,-0.0006307107555144147,0.0,0.28580484483078616,0.3,-0.0015953399706631899,-0.38923260238567947,-10.0,0.24951539933681488,-0.38923260239109464,-10.0,1.080384612083435,-0.12290558304154296,-10.0,-0.004218447022140026,-1.393961307962535,-10.0,0.8071774840354919,-2.0696614700925253,-10.0,-0.09338107705116272,0.0,2.235431777089826
3.980000000000003,0.2773212642879651,0.28,-0.0017998949643537694,0.0,0.2875274254938832,0.3,-0.005934588145464659,-0.38923260243312563,-10.0,0.24476005136966705,-0.38923260244370117,-10.0,1.0821908712387085,-0.12290558308980536,-10.0,-0.003451456781476736,-1.3939613085021358,-10.0,0.8137288689613342,-2.0696614697422073,-10.0,-0.09338107705116272,0.0,2.2372993986308494
4.000000000000003,0.2773212642879651,0.28,-0.0017998949643537694,0.0,0.2875274254938832,0.3,-0.005934588145464659,-0.38923260248360253,-10.0,0.24476005136966705,-0.3892326024832585,-10.0,1.0821908712387085,-0.12290558313314895,-10.0,-0.003451456781476736,-1.39396130898822,-10.0,0.8137288689613342,-2.0696614694272406,-10.0,-0.09338107705116272,0.0,2.2391670201718727
4.020000000000002,0.2773212642879651,0.28,-0.0017998949643537694,3.940240000000001e-07,0.2875274254938832,0.3,-0.005934588145464659,-0.3892326025221307,-10.0,0.24476005136966705,-0.38923260252701136,-10.0,1.0821908712387085,-0.12290558317275269,-10.0,-0.003451456781476736,-1.3939613094321193,-10.0,0.8137288689613342,-2.069661469139139,-10.0,-0.09338107705116272,0.0,2.241034641712896
4.040000000000002,0.2773212642879651,0.28,-0.0017998949643537694,3.1047680000000007e-06,0.2875274254938832,0.3,-0.005934588145464659,-0.3892303507030801,-10.0,0.24476005136966705,-0.38923035070776374,-10.0,1.0821908712387085,-0.12290561570401866,-10.0,-0.003451456781476736,-1.3939615827182807,-10.0,0.8137288689613342,-2.069661237678269,-10.0,-0.09338107705116272,0.0,2.242902263253919
4.060000000000001,0.2773212642879651,0.28,-0.0017998949643537694,1.0319831999999998e-05,0.2875274254938832,0.3,-0.005934588145464659,-0.3892213836541303,-10.0,0.24476005136966705,-0.3892213836639457,-10.0,1.0821908712387085,-0.12290574210456655,-10.0,-0.003451456781476736,-1.3939626552030897,-10.0,0.8137288689613342,-2.069660337688155,-10.0,-0.09338107705116272,0.0,2.2447698847949424
4.080000000000001,0.2776952420318492,0.28,-0.0018796338290755655,2.408857600000001e-05,0.2893108984569911,0.3,-0.006084151100367308,-0.38920164709916005,-10.0,0.24301132559776306,-0.38920164709814364,-10.0,1.0878973007202148,-0.12290601278069149,-10.0,-0.004218447022140026,-1.3939649736619093,-10.0,0.8201204538345337,-2.069658409005365,-10.0,-0.09338107705116272,0.0,2.246637506335966
4.1000000000000005,0.2776952420318492,0.28,-0.0018796338290755655,4.6325e-05,0.2893108984569911,0.3,-0.006084151100367308,-0.3891674449591079,-10.0,0.24301132559776306,-0.3891674449528569,-10.0,1.0878973007202148,-0.12290647041154903,-10.0,-0.004218447022140026,-1.39396891061891,-10.0,0.8201204538345337,-2.0696551466817943,-10.0,-0.09338107705116272,0.0,2.248505127876989
4.12,0.2776952420318492,0.28,-0.0018796338290755655,7.881062399999999e-05,0.2893108984569911,0.3,-0.006084151100367308,-0.3891154015071154,-10.0,0.24301132559776306,-0.3891154015010519,-10.0,1.0878973007202148,-0.12290715299981998,-10.0,-0.004218447022140026,-1.3939747654060644,-10.0,0.8201204538345337,-2.0696502805066004,-10.0,-0.09338107705116272,0.0,2.250372749418012
4.14,0.2776952420318492,0.28,-0.0018796338290755655,0.00012319736800000004,0.2893108984569911,0.3,-0.006084151100367308,-0.3890424328292751,-10.0,0.24301132559776306,-0.3890424328233935,-10.0,1.0878973007202148,-0.12290809674047712,-10.0,-0.004218447022140026,-1.393982762042141,-10.0,0.8201204538345337,-2.0696435559008672,-10.0,-0.09338107705116272,0.0,2.2522403709590355
4.159999999999999,0.2776952420318492,0.28,-0.0018796338290755655,0.00018101043200000004,0.2893108984569911,0.3,-0.006084151100367308,-0.38894572499607327,-10.0,0.24301132559776306,-0.38894572499037544,-10.0,1.0878973007202148,-0.12290933869601386,-10.0,-0.004218447022140026,-1.3939930446916518,-10.0,0.8201204538345337,-2.0696347162275224,-10.0,-0.09338107705116272,0.0,2.254107992500059
4.179999999999999,0.2782022517474766,0.28,-0.0018226307146137744,0.00025365117600000003,0.2880784774502312,0.3,-0.005994029808789492,-0.38882271705417043,-10.0,0.24888838827610016,-0.38882271704337823,-10.0,1.0896497964859009,-0.12291091926994228,-10.0,-0.003451456781476736,-1.3940056713775504,-10.0,0.8204400539398193,-2.0696234865395526,-10.0,-0.09338107705116272,0.0,2.2559756140410823
4.199999999999998,0.2782022517474766,0.28,-0.0018226307146137744,0.0003424000000000001,0.2880784774502312,0.3,-0.005994029808789492,-0.38867108743959516,-10.0,0.24888838827610016,-0.38867108742918594,-10.0,1.0896497964859009,-0.12291288446199768,-10.0,-0.003451456781476736,-1.3940206065140934,-10.0,0.8204400539398193,-2.0696095588491197,-10.0,-0.09338107705116272,0.0,2.257843235582105
4.219999999999998,0.2782022517474766,0.28,-0.0018226307146137744,0.0004484192239999999,0.2880784774502312,0.3,-0.005994029808789492,-0.3884887428670491,-10.0,0.24888838827610016,-0.38848874285701207,-10.0,1.0896497964859009,-0.12291528789055473,-10.0,-0.003451456781476736,-1.3940377127456451,-10.0,0.8204400539398193,-2.069592578989526,-10.0,-0.09338107705116272,0.0,2.2597108571231286
4.2399999999999975,0.2782022517474766,0.28,-0.0018226307146137744,0.0005727559679999999,0.2880784774502312,0.3,-0.005994029808789492,-0.38827380892733965,-10.0,0.24888838827610016,-0.38827380892288393,-10.0,1.0896497964859009,-0.12291819256568402,-10.0,-0.003451456781476736,-1.3940567425438282,-10.0,0.8204400539398193,-2.069572135156623,-10.0,-0.09338107705116272,0.0,2.261578478664152
4.259999999999997,0.2782022517474766,0.28,-0.0018226307146137744,0.0007163450320000002,0.2880784774502312,0.3,-0.005994029808789492,-0.3880246219316353,-10.0,0.24888838827610016,-0.38802462192725934,-10.0,1.0896497964859009,-0.12292167239476892,-10.0,-0.003451456781476736,-1.3940773298729756,-10.0,0.8204400539398193,-2.0695477482343234,-10.0,-0.09338107705116272,0.0,2.2634461002051753
4.279999999999997,0.2787732885710123,0.28,-0.0019669390950959463,0.0008800117760000002,0.28970542577970043,0.3,-0.006341093219816685,-0.3877397215884561,-10.0,0.24720866978168488,-0.38773972157899395,-10.0,1.0947139263153076,-0.12292581341410835,-10.0,-0.00441019469872117,-1.394098982351721,-10.0,0.822117805480957,-2.0695188639227022,-10.0,-0.09338107705116272,0.0,2.2653137217461983
4.299999999999996,0.2787732885710123,0.28,-0.0019669390950959463,0.0010644749999999998,0.28970542577970043,0.3,-0.006341093219816685,-0.38741784428217585,-10.0,0.24720866978168488,-0.3874178442729976,-10.0,1.0947139263153076,-0.12293071473001882,-10.0,-0.00441019469872117,-1.3941210741064696,-10.0,0.822117805480957,-2.069484846768184,-10.0,-0.09338107705116272,0.0,2.2671813432872217
4.319999999999996,0.2787732885710123,0.28,-0.0019669390950959463,0.0012703498240000004,0.28970542577970043,0.3,-0.006341093219816685,-0.387057916772273,-10.0,0.24720866978168488,-0.38705791676342743,-10.0,1.0947139263153076,-0.12293648917170288,-10.0,-0.00441019469872117,-1.3941428396553666,-10.0,0.822117805480957,-2.0694449760604545,-10.0,-0.09338107705116272,0.0,2.269048964828245
4.339999999999995,0.2787732885710123,0.28,-0.0019669390950959463,0.001498150568,0.28970542577970043,0.3,-0.006341093219816685,-0.3866590501337519,-10.0,0.24720866978168488,-0.3866590501252389,-10.0,1.0947139263153076,-0.1229432636432195,-10.0,-0.00441019469872117,-1.3941633689369703,-10.0,0.822117805480957,-2.069398443672931,-10.0,-0.09338107705116272,0.0,2.2709165863692684
4.359999999999995,0.2787732885710123,0.28,-0.0019669390950959463,0.001748293632,0.28970542577970043,0.3,-0.006341093219816685,-0.38622053389471483,-10.0,0.24720866978168488,-0.38622053388645716,-10.0,1.0947139263153076,-0.12295117918838609,-10.0,-0.00441019469872117,-1.3941816037985186,-10.0,0.822117805480957,-2.0693443537357603,-10.0,-0.09338107705116272,0.0,2.2727842079102913
4.379999999999995,0.27887601471349643,0.28,-0.0011811650778226345,0.0020211003760000003,0.2918879144220379,0.3,-0.0037371607031673193,-0.3857418302788352,-10.0,0.2440563440322876,-0.3857418302708163,-10.0,1.1004432439804077,-0.12296039076307393,-10.0,-0.003067961661145091,-1.394196335963253,-10.0,0.8316253423690796,-2.0692817241772845,-10.0,-0.09376457333564758,0.0,2.302873810604216
4.399999999999994,0.27887601471349643,0.28,-0.0011811650778226345,0.0023168000000000004,0.2918879144220379,0.3,-0.0037371607031673193,-0.3852225685225977,-10.0,0.2440563440322876,-0.38522256850946773,-10.0,1.1004432439804077,-0.12297106673131458,-10.0,-0.003067961661145091,-1.3942062066920358,-10.0,0.8316253423690796,-2.069209490011214,-10.0,-0.09376457333564758,0.0,2.3047491020709288
4.419999999999994,0.27887601471349643,0.28,-0.0011811650778226345,0.0026355324239999995,0.2918879144220379,0.3,-0.0037371607031673193,-0.38466253921756144,-10.0,0.2440563440322876,-0.384662539204759,-10.0,1.1004432439804077,-0.12298338809292633,-10.0,-0.003067961661145091,-1.3942097081835967,-10.0,0.8316253423690796,-2.0691265083168617,-10.0,-0.09376457333564758,0.0,2.306624393537642
4.439999999999993,0.27887601471349643,0.28,-0.0011811650778226345,0.002977351168,0.2918879144220379,0.3,-0.0037371607031673193,-0.38406168869544266,-10.0,0.2440563440322876,-0.3840616886830243,-10.0,1.1004432439804077,-0.12299754745426189,-10.0,-0.003067961661145091,-1.3942051867220642,-10.0,0.8316253423690796,-2.0690315648361772,-10.0,-0.09376457333564758,0.0,2.308499685004355
4.459999999999993,0.27887601471349643,0.28,-0.0011811650778226345,0.003342226232,0.2918879144220379,0.3,-0.0037371607031673193,-0.3834201134036047,-10.0,0.2440563440322876,-0.3834201133915691,-10.0,1.1004432439804077,-0.12301374777181484,-10.0,-0.003067961661145091,-1.3941908477366365,-10.0,0.8316253423690796,-2.068923381982301,-10.0,-0.09376457333564758,0.0,2.310374976471068
4.479999999999992,0.27979085675567794,0.28,-0.0007863135126653257,0.0037300469759999995,0.2929983475714514,0.3,-0.002375752665102482,-0.3827380542897104,-10.0,0.24592779576778412,-0.3827380542780359,-10.0,1.107543706893921,-0.12303220087236015,-10.0,-0.0026844663079828024,-1.3941647626252884,-10.0,0.8349809050559998,-2.0688006282477613,-10.0,-0.09376457333564758,0.0,2.2917058824002665
4.499999999999992,0.27979085675567794,0.28,-0.0007863135126653257,0.004140625,0.2929983475714514,0.3,-0.002375752665102482,-0.38201589118869955,-10.0,0.24592779576778412,-0.3820158911722016,-10.0,1.107543706893921,-0.12305312578151865,-10.0,-0.0026844663079828024,-1.3941248773928332,-10.0,0.8349809050559998,-2.068661928801791,-10.0,-0.09376457333564758,0.0,2.2935811738669796
4.519999999999992,0.27979085675567794,0.28,-0.0007863135126653257,0.004573697024000001,0.2929983475714514,0.3,-0.002375752665102482,-0.3812541371995693,-10.0,0.24592779576778412,-0.38125413718365775,-10.0,1.107543706893921,-0.1230767468841291,-10.0,-0.0026844663079828024,-1.3940690230774015,-10.0,0.8349809050559998,-2.068505877129256,-10.0,-0.09376457333564758,0.0,2.295456465333692
4.539999999999991,0.27979085675567794,0.28,-0.0007863135126653257,0.005028927768000001,0.2929983475714514,0.3,-0.002375752665102482,-0.38045343308074847,-10.0,0.24592779576778412,-0.3804534330705594,-10.0,1.107543706893921,-0.12310329193135303,-10.0,-0.0026844663079828024,-1.3939949277960286,-10.0,0.8349809050559998,-2.0683310476284498,-10.0,-0.09376457333564758,0.0,2.2973317568004052
4.559999999999991,0.27979085675567794,0.28,-0.0007863135126653257,0.005505912832000001,0.2929983475714514,0.3,-0.002375752665102482,-0.37961454164123865,-10.0,0.24592779576778412,-0.3796145416313553,-10.0,1.107543706893921,-0.12313298993341772,-10.0,-0.0026844663079828024,-1.3939002304384265,-10.0,0.8349809050559998,-2.06813600891618,-10.0,-0.09376457333564758,0.0,2.2992070482671183
4.57999999999999,0.2806251905735035,0.28,-5.9626114502611854e-05,0.0060041815759999985,0.2938312241915326,0.3,0.00022242721752263606,-0.37873834211615376,-10.0,0.2484607845544815,-0.3787383421119086,-10.0,1.1142452955245972,-0.12316606895113891,-10.0,-0.0026844663079828024,-1.3937824957795513,-10.0,0.8391354084014893,-2.0679193377746934,-10.0,-0.09395632147789001,0.0,2.325465523079039
4.59999999999999,0.2806251905735035,0.28,-5.9626114502611854e-05,0.006523199999999998,0.2938312241915326,0.3,0.00022242721752263606,-0.37782582458978464,-10.0,0.2484607845544815,-0.3778258245855726,-10.0,1.1142452955245972,-0.12320275382118966,-10.0,-0.0026844663079828024,-1.3936392309630175,-10.0,0.8391354084014893,-2.067679633520459,-10.0,-0.09395632147789001,0.0,2.3273446495085968
4.6199999999999894,0.2806251905735035,0.28,-5.9626114502611854e-05,0.007062373624,0.2938312241915326,0.3,0.00022242721752263606,-0.37687808439503845,-10.0,0.2484607845544815,-0.37687808438035153,-10.0,1.1142452955245972,-0.12324326384018086,-10.0,-0.0026844663079828024,-1.3934679031952368,-10.0,0.8391354084014893,-2.06741553264727,-10.0,-0.09395632147789001,0.0,2.3292237759381544
4.639999999999989,0.2806251905735035,0.28,-5.9626114502611854e-05,0.0076210503680000045,0.2938312241915326,0.3,0.00022242721752263606,-0.3758963165189982,-10.0,0.2484607845544815,-0.3758963165101094,-10.0,1.1142452955245972,-0.12328781042526964,-10.0,-0.0026844663079828024,-1.3932659584065417,-10.0,0.8391354084014893,-2.067125723649091,-10.0,-0.09395632147789001,0.0,2.331102902367712
4.659999999999989,0.2806251905735035,0.28,-5.9626114502611854e-05,0.008198523432000001,0.2938312241915326,0.3,0.00022242721752263606,-0.37488181008248334,-10.0,0.2484607845544815,-0.3748818100739829,-10.0,1.1142452955245972,-0.1233365947907477,-10.0,-0.0026844663079828024,-1.3930308408519907,-10.0,0.8391354084014893,-2.0668089617714966,-10.0,-0.09395632147789001,0.0,2.3329820287972702
4.679999999999988,0.28036494452753574,0.28,0.0007018952470836373,0.008794034176,0.29447570067704393,0.3,0.0029394906014204025,-0.37383594275077386,-10.0,0.24598532915115356,-0.37383594274252846,-10.0,1.114042043685913,-0.12338980565215595,-10.0,-0.0026844663079828024,-1.3927600133351263,-10.0,0.8408132195472717,-2.0664640836402683,-10.0,-0.09280584007501602,0.0,2.27073974646628
4.699999999999988,0.28036494452753574,0.28,0.0007018952470836373,0.009406775000000001,0.29447570067704393,0.3,0.0029394906014204025,-0.37276017521862786,-10.0,0.24598532915115356,-0.37276017521076177,-10.0,1.114042043685913,-0.12344761699134041,-10.0,-0.0026844663079828024,-1.3924509779776704,-10.0,0.8408132195472717,-2.066090021555557,-10.0,-0.09280584007501602,0.0,2.2725958632677807
4.719999999999987,0.28036494452753574,0.28,0.0007018952470836373,0.010035892224,0.29447570067704393,0.3,0.0029394906014204025,-0.37165604568893096,-10.0,0.24598532915115356,-0.3716560456814381,-10.0,1.114042043685913,-0.12351018589705204,-10.0,-0.0026844663079828024,-1.3921012972361864,-10.0,0.8408132195472717,-2.065685817376744,-10.0,-0.09280584007501602,0.0,2.274451980069281
4.739999999999987,0.28036494452753574,0.28,0.0007018952470836373,0.010680488968,0.29447570067704393,0.3,0.0029394906014204025,-0.37052516437206334,-10.0,0.24598532915115356,-0.3705251643701554,-10.0,1.114042043685913,-0.1235776505089136,-10.0,-0.0026844663079828024,-1.3917086150770854,-10.0,0.8408132195472717,-2.065250635818553,-10.0,-0.09280584007501602,0.0,2.2763080968707814
4.7599999999999865,0.28036494452753574,0.28,0.0007018952470836373,0.011339628032000004,0.29447570067704393,0.3,0.0029394906014204025,-0.36936920801482825,-10.0,0.24598532915115356,-0.36936920801297757,-10.0,1.114042043685913,-0.1236501280802083,-10.0,-0.0026844663079828024,-1.3912706780389945,-10.0,0.8408132195472717,-2.0647837770710398,-10.0,-0.09280584007501602,0.0,2.2781642136722815
4.779999999999986,0.2803602229447979,0.28,0.001273200563176956,0.012012334775999998,0.29455675632153966,0.3,0.00504104420542717,-0.36818991442184323,-10.0,0.24579358100891113,-0.36818991442004806,-10.0,1.1141608953475952,-0.12372771317937353,-10.0,-0.003067961661145091,-1.390785356026722,-10.0,0.8409730195999146,-2.064284688615547,-10.0,-0.091463603079319,0.0,2.1504268181324018
4.799999999999986,0.2803602229447979,0.28,0.001273200563176956,0.012697600000000003,0.29455675632153966,0.3,0.00504104420542717,-0.3669890770225776,-10.0,0.24579358100891113,-0.3669890770208363,-10.0,1.1141608953475952,-0.12381047604521701,-10.0,-0.003067961661145091,-1.3902506626307474,-10.0,0.8409730195999146,-2.063752976141497,-10.0,-0.091463603079319,0.0,2.1522560901939882
4.819999999999985,0.2803602229447979,0.28,0.001273200563176956,0.013394382823999998,0.29455675632153966,0.3,0.00504104420542717,-0.36576853944073284,-10.0,0.24579358100891113,-0.365768539449411,-10.0,1.1141608953475952,-0.12389846111185475,-10.0,-0.003067961661145091,-1.3896647748081057,-10.0,0.8409730195999146,-2.063188413455652,-10.0,-0.091463603079319,0.0,2.1540853622555747
4.839999999999985,0.2803602229447979,0.28,0.001273200563176956,0.014101613567999995,0.29455675632153966,0.3,0.00504104420542717,-0.3645301901141961,-10.0,0.24579358100891113,-0.3645301901227644,-10.0,1.1141608953475952,-0.12399168571619416,-10.0,-0.003067961661145091,-1.3890260517355872,-10.0,0.8409730195999146,-2.0625909512951197,-10.0,-0.091463603079319,0.0,2.155914634317161
4.859999999999984,0.2803602229447979,0.28,0.001273200563176956,0.014818196632,0.29455675632153966,0.3,0.00504104420542717,-0.36327595688531156,-10.0,0.24579358100891113,-0.3632759568934669,-10.0,1.1141608953475952,-0.12409013899703553,-10.0,-0.003067961661145091,-1.3883330526647266,-10.0,0.8409730195999146,-2.0619607249764114,-10.0,-0.091463603079319,0.0,2.157743906378747
4.879999999999984,0.28053127724994453,0.28,0.00277608177694794,0.015543013375999996,0.29439931772751515,0.3,0.010268083773553371,-0.362007801670408,-10.0,0.24745410680770874,-0.36200780167829566,-10.0,1.115503191947937,-0.1241937809987917,-10.0,-0.0023009711876511574,-1.3875845536449742,-10.0,0.8424910306930542,-2.0612980607794693,-10.0,-0.0866699144244194,0.0,2.104692302644254
4.8999999999999835,0.28053127724994453,0.28,0.00277608177694794,0.016274925000000006,0.29439931772751515,0.3,0.010268083773553371,-0.3607277151317854,-10.0,0.24745410680770874,-0.360727715134102,-10.0,1.115503191947937,-0.12430254198114636,-10.0,-0.0023009711876511574,-1.3867795629271598,-10.0,0.8424910306930542,-2.060603481046274,-10.0,-0.0866699144244194,0.0,2.1064257009327427
4.919999999999983,0.28053127724994453,0.28,0.00277608177694794,0.017012775424,0.29439931772751515,0.3,0.010268083773553371,-0.35943771137220504,-10.0,0.24745410680770874,-0.35943771137978514,-10.0,1.115503191947937,-0.12441632194739613,-10.0,-0.0023009711876511574,-1.38591733496534,-10.0,0.8424910306930542,-2.059877707885406,-10.0,-0.0866699144244194,0.0,2.108159099221231
4.939999999999983,0.28053127724994453,0.28,0.00277608177694794,0.017755394168000007,0.29439931772751515,0.3,0.010268083773553371,-0.3581398227069206,-10.0,0.24745410680770874,-0.3581398227090942,-10.0,1.115503191947937,-0.12453499039095313,-10.0,-0.0023009711876511574,-1.3849973828720137,-10.0,0.8424910306930542,-2.059121665466627,-10.0,-0.0866699144244194,0.0,2.109892497509719
4.959999999999982,0.28053127724994453,0.28,0.00277608177694794,0.018501599231999996,0.29439931772751515,0.3,0.010268083773553371,-0.3568360944049485,-10.0,0.24745410680770874,-0.35683609440705694,-10.0,1.115503191947937,-0.12465838626121285,-10.0,-0.0023009711876511574,-1.3840194891891613,-10.0,0.8424910306930542,-2.0583364808751217,-10.0,-0.0866699144244194,0.0,2.1116258957982077
4.979999999999982,0.28083539192307005,0.28,0.003399571180149118,0.019250199975999995,0.2933210462835724,0.3,0.012507695704698563,-0.3555285795440826,-10.0,0.25111842155456543,-0.3555285795512674,-10.0,1.1152710914611816,-0.12478631815662244,-10.0,-0.0024927188642323017,-1.3829837149848299,-10.0,0.8399343490600586,-2.0575234834385903,-10.0,-0.08475244045257568,0.0,1.9722495318949236
4.999999999999981,0.28083539192307005,0.28,0.003399571180149118,0.02,0.2933210462835724,0.3,0.012507695704698563,-0.3542193338795444,-10.0,0.25111842155456543,-0.3542193338811585,-10.0,1.1152710914611816,-0.12491856473276912,-10.0,-0.0024927188642323017,-1.3818904070376115,-10.0,0.8399343490600586,-2.0566842025928227,-10.0,-0.08475244045257568,0.0,1.973944580703975
5.019999999999981,0.28083539192307005,0.28,0.003399571180149118,0.020749800024000013,0.2933210462835724,0.3,0.012507695704698563,-0.35291041075057056,-10.0,0.25111842155456543,-0.35291041075213625,-10.0,1.1152710914611816,-0.12505487533591192,-10.0,-0.0024927188642323017,-1.3807402032319658,-10.0,0.8399343490600586,-2.0558203641735604,-10.0,-0.08475244045257568,0.0,1.9756396295130267
5.0399999999999805,0.28083539192307005,0.28,0.003399571180149118,0.021498400768000005,0.2933210462835724,0.3,0.012507695704698563,-0.3516038560926213,-10.0,0.25111842155456543,-0.35160385608878597,-10.0,1.1152710914611816,-0.1251949708468071,-10.0,-0.0024927188642323017,-1.3795340359419501,-10.0,0.8399343490600586,-2.0549338852189223,-10.0,-0.08475244045257568,0.0,1.9773346783220782
5.05999999999998,0.28083539192307005,0.28,0.003399571180149118,0.022244605832,0.2933210462835724,0.3,0.012507695704698563,-0.35030170346759265,-10.0,0.25111842155456543,-0.350301703464326,-10.0,1.1152710914611816,-0.12533854474137332,-10.0,-0.0024927188642323017,-1.3782731335428087,-10.0,0.8399343490600586,-2.0540268671981923,-10.0,-0.08475244045257568,0.0,1.9790297271311297
5.07999999999998,0.2809911595605213,0.28,0.005564416101936629,0.02298722457600001,0.2957927326797778,0.3,0.02014116756618023,-0.34900596919807686,-10.0,0.2466353476047516,-0.3490059691946909,-10.0,1.120542287826538,-0.12548526434739837,-10.0,-0.002109223511070013,-1.3769590198176724,-10.0,0.8452873229980469,-2.0531015877951795,-10.0,-0.0788082629442215,0.0,1.882266733348371
5.099999999999979,0.2809911595605213,0.28,0.005564416101936629,0.023725075000000012,0.2957927326797778,0.3,0.02014116756618023,-0.3477186475557727,-10.0,0.2466353476047516,-0.34771864755245646,-10.0,1.120542287826538,-0.12563477230909562,-10.0,-0.002109223511070013,-1.3755935115128795,-10.0,0.8452873229980469,-2.0521604911202855,-10.0,-0.0788082629442215,0.0,1.8838428986072555
5.119999999999979,0.2809911595605213,0.28,0.005564416101936629,0.024456986623999994,0.2957927326797778,0.3,0.02014116756618023,-0.34644170603676144,-10.0,0.2466353476047516,-0.3464417060333163,-10.0,1.120542287826538,-0.12578668823253927,-10.0,-0.002109223511070013,-1.3741787138040757,-10.0,0.8452873229980469,-2.051206176531255,-10.0,-0.0788082629442215,0.0,1.8854190638661399
5.139999999999978,0.2809911595605213,0.28,0.005564416101936629,0.025181803367999994,0.2957927326797778,0.3,0.02014116756618023,-0.34517708072203745,-10.0,0.2466353476047516,-0.34517708071892955,-10.0,1.120542287826538,-0.12594061051760802,-10.0,-0.002109223511070013,-1.3727170138769202,-10.0,0.8452873229980469,-2.050241385987558,-10.0,-0.0788082629442215,0.0,1.8869952291250243
5.159999999999978,0.2809911595605213,0.28,0.005564416101936629,0.025898386431999994,0.2957927326797778,0.3,0.02014116756618023,-0.3439266717159643,-10.0,0.2466353476047516,-0.3439266717231101,-10.0,1.120542287826538,-0.12609611835436974,-10.0,-0.002109223511070013,-1.3712110725129019,-10.0,0.8452873229980469,-2.049268990086685,-10.0,-0.0788082629442215,0.0,1.8885713943839089
5.1799999999999775,0.2811194296294542,0.28,0.006139203635677112,0.026605617176000008,0.29712562960269306,0.3,0.022177526727318764,-0.3426923387005683,-10.0,0.24526435136795044,-0.3426923387123296,-10.0,1.1246649026870728,-0.12625277388415987,-10.0,-0.002109223511070013,-1.3696638138464687,-10.0,0.8511995673179626,-2.048291972756349,-10.0,-0.07631554454565048,0.0,1.7375214152038112
5.199999999999977,0.2811194296294542,0.28,0.006139203635677112,0.027302399999999984,0.29712562960269306,0.3,0.022177526727318764,-0.341475896541187,-10.0,0.24526435136795044,-0.3414758965523454,-10.0,1.1246649026870728,-0.12641012450629127,-10.0,-0.002109223511070013,-1.36807841327394,-10.0,0.8511995673179626,-2.047313414734183,-10.0,-0.07631554454565048,0.0,1.7390477260947241
5.219999999999977,0.2811194296294542,0.28,0.006139203635677112,0.027987665224000004,0.29712562960269306,0.3,0.022177526727318764,-0.340279111006953,-10.0,0.24526435136795044,-0.34027911101752134,-10.0,1.1246649026870728,-0.1265677053192223,-10.0,-0.002109223511070013,-1.36645828355866,-10.0,0.8511995673179626,-2.046336475910701,-10.0,-0.07631554454565048,0.0,1.740574036985637
5.239999999999976,0.2811194296294542,0.28,0.006139203635677112,0.028660371968000007,0.29712562960269306,0.3,0.022177526727318764,-0.33910369458558254,-10.0,0.24526435136795044,-0.3391036945958338,-10.0,1.1246649026870728,-0.1267250416892818,-10.0,-0.002109223511070013,-1.364807059296629,-10.0,0.8511995673179626,-2.0453643765817886,-10.0,-0.07631554454565048,0.0,1.74210034787655
5.259999999999976,0.2811194296294542,0.28,0.006139203635677112,0.029319511031999996,0.29712562960269306,0.3,0.022177526727318764,-0.3379513023735427,-10.0,0.24526435136795044,-0.33795130238333465,-10.0,1.1246649026870728,-0.12688165192474832,-10.0,-0.002109223511070013,-1.3631285797128816,-10.0,0.8511995673179626,-2.0444003777825093,-10.0,-0.07631554454565048,0.0,1.7436266587674631
5.279999999999975,0.28079889816262305,0.28,0.008854822623465028,0.029964107776000035,0.29674050944103997,0.3,0.03177065774798393,-0.336823528055059,-10.0,0.24526435136795044,-0.3368235280645572,-10.0,1.1230100393295288,-0.12703705005053234,-10.0,-0.0015339808305725455,-1.3614268699635503,-10.0,0.8514392375946045,-2.043447760744976,-10.0,-0.06883738934993744,0.0,1.6365290625393403
5.299999999999975,0.28079889816262305,0.28,0.008854822623465028,0.030593224999999974,0.29674050944103997,0.3,0.03177065774798393,-0.33572189995624424,-10.0,0.24526435136795044,-0.3357218999654575,-10.0,1.1230100393295288,-0.1271907486626731,-10.0,-0.0015339808305725455,-1.3597061209561063,-10.0,0.8514392375946045,-2.0425098056600706,-10.0,-0.06883738934993744,0.0,1.637905810326339
5.3199999999999745,0.28079889816262305,0.28,0.008854822623465028,0.031205965824000002,0.29674050944103997,0.3,0.03177065774798393,-0.3346478771701846,-10.0,0.24526435136795044,-0.33464787718384725,-10.0,1.1230100393295288,-0.12734226185367237,-10.0,-0.0015339808305725455,-1.3579706678741221,-10.0,0.8514392375946045,-2.0415897698213805,-10.0,-0.06883738934993744,0.0,1.639282558113338
5.339999999999974,0.28079889816262305,0.28,0.008854822623465028,0.031801476568,0.29674050944103997,0.3,0.03177065774798393,-0.33360284575269966,-10.0,0.24526435136795044,-0.3336028457653823,-10.0,1.1230100393295288,-0.1274911081905302,-10.0,-0.0015339808305725455,-1.3562249674154947,-10.0,0.8514392375946045,-2.0406908653304803,-10.0,-0.06883738934993744,0.0,1.6406593059003367
